; generated by PrusaSlicer 2.5.2+win64 on 2023-05-09 at 23:39:45 UTC

; 

; external perimeters extrusion width = 0.45mm
; perimeters extrusion width = 0.45mm
; infill extrusion width = 0.45mm
; solid infill extrusion width = 0.45mm
; top infill extrusion width = 0.40mm
; first layer extrusion width = 0.42mm

M73 P0 R22
M73 Q0 S22
M201 X1000 Y1000 Z200 E5000 ; sets maximum accelerations, mm/sec^2
M203 X200 Y200 Z12 E120 ; sets maximum feedrates, mm / sec
M204 P1250 R1250 T1250 ; sets acceleration (P, T) and retract acceleration (R), mm/sec^2
M205 X8.00 Y8.00 Z0.40 E4.50 ; sets the jerk limits, mm/sec
M205 S0 T0 ; sets the minimum extruding and travel feed rate, mm/sec
M107
;TYPE:Custom
M862.3 P "MK3" ; printer model check
M862.1 P0.4 ; nozzle diameter check
M115 U3.10.1 ; tell printer latest fw version
G90 ; use absolute coordinates
M83 ; extruder relative mode
M104 S215 ; set extruder temp
M140 S60 ; set bed temp
M190 S60 ; wait for bed temp
M109 S215 ; wait for extruder temp
G28 W ; home all without mesh bed level
G80 ; mesh bed leveling
G1 Z0.2 F720
G1 Y-3 F1000 ; go outside print area
G92 E0
G1 X60 E9 F1000 ; intro line
G1 X100 E12.5 F1000 ; intro line
G92 E0
M221 S95

; Don't change E values below. Excessive value can damage the printer.
M907 E430 ; set extruder motor current
G21 ; set units to millimeters
G90 ; use absolute coordinates
M83 ; use relative distances for extrusion
M900 K0.05 ; Filament gcode LA 1.5
M900 K30 ; Filament gcode LA 1.0
M107
;LAYER_CHANGE
;Z:0.2
;HEIGHT:0.2
;BEFORE_LAYER_CHANGE
G92 E0.0
;0.2


G1 E-.8 F2100
G1 Z.4 F720
;AFTER_LAYER_CHANGE
;0.2
G1 X93.706 Y85.872 F10800
G1 Z.2 F720
G1 E.8 F2100
M204 S800
;TYPE:Skirt/Brim
;WIDTH:0.42
G1 F1200
G1 X94.735 Y84.799 E.04663
G1 X95.61 Y84.191 E.03338
G1 X96.927 Y83.61 E.04516
G1 X98.388 Y83.331 E.04663
G1 X120.863 Y83.314 E.70468
G1 X122.073 Y83.428 E.0381
G1 X123.055 Y83.697 E.03191
G1 X124.154 Y84.214 E.0381
G1 X124.987 Y84.799 E.03191
G1 X125.847 Y85.658 E.0381
G1 X126.433 Y86.49 E.03191
G1 X126.951 Y87.589 E.03811
G1 X127.22 Y88.571 E.03191
G1 X127.338 Y89.87 E.0409
G1 X127.318 Y112.268 E.70226
G1 X127.163 Y113.274 E.03191
G1 X126.951 Y113.988 E.02336
G1 X126.658 Y114.673 E.02336
G1 X126.017 Y115.705 E.0381
G1 X124.987 Y116.778 E.04663
G1 X123.74 Y117.588 E.04663
G1 X122.795 Y117.967 E.03191
G1 X121.334 Y118.246 E.04663
G1 X98.388 Y118.246 E.71946
G1 X97.382 Y118.092 E.03191
G1 X96.668 Y117.88 E.02336
G1 X95.983 Y117.588 E.02336
G1 X94.95 Y116.948 E.0381
G1 X94.158 Y116.236 E.03338
G1 X93.29 Y115.087 E.04516
G1 X92.684 Y113.729 E.04663
G1 X92.404 Y112.268 E.04663
G1 X92.404 Y89.309 E.71985
G1 X92.559 Y88.303 E.03191
M73 Q1 S22
G1 X92.772 Y87.589 E.02336
G1 X93.29 Y86.49 E.0381
M73 P1 R22
G1 X93.672 Y85.922 E.02147
M204 S1000
; printing object Motor-mainrod fitting v4mf id:0 copy 0
;WIPE_START
G1 F8640
G1 X94.735 Y84.799 E-.35708
G1 X95.61 Y84.191 E-.24582
G1 X96.232 Y83.917 E-.1571
;WIPE_END
G1 E-.04 F2100
G1 Z.6 F720
G1 X109.637 Y93.065 F10800
G1 Z.2 F720
G1 E.8 F2100
M204 S800
;TYPE:Perimeter
;WIDTH:0.419999
G1 F1200
G1 X109.861 Y93.134 E.00737
G1 X110.179 Y93.036 E.01042
G1 X118.743 Y87.223 E.32454
G1 X119.305 Y86.867 E.02087
G1 X119.782 Y86.663 E.01626
G1 X120.412 Y86.507 E.02036
G1 X120.936 Y86.483 E.01642
G1 X121.599 Y86.563 E.02095
G1 X122.271 Y86.792 E.02224
G1 X122.704 Y87.043 E.01571
G1 X123.22 Y87.466 E.02091
G1 X123.565 Y87.885 E.01703
G1 X123.879 Y88.432 E.01979
G1 X124.1 Y89.097 E.02196
G1 X124.163 Y89.603 E.01598
G1 X124.143 Y90.234 E.0198
G1 X124.029 Y90.737 E.01616
G1 X123.847 Y91.21 E.0159
G1 X123.591 Y91.665 E.01637
G1 X117.625 Y100.471 E.3335
G1 X117.528 Y100.789 E.0104
G1 X117.625 Y101.106 E.0104
G1 X123.598 Y109.923 E.33392
G1 X123.869 Y110.417 E.01766
G1 X124.078 Y111.012 E.0198
G1 X124.171 Y111.749 E.02329
G1 X124.141 Y112.215 E.01464
G1 X123.989 Y112.872 E.02113
G1 X123.77 Y113.361 E.0168
G1 X123.42 Y113.887 E.0198
G1 X122.917 Y114.385 E.02218
G1 X122.498 Y114.662 E.01576
G1 X121.891 Y114.934 E.02085
G1 X121.36 Y115.057 E.01708
G1 X120.73 Y115.095 E.01979
G1 X120.039 Y114.996 E.02191
G1 X119.556 Y114.827 E.01604
G1 X118.982 Y114.517 E.02046
G1 X110.179 Y108.541 E.3336
G1 X109.861 Y108.443 E.01042
G1 X109.544 Y108.541 E.01042
G1 X100.98 Y114.354 E.32454
G1 X100.417 Y114.71 E.02087
G1 X99.941 Y114.914 E.01626
G1 X99.283 Y115.072 E.02118
G1 X98.75 Y115.093 E.01675
G1 X98.123 Y115.014 E.0198
G1 X97.452 Y114.785 E.02224
G1 X97.018 Y114.534 E.01571
G1 X96.503 Y114.111 E.02091
G1 X96.158 Y113.692 E.01703
G1 X95.843 Y113.145 E.01979
G1 X95.623 Y112.48 E.02196
G1 X95.56 Y111.974 E.01598
G1 X95.58 Y111.343 E.0198
G1 X95.694 Y110.84 E.01616
G1 X95.876 Y110.367 E.0159
G1 X96.131 Y109.912 E.01637
G1 X102.097 Y101.106 E.3335
G1 X102.194 Y100.789 E.0104
G1 X102.097 Y100.471 E.0104
G1 X96.124 Y91.654 E.33392
G1 X95.853 Y91.16 E.01766
G1 X95.644 Y90.565 E.0198
G1 X95.552 Y89.881 E.02162
G1 X95.582 Y89.362 E.01632
G1 X95.733 Y88.705 E.02113
G1 X95.953 Y88.216 E.0168
G1 X96.303 Y87.69 E.0198
G1 X96.805 Y87.192 E.02218
G1 X97.225 Y86.915 E.01576
G1 X97.831 Y86.643 E.02085
G1 X98.362 Y86.52 E.01708
G1 X98.957 Y86.48 E.01869
G1 X99.684 Y86.581 E.02302
G1 X100.167 Y86.75 E.01604
G1 X100.741 Y87.06 E.02046
G1 X109.579 Y93.047 E.33471
M204 S1000
G1 X109.755 Y92.724 F10800
M204 S800
;TYPE:External perimeter
G1 F1200
G1 X109.861 Y92.757 E.00347
G1 X109.967 Y92.724 E.00347
G1 X118.947 Y86.642 E.34006
G1 X119.401 Y86.407 E.01603
G1 X119.898 Y86.23 E.01656
G1 X120.409 Y86.129 E.01633
G1 X121.16 Y86.114 E.02354
G1 X121.699 Y86.199 E.0171
G1 X122.213 Y86.362 E.01693
G1 X122.678 Y86.584 E.01613
G1 X123.112 Y86.868 E.01628
G1 X123.501 Y87.215 E.01633
G1 X123.996 Y87.842 E.02506
G1 X124.229 Y88.291 E.01587
G1 X124.409 Y88.797 E.01683
G1 X124.513 Y89.304 E.01623
G1 X124.548 Y89.813 E.016
G1 X124.508 Y90.333 E.01633
G1 X124.388 Y90.851 E.01668
G1 X124.191 Y91.365 E.01726
G1 X123.91 Y91.868 E.01807
M73 P1 R21
G1 X117.938 Y100.683 E.33384
G1 X117.905 Y100.789 E.00347
G1 X117.938 Y100.894 E.00347
G1 X123.922 Y109.73 E.3346
G1 X124.191 Y110.212 E.01731
G1 X124.388 Y110.726 E.01726
G1 X124.508 Y111.244 E.01668
G1 X124.548 Y111.764 E.01633
G1 X124.54 Y111.988 E.00705
G1 X124.477 Y112.511 E.0165
G1 X124.339 Y113.013 E.01633
G1 X124.019 Y113.692 E.02354
G1 X123.701 Y114.138 E.01716
G1 X123.326 Y114.525 E.01691
G1 X122.921 Y114.843 E.01615
G1 X122.474 Y115.104 E.01623
G1 X121.991 Y115.298 E.01633
G1 X121.478 Y115.42 E.01654
G1 X120.93 Y115.472 E.01726
G1 X120.409 Y115.448 E.01632
G1 X119.898 Y115.347 E.01633
G1 X119.401 Y115.17 E.01656
G1 X118.779 Y114.835 E.02216
G1 X109.967 Y108.853 E.33394
G1 X109.861 Y108.82 E.00347
G1 X109.755 Y108.853 E.00347
G1 X100.776 Y114.935 E.34006
G1 X100.322 Y115.17 E.01603
G1 X99.824 Y115.347 E.01656
G1 X99.313 Y115.448 E.01633
G1 X98.562 Y115.463 E.02354
G1 X98.024 Y115.378 E.0171
G1 X97.509 Y115.215 E.01693
G1 X97.045 Y114.993 E.01613
G1 X96.61 Y114.709 E.01628
G1 X96.222 Y114.362 E.01633
G1 X95.727 Y113.735 E.02506
G1 X95.493 Y113.286 E.01587
G1 X95.314 Y112.78 E.01683
G1 X95.209 Y112.273 E.01623
G1 X95.174 Y111.764 E.016
G1 X95.215 Y111.244 E.01633
G1 X95.334 Y110.726 E.01668
G1 X95.532 Y110.212 E.01726
G1 X95.813 Y109.709 E.01807
G1 X101.785 Y100.894 E.33384
G1 X101.814 Y100.821 E.00248
G1 X101.785 Y100.683 E.00444
G1 X95.801 Y91.847 E.3346
G1 X95.435 Y91.15 E.02466
M73 Q1 S21
G1 X95.274 Y90.637 E.01688
G1 X95.191 Y90.101 E.01701
G1 X95.183 Y89.589 E.01605
G1 X95.246 Y89.066 E.0165
G1 X95.384 Y88.564 E.01633
G1 X95.704 Y87.885 E.02354
G1 X96.021 Y87.439 E.01716
G1 X96.396 Y87.052 E.01691
G1 X96.802 Y86.734 E.01615
G1 X97.249 Y86.473 E.01623
G1 X97.732 Y86.279 E.01633
G1 X98.245 Y86.157 E.01654
G1 X98.768 Y86.106 E.01649
G1 X99.313 Y86.129 E.01709
G1 X99.824 Y86.23 E.01633
G1 X100.322 Y86.407 E.01656
G1 X100.944 Y86.742 E.02216
G1 X109.706 Y92.691 E.33206
M204 S1000
G1 X109.77 Y92.834 F10800
;WIPE_START
M73 Q2 S21
G1 F8640
G1 X109.861 Y92.757 E-.03904
G1 X109.967 Y92.724 E-.02558
G1 X112.461 Y91.035 E-.69538
;WIPE_END
G1 E-.04 F2100
G1 Z.6 F720
G1 X118.569 Y111.141 F10800
M73 P2 R21
G1 Z.2 F720
G1 E.8 F2100
M204 S800
;TYPE:Perimeter
G1 F1200
G1 X118.749 Y110.678 E.01557
G1 X119.027 Y110.268 E.01555
G1 X119.293 Y109.99 E.01204
G1 X119.65 Y109.733 E.01381
G1 X120.048 Y109.545 E.01381
G1 X120.474 Y109.434 E.01381
G1 X120.882 Y109.405 E.01282
G1 X121.351 Y109.453 E.01478
G1 X121.772 Y109.583 E.01381
G1 X122.161 Y109.788 E.01381
G1 X122.507 Y110.061 E.01381
G1 X122.804 Y110.405 E.01428
G1 X123.02 Y110.772 E.01333
G1 X123.17 Y111.186 E.01381
G1 X123.242 Y111.732 E.01727
G1 X123.232 Y112.061 E.01031
G1 X123.17 Y112.391 E.01054
G1 X122.99 Y112.871 E.01608
G1 X122.734 Y113.268 E.0148
G1 X122.348 Y113.649 E.01699
G1 X122.073 Y113.844 E.01059
G1 X121.642 Y114.041 E.01485
G1 X121.086 Y114.158 E.01781
G1 X120.518 Y114.147 E.01781
G1 X120.031 Y114.027 E.01573
G1 X119.561 Y113.789 E.01651
G1 X119.216 Y113.516 E.01381
G1 X118.926 Y113.185 E.01381
G1 X118.702 Y112.805 E.01381
G1 X118.552 Y112.391 E.01381
G1 X118.481 Y111.957 E.01381
G1 X118.491 Y111.516 E.01381
G1 X118.557 Y111.2 E.01013
M204 S1000
G1 X118.933 Y111.222 F10800
M204 S800
;TYPE:External perimeter
G1 F1200
G1 X119.07 Y110.877 E.01163
G1 X119.306 Y110.522 E.01337
G1 X119.52 Y110.291 E.00986
G1 X119.818 Y110.07 E.01163
G1 X120.151 Y109.908 E.01163
G1 X120.509 Y109.809 E.01163
G1 X120.852 Y109.78 E.01079
G1 X121.248 Y109.816 E.01246
G1 X121.604 Y109.92 E.01164
G1 X121.934 Y110.089 E.01163
G1 X122.228 Y110.315 E.01163
G1 X122.484 Y110.604 E.0121
G1 X122.734 Y111.076 E.01676
G1 X122.861 Y111.586 E.01646
G1 X122.861 Y111.991 E.01272
G1 X122.799 Y112.322 E.01054
G1 X122.653 Y112.7 E.01272
G1 X122.455 Y113.014 E.01163
G1 X122.121 Y113.348 E.01481
G1 X121.697 Y113.61 E.01563
G1 X121.214 Y113.768 E.01595
G1 X120.844 Y113.799 E.01163
G1 X120.385 Y113.736 E.01454
G1 X119.919 Y113.557 E.01563
G1 X119.494 Y113.262 E.01622
G1 X119.247 Y112.986 E.01163
G1 X119.054 Y112.669 E.01163
G1 X118.923 Y112.322 E.01163
G1 X118.858 Y111.957 E.01163
G1 X118.861 Y111.586 E.01163
G1 X118.921 Y111.281 E.00975
M204 S1000
G1 X118.677 Y110.953 F10800
;WIPE_START
G1 F8640
G1 X119.07 Y110.877 E-.0993
G1 X119.306 Y110.522 E-.09849
G1 X119.52 Y110.291 E-.07265
G1 X119.818 Y110.07 E-.08566
G1 X120.151 Y109.908 E-.08565
G1 X120.509 Y109.809 E-.08566
G1 X120.852 Y109.78 E-.07944
G1 X121.248 Y109.816 E-.09175
G1 X121.503 Y109.891 E-.0614
;WIPE_END
G1 E-.04 F2100
G1 Z.6 F720
G1 X116.298 Y107.655 F10800
G1 Z.2 F720
G1 E.8 F2100
M204 S800
;TYPE:Perimeter
G1 F1200
G1 X116.183 Y107.676 E.00366
G1 X103.54 Y107.676 E.39641
G1 X103.294 Y107.619 E.00791
G1 X103.077 Y107.435 E.00893
G1 X103.014 Y107.32 E.00411
G1 X102.974 Y107.11 E.00669
G1 X102.974 Y94.467 E.39641
G1 X103.037 Y94.208 E.00834
G1 X103.204 Y94.012 E.00811
G1 X103.464 Y93.906 E.00879
G1 X103.54 Y93.901 E.00237
G1 X116.183 Y93.901 E.39641
G1 X116.429 Y93.958 E.00791
G1 X116.646 Y94.142 E.00893
G1 X116.745 Y94.408 E.0089
G1 X116.748 Y94.467 E.00185
G1 X116.748 Y107.11 E.39641
G1 X116.686 Y107.369 E.00834
G1 X116.518 Y107.565 E.00811
G1 X116.353 Y107.632 E.00558
M204 S1000
G1 X116.183 Y107.299 F10800
M204 S800
;TYPE:External perimeter
G1 F1200
G1 X103.54 Y107.299 E.39641
G1 X103.393 Y107.229 E.00509
G1 X103.351 Y107.11 E.00395
G1 X103.351 Y94.467 E.39641
G1 X103.408 Y94.332 E.00459
G1 X103.54 Y94.279 E.00446
G1 X116.183 Y94.279 E.39641
G1 X116.329 Y94.348 E.00509
G1 X116.371 Y94.467 E.00395
G1 X116.371 Y107.11 E.39641
G1 X116.315 Y107.245 E.00459
G1 X116.238 Y107.276 E.00258
M204 S1000
G1 X116.079 Y107.685 F10800
;WIPE_START
G1 F8640
G1 X112.947 Y107.282 E-.76
;WIPE_END
G1 E-.04 F2100
G1 Z.6 F720
G1 X101.233 Y112.003 F10800
G1 Z.2 F720
G1 E.8 F2100
M204 S800
;TYPE:Perimeter
G1 F1200
G1 X101.142 Y112.492 E.01557
G1 X100.974 Y112.899 E.01381
G1 X100.734 Y113.268 E.01381
G1 X100.43 Y113.587 E.01381
G1 X99.971 Y113.895 E.01732
G1 X99.674 Y114.032 E.01026
G1 X99.204 Y114.147 E.01518
G1 X98.636 Y114.158 E.01781
G1 X98.08 Y114.041 E.01781
G1 X97.604 Y113.819 E.01649
G1 X97.192 Y113.49 E.01652
G1 X96.839 Y113.045 E.01781
G1 X96.596 Y112.531 E.01781
G1 X96.488 Y112.043 E.01569
G1 X96.491 Y111.516 E.0165
G1 X96.637 Y110.94 E.01864
G1 X96.749 Y110.678 E.00892
G1 X96.989 Y110.309 E.01381
G1 X97.293 Y109.99 E.01381
G1 X97.65 Y109.733 E.01381
G1 X98.048 Y109.545 E.01381
G1 X98.474 Y109.434 E.01381
G1 X98.882 Y109.405 E.01282
G1 X99.351 Y109.453 E.01478
G1 X99.772 Y109.583 E.01381
G1 X100.161 Y109.788 E.01381
G1 X100.507 Y110.061 E.01381
G1 X100.796 Y110.392 E.01381
G1 X101.048 Y110.844 E.01621
G1 X101.17 Y111.186 E.01138
G1 X101.242 Y111.62 E.01381
G1 X101.234 Y111.943 E.01013
M204 S1000
G1 X100.861 Y111.991 F10800
M204 S800
;TYPE:External perimeter
G1 F1200
G1 X100.79 Y112.355 E.01163
G1 X100.653 Y112.7 E.01163
G1 X100.455 Y113.014 E.01163
G1 X100.203 Y113.286 E.01163
G1 X99.803 Y113.557 E.01514
G1 X99.338 Y113.736 E.01563
G1 X98.844 Y113.799 E.01562
G1 X98.475 Y113.761 E.01163
G1 X98.025 Y113.61 E.01486
G1 X97.602 Y113.348 E.01563
G1 X97.247 Y112.986 E.01589
G1 X97.054 Y112.669 E.01163
G1 X96.948 Y112.395 E.00921
G1 X96.858 Y111.957 E.01403
G1 X96.866 Y111.56 E.01245
G1 X96.989 Y111.076 E.01563
G1 X97.239 Y110.604 E.01676
G1 X97.52 Y110.291 E.01319
G1 X97.818 Y110.07 E.01163
G1 X98.151 Y109.908 E.01163
G1 X98.509 Y109.809 E.01163
G1 X98.852 Y109.78 E.01079
G1 X99.248 Y109.816 E.01246
G1 X99.604 Y109.92 E.01164
G1 X99.934 Y110.089 E.01163
G1 X100.228 Y110.315 E.01163
G1 X100.476 Y110.591 E.01163
G1 X100.696 Y110.98 E.01403
G1 X100.799 Y111.255 E.0092
G1 X100.864 Y111.62 E.01163
G1 X100.862 Y111.931 E.00975
M204 S1000
G1 X101.162 Y112.208 F10800
;WIPE_START
G1 F8640
G1 X100.79 Y112.355 E-.0993
G1 X100.653 Y112.7 E-.08565
G1 X100.455 Y113.014 E-.08566
G1 X100.203 Y113.286 E-.08565
G1 X99.803 Y113.557 E-.11149
G1 X99.338 Y113.736 E-.11507
G1 X98.844 Y113.799 E-.11501
G1 X98.576 Y113.771 E-.06215
;WIPE_END
G1 E-.04 F2100
G1 Z.6 F720
G1 X97.26 Y91.552 F10800
G1 Z.2 F720
G1 E.8 F2100
M204 S800
;TYPE:Perimeter
G1 F1200
G1 X96.918 Y91.172 E.01603
G1 X96.702 Y90.805 E.01333
G1 X96.552 Y90.391 E.01381
G1 X96.481 Y89.845 E.01727
G1 X96.491 Y89.516 E.01031
G1 X96.596 Y89.046 E.01512
G1 X96.839 Y88.532 E.01781
G1 X97.192 Y88.087 E.01781
G1 X97.577 Y87.776 E.01551
G1 X98.048 Y87.545 E.01646
G1 X98.474 Y87.434 E.01381
G1 X98.884 Y87.405 E.01287
G1 X99.441 Y87.479 E.01763
G1 X99.772 Y87.583 E.01087
G1 X100.21 Y87.824 E.01569
G1 X100.507 Y88.061 E.0119
G1 X100.796 Y88.392 E.01381
G1 X101.02 Y88.772 E.01381
G1 X101.17 Y89.186 E.01381
G1 X101.242 Y89.62 E.01381
G1 X101.232 Y90.061 E.01381
G1 X101.142 Y90.492 E.01381
G1 X100.974 Y90.899 E.01381
G1 X100.734 Y91.268 E.01381
G1 X100.43 Y91.587 E.01381
G1 X100.073 Y91.844 E.01381
G1 X99.674 Y92.032 E.01381
G1 X99.248 Y92.143 E.01381
G1 X98.809 Y92.174 E.01381
G1 X98.372 Y92.124 E.01381
G1 X97.951 Y91.994 E.01381
G1 X97.561 Y91.789 E.01381
G1 X97.307 Y91.589 E.01014
M204 S1000
G1 X97.494 Y91.262 F10800
M204 S800
;TYPE:External perimeter
G1 F1200
G1 X97.239 Y90.973 E.0121
G1 X96.989 Y90.501 E.01676
G1 X96.861 Y89.991 E.01646
G1 X96.861 Y89.586 E.01272
G1 X96.948 Y89.182 E.01294
G1 X97.16 Y88.731 E.01563
G1 X97.494 Y88.315 E.01674
G1 X97.794 Y88.085 E.01184
G1 X98.184 Y87.899 E.01355
G1 X98.671 Y87.794 E.01563
G1 X99.18 Y87.807 E.01596
G1 X99.604 Y87.92 E.01375
G1 X99.983 Y88.125 E.01351
G1 X100.228 Y88.315 E.00973
G1 X100.476 Y88.591 E.01163
G1 X100.668 Y88.908 E.01163
G1 X100.799 Y89.255 E.01163
G1 X100.864 Y89.62 E.01163
G1 X100.861 Y89.991 E.01163
G1 X100.79 Y90.355 E.01163
G1 X100.653 Y90.7 E.01163
G1 X100.455 Y91.014 E.01163
G1 X100.203 Y91.286 E.01163
G1 X99.905 Y91.507 E.01163
G1 X99.571 Y91.669 E.01163
G1 X99.214 Y91.768 E.01163
G1 X98.844 Y91.799 E.01163
G1 X98.475 Y91.761 E.01163
G1 X98.119 Y91.657 E.01163
G1 X97.788 Y91.488 E.01163
G1 X97.542 Y91.299 E.00975
M204 S1000
G1 X97.125 Y91.374 F10800
;WIPE_START
G1 F8640
G1 X97.239 Y90.973 E-.10275
G1 X96.989 Y90.501 E-.1234
G1 X96.861 Y89.991 E-.12122
G1 X96.861 Y89.586 E-.09365
G1 X96.948 Y89.182 E-.09532
G1 X97.16 Y88.731 E-.1151
G1 X97.454 Y88.364 E-.10855
;WIPE_END
