; generated by PrusaSlicer 2.5.2+win64 on 2023-05-09 at 23:51:41 UTC

; 

; external perimeters extrusion width = 0.45mm
; perimeters extrusion width = 0.45mm
; infill extrusion width = 0.45mm
; solid infill extrusion width = 0.45mm
; top infill extrusion width = 0.40mm
; first layer extrusion width = 0.42mm

M73 P0 R23
M73 Q0 S23
M201 X1000 Y1000 Z200 E5000 ; sets maximum accelerations, mm/sec^2
M203 X200 Y200 Z12 E120 ; sets maximum feedrates, mm / sec
M204 P1250 R1250 T1250 ; sets acceleration (P, T) and retract acceleration (R), mm/sec^2
M205 X8.00 Y8.00 Z0.40 E4.50 ; sets the jerk limits, mm/sec
M205 S0 T0 ; sets the minimum extruding and travel feed rate, mm/sec
M107
;TYPE:Custom
M862.3 P "MK3" ; printer model check
M862.1 P0.4 ; nozzle diameter check
M115 U3.10.1 ; tell printer latest fw version
G90 ; use absolute coordinates
M83 ; extruder relative mode
M104 S215 ; set extruder temp
M140 S60 ; set bed temp
M190 S60 ; wait for bed temp
M109 S215 ; wait for extruder temp
G28 W ; home all without mesh bed level
G80 ; mesh bed leveling
G1 Z0.2 F720
G1 Y-3 F1000 ; go outside print area
G92 E0
G1 X60 E9 F1000 ; intro line
G1 X100 E12.5 F1000 ; intro line
G92 E0
M221 S95

; Don't change E values below. Excessive value can damage the printer.
M907 E430 ; set extruder motor current
G21 ; set units to millimeters
G90 ; use absolute coordinates
M83 ; use relative distances for extrusion
M900 K0.05 ; Filament gcode LA 1.5
M900 K30 ; Filament gcode LA 1.0
M107
;LAYER_CHANGE
;Z:0.2
;HEIGHT:0.2
;BEFORE_LAYER_CHANGE
G92 E0.0
;0.2


G1 E-.8 F2100
G1 Z.4 F720
;AFTER_LAYER_CHANGE
;0.2
G1 X103.51 Y86.813 F10800
G1 Z.2 F720
G1 E.8 F2100
M204 S800
;TYPE:Skirt/Brim
;WIDTH:0.42
G1 F1200
G1 X104.186 Y86.055 E.03185
G1 X105.152 Y85.172 E.04104
G1 X106.1 Y84.482 E.03676
G1 X107.356 Y83.767 E.04532
G1 X108.436 Y83.311 E.03676
G1 X110.244 Y82.817 E.05878
G1 X111.406 Y82.66 E.03676
G1 X112.371 Y82.622 E.0303
G1 X134.377 Y82.624 E.68997
G1 X136.417 Y82.817 E.06425
G1 X138.097 Y83.264 E.0545
G1 X139.039 Y83.642 E.03185
G1 X140.079 Y84.183 E.03676
G1 X141.509 Y85.172 E.0545
G1 X142.267 Y85.848 E.03185
G1 X143.063 Y86.709 E.03676
G1 X144.073 Y88.124 E.0545
G1 X144.558 Y89.016 E.03185
G1 X145.016 Y90.095 E.03676
G1 X145.426 Y91.481 E.04532
G1 X145.642 Y92.772 E.04104
G1 X145.708 Y94.032 E.03956
G1 X145.679 Y116.799 E.71383
G1 X145.487 Y118.232 E.04532
G1 X145.157 Y119.498 E.04104
G1 X144.684 Y120.719 E.04104
G1 X143.918 Y122.126 E.05023
G1 X143.151 Y123.187 E.04104
G1 X142.267 Y124.152 E.04104
G1 X141.279 Y125.01 E.04104
G1 X140.198 Y125.748 E.04104
G1 X139.039 Y126.358 E.04104
G1 X137.819 Y126.83 E.04104
G1 X136.552 Y127.159 E.04104
G1 X135.255 Y127.34 E.04104
G1 X111.542 Y127.349 E.7435
G1 X110.11 Y127.159 E.04532
G1 X108.843 Y126.83 E.04104
G1 X107.356 Y126.233 E.05023
G1 X106.214 Y125.594 E.04104
G1 X105.152 Y124.828 E.04104
G1 X104.186 Y123.945 E.04104
G1 X103.327 Y122.957 E.04104
G1 X102.588 Y121.876 E.04104
G1 X101.977 Y120.719 E.04104
G1 X101.504 Y119.498 E.04104
G1 X101.174 Y118.232 E.04104
G1 X100.991 Y116.935 E.04104
G1 X100.982 Y93.201 E.74417
G1 X101.174 Y91.768 E.04532
M73 P1 R23
M73 Q1 S23
G1 X101.504 Y90.502 E.04104
G1 X101.977 Y89.281 E.04104
G1 X102.743 Y87.874 E.05023
G1 X103.475 Y86.862 E.03916
M204 S1000
;WIPE_START
G1 F8640
G1 X104.186 Y86.055 E-.24832
G1 X105.152 Y85.172 E-.30225
G1 X105.885 Y84.638 E-.20943
;WIPE_END
G1 E-.04 F2100
G1 Z.6 F720
G1 X105.581 Y88.489 F10800
G1 Z.2 F720
G1 E.8 F2100
M204 S800
G1 F1200
G1 X106.2 Y87.809 E.02882
G1 X106.89 Y87.195 E.02897
G1 X107.844 Y86.531 E.03643
G1 X108.696 Y86.081 E.03021
G1 X109.584 Y85.731 E.02993
G1 X110.486 Y85.484 E.02933
G1 X111.396 Y85.337 E.0289
G1 X112.64 Y85.292 E.03903
G1 X113.618 Y85.383 E.03078
G1 X114.578 Y85.582 E.03077
G1 X115.506 Y85.886 E.0306
G1 X116.425 Y86.309 E.03172
G1 X117.163 Y86.749 E.02695
G1 X123.331 Y90.936 E.23373
G1 X129.529 Y86.729 E.23488
G1 X130.307 Y86.271 E.02831
G1 X131.199 Y85.869 E.03067
G1 X132.202 Y85.551 E.03298
G1 X133.123 Y85.371 E.02942
G1 X134.034 Y85.292 E.0287
G1 X135.063 Y85.318 E.03225
G1 X136.145 Y85.478 E.03432
G1 X137.193 Y85.77 E.03409
G1 X138.126 Y86.157 E.0317
G1 X139.025 Y86.66 E.03226
G1 X139.804 Y87.221 E.03011
G1 X140.522 Y87.87 E.03036
G1 X141.18 Y88.615 E.03117
G1 X141.742 Y89.42 E.03077
G1 X142.207 Y90.274 E.03048
G1 X142.577 Y91.187 E.03088
G1 X142.842 Y92.135 E.03089
G1 X142.999 Y93.121 E.03128
G1 X143.043 Y94.127 E.0316
G1 X142.972 Y95.115 E.03105
G1 X142.785 Y96.106 E.03163
G1 X142.471 Y97.107 E.0329
G1 X142.092 Y97.959 E.02923
G1 X141.622 Y98.769 E.02936
G1 X137.403 Y105 E.23595
G1 X141.617 Y111.223 E.23564
G1 X142.056 Y111.971 E.0272
G1 X142.43 Y112.788 E.02819
G1 X142.772 Y113.842 E.03475
G1 X142.971 Y114.882 E.03318
G1 X143.044 Y115.945 E.0334
G1 X143.004 Y116.832 E.02785
G1 X142.873 Y117.715 E.02797
G1 X142.596 Y118.758 E.03385
G1 X142.201 Y119.737 E.03309
G1 X141.71 Y120.632 E.03201
G1 X141.112 Y121.471 E.03233
G1 X140.454 Y122.199 E.03076
G1 X139.714 Y122.851 E.03092
G1 X138.89 Y123.425 E.03147
G1 X138.015 Y123.896 E.03116
G1 X137.086 Y124.266 E.03136
G1 X136.138 Y124.523 E.0308
G1 X135.133 Y124.676 E.03186
G1 X134.11 Y124.71 E.03212
G1 X133.158 Y124.634 E.02993
G1 X132.229 Y124.456 E.02968
G1 X131.299 Y124.168 E.03052
G1 X130.397 Y123.775 E.03084
G1 X129.536 Y123.275 E.03123
G1 X123.33 Y119.064 E.23514
G1 X117.115 Y123.281 E.23552
G1 X116.367 Y123.721 E.02719
G1 X115.552 Y124.096 E.02814
G1 X114.494 Y124.44 E.03488
G1 X113.457 Y124.64 E.0331
G1 X112.404 Y124.713 E.03309
G1 X111.521 Y124.675 E.02773
G1 X110.624 Y124.544 E.0284
G1 X109.607 Y124.276 E.03299
G1 X108.605 Y123.876 E.03383
G1 X107.679 Y123.368 E.03311
G1 X106.863 Y122.784 E.03146
G1 X106.119 Y122.11 E.0315
G1 X105.466 Y121.366 E.03101
G1 X104.911 Y120.567 E.03052
G1 X104.439 Y119.694 E.03111
G1 X104.073 Y118.779 E.03089
G1 X103.81 Y117.819 E.03123
G1 X103.657 Y116.83 E.03136
G1 X103.619 Y115.834 E.03127
G1 X103.694 Y114.852 E.03086
G1 X103.881 Y113.873 E.03126
G1 X104.178 Y112.926 E.03113
G1 X104.563 Y112.053 E.0299
G1 X105.044 Y111.223 E.03008
G1 X109.258 Y105 E.23564
G1 X105.071 Y98.818 E.23411
G1 X104.619 Y98.055 E.02783
G1 X104.243 Y97.241 E.02812
G1 X103.907 Y96.228 E.03345
G1 X103.698 Y95.181 E.03347
G1 X103.619 Y94.133 E.03297
G1 X103.659 Y93.155 E.03066
G1 X103.806 Y92.197 E.03041
G1 X104.094 Y91.158 E.03381
G1 X104.451 Y90.282 E.02966
G1 X104.897 Y89.455 E.02945
G1 X105.547 Y88.538 E.03525
M204 S1000
G1 X105.853 Y88.755 F10800
M204 S800
G1 F1200
G1 X106.458 Y88.083 E.02835
G1 X107.115 Y87.497 E.0276
G1 X108.03 Y86.859 E.03499
G1 X108.845 Y86.428 E.02888
G1 X109.694 Y86.092 E.02864
G1 X110.557 Y85.855 E.02806
G1 X111.445 Y85.711 E.02821
G1 X112.617 Y85.669 E.03679
G1 X113.572 Y85.757 E.03007
G1 X114.471 Y85.944 E.0288
G1 X115.358 Y86.233 E.02925
G1 X116.258 Y86.647 E.03105
G1 X116.955 Y87.064 E.02548
G1 X123.331 Y91.392 E.24159
G1 X129.736 Y87.045 E.24271
G1 X130.49 Y86.602 E.02742
G1 X131.324 Y86.225 E.02868
G1 X132.305 Y85.914 E.0323
G1 X133.166 Y85.746 E.02748
G1 X134.036 Y85.669 E.0274
G1 X135.02 Y85.693 E.03084
G1 X136.056 Y85.845 E.03285
G1 X137.059 Y86.123 E.03265
G1 X137.953 Y86.492 E.0303
G1 X138.813 Y86.972 E.03089
G1 X139.575 Y87.52 E.02943
G1 X140.261 Y88.142 E.02904
G1 X140.877 Y88.84 E.02918
G1 X141.427 Y89.627 E.0301
G1 X141.87 Y90.444 E.02914
G1 X142.217 Y91.299 E.02891
G1 X142.471 Y92.206 E.02955
G1 X142.623 Y93.148 E.02992
G1 X142.666 Y94.111 E.03022
G1 X142.597 Y95.077 E.03035
G1 X142.417 Y96.025 E.03026
G1 X142.122 Y96.964 E.03086
G1 X141.752 Y97.796 E.02857
G1 X141.299 Y98.573 E.02819
G1 X136.947 Y105 E.24335
G1 X141.301 Y111.429 E.24346
G1 X141.717 Y112.137 E.02574
G1 X142.075 Y112.916 E.02687
G1 X142.404 Y113.926 E.0333
G1 X142.596 Y114.919 E.03173
G1 X142.666 Y115.939 E.03204
G1 X142.629 Y116.787 E.02662
G1 X142.506 Y117.629 E.02667
G1 X142.241 Y118.628 E.03243
G1 X141.865 Y119.565 E.03166
G1 X141.385 Y120.44 E.03129
G1 X140.811 Y121.243 E.03093
G1 X140.181 Y121.938 E.02941
G1 X139.489 Y122.548 E.02894
G1 X138.701 Y123.098 E.03013
G1 X137.865 Y123.55 E.0298
G1 X136.977 Y123.905 E.03
G1 X136.05 Y124.157 E.03011
G1 X135.088 Y124.301 E.03048
G1 X134.109 Y124.333 E.03074
G1 X133.199 Y124.259 E.0286
G1 X132.31 Y124.087 E.02839
G1 X131.44 Y123.819 E.02856
G1 X130.558 Y123.434 E.03016
G1 X129.731 Y122.952 E.03
G1 X123.33 Y118.608 E.24255
G1 X116.908 Y122.966 E.24336
G1 X116.201 Y123.383 E.02574
M73 P2 R23
M73 Q2 S23
G1 X115.424 Y123.741 E.02681
G1 X114.41 Y124.072 E.03343
G1 X113.42 Y124.264 E.03164
G1 X112.389 Y124.336 E.03239
G1 X111.547 Y124.299 E.02643
G1 X110.71 Y124.177 E.02651
G1 X109.714 Y123.915 E.03229
G1 X108.776 Y123.54 E.03166
G1 X107.871 Y123.043 E.03239
G1 X107.092 Y122.484 E.03006
G1 X106.38 Y121.838 E.03015
G1 X105.77 Y121.142 E.02902
G1 X105.237 Y120.378 E.02919
G1 X104.785 Y119.543 E.02977
G1 X104.433 Y118.669 E.02955
G1 X104.181 Y117.75 E.02988
G1 X104.034 Y116.804 E.03001
G1 X103.996 Y115.851 E.02991
G1 X104.069 Y114.892 E.03017
G1 X104.249 Y113.955 E.0299
G1 X104.527 Y113.068 E.02916
G1 X104.894 Y112.233 E.02859
G1 X105.367 Y111.418 E.02954
G1 X109.714 Y105 E.24303
G1 X105.386 Y98.612 E.24193
G1 X104.948 Y97.871 E.02698
G1 X104.589 Y97.092 E.02688
G1 X104.275 Y96.142 E.03139
G1 X104.073 Y95.141 E.03203
G1 X103.996 Y94.137 E.03156
G1 X104.035 Y93.182 E.02997
G1 X104.177 Y92.266 E.02906
G1 X104.448 Y91.29 E.03175
G1 X104.796 Y90.434 E.02899
G1 X105.223 Y89.645 E.02813
G1 X105.819 Y88.804 E.0323
M204 S1000
G1 X106.126 Y89.022 F10800
M204 S800
G1 F1200
G1 X106.73 Y88.345 E.02846
G1 X107.357 Y87.787 E.02632
G1 X108.236 Y87.175 E.03357
G1 X109.011 Y86.767 E.02746
G1 X109.822 Y86.447 E.02735
G1 X110.646 Y86.221 E.02679
G1 X111.47 Y86.088 E.02616
G1 X112.619 Y86.046 E.03603
G1 X113.526 Y86.132 E.02858
G1 X114.384 Y86.311 E.02748
G1 X115.23 Y86.588 E.02793
G1 X116.073 Y86.976 E.02909
G1 X116.748 Y87.379 E.02465
G1 X123.331 Y91.848 E.24945
G1 X129.943 Y87.36 E.25055
G1 X130.655 Y86.941 E.02591
G1 X131.449 Y86.581 E.02733
G1 X132.389 Y86.282 E.03094
G1 X133.209 Y86.121 E.02619
G1 X134.059 Y86.046 E.02675
G1 X134.998 Y86.069 E.02948
G1 X135.989 Y86.216 E.0314
G1 X136.926 Y86.476 E.0305
G1 X137.779 Y86.827 E.0289
G1 X138.62 Y87.296 E.03019
G1 X139.33 Y87.807 E.02743
G1 X139.986 Y88.4 E.02771
G1 X140.588 Y89.082 E.02851
G1 X141.101 Y89.816 E.0281
G1 X141.525 Y90.596 E.02781
G1 X141.863 Y91.431 E.02825
G1 X142.101 Y92.277 E.02757
G1 X142.247 Y93.176 E.02856
G1 X142.288 Y94.117 E.02953
G1 X142.221 Y95.038 E.02897
G1 X142.048 Y95.943 E.02889
G1 X141.773 Y96.821 E.02884
G1 X141.42 Y97.616 E.02726
G1 X140.983 Y98.367 E.02725
G1 X136.492 Y105 E.25116
G1 X140.979 Y111.626 E.25091
G1 X141.379 Y112.303 E.02465
G1 X141.728 Y113.063 E.02622
G1 X142.036 Y114.009 E.0312
G1 X142.221 Y114.957 E.03028
G1 X142.289 Y115.954 E.03133
G1 X142.253 Y116.76 E.02531
G1 X142.139 Y117.542 E.02478
G1 X141.88 Y118.52 E.03172
G1 X141.52 Y119.414 E.0302
G1 X141.061 Y120.248 E.02987
G1 X140.512 Y121.014 E.02953
G1 X139.91 Y121.676 E.02806
G1 X139.248 Y122.258 E.02761
G1 X138.495 Y122.782 E.02879
G1 X137.696 Y123.212 E.02845
G1 X136.847 Y123.55 E.02864
G1 X135.962 Y123.79 E.02875
G1 X135.044 Y123.927 E.02911
G1 X134.108 Y123.956 E.02937
G1 X133.26 Y123.886 E.02665
G1 X132.412 Y123.724 E.0271
G1 X131.561 Y123.461 E.0279
G1 X130.739 Y123.102 E.02815
G1 X129.938 Y122.636 E.02905
G1 X123.33 Y118.152 E.25037
G1 X116.711 Y122.645 E.25083
G1 X116.034 Y123.045 E.02465
G1 X115.276 Y123.394 E.02617
G1 X114.327 Y123.704 E.03131
G1 X113.359 Y123.892 E.0309
G1 X112.374 Y123.959 E.03096
G1 X111.573 Y123.923 E.02514
G1 X110.795 Y123.81 E.02464
G1 X109.843 Y123.56 E.03087
G1 X108.927 Y123.194 E.03093
G1 X108.063 Y122.718 E.03093
G1 X107.321 Y122.184 E.02866
G1 X106.656 Y121.581 E.02815
G1 X106.073 Y120.917 E.0277
G1 X105.553 Y120.172 E.02851
G1 X105.122 Y119.374 E.02842
G1 X104.788 Y118.539 E.02821
G1 X104.547 Y117.661 E.02854
G1 X104.41 Y116.778 E.028
G1 X104.373 Y115.868 E.02856
G1 X104.441 Y114.952 E.02881
G1 X104.613 Y114.057 E.02856
G1 X104.877 Y113.209 E.02785
G1 X105.226 Y112.413 E.02726
G1 X105.683 Y111.624 E.02859
G1 X110.169 Y105 E.25083
G1 X105.708 Y98.414 E.24941
G1 X105.286 Y97.704 E.02588
G1 X104.936 Y96.944 E.02624
G1 X104.642 Y96.056 E.02934
G1 X104.448 Y95.1 E.03059
G1 X104.373 Y94.119 E.03084
G1 X104.411 Y93.208 E.02858
G1 X104.548 Y92.335 E.02772
G1 X104.808 Y91.402 E.03038
G1 X105.133 Y90.604 E.02702
G1 X105.537 Y89.853 E.02673
G1 X106.092 Y89.071 E.03006
M204 S1000
G1 X106.398 Y89.288 F10800
M204 S800
G1 F1200
G1 X106.989 Y88.619 E.028
G1 X107.583 Y88.089 E.02495
G1 X108.423 Y87.503 E.03212
G1 X109.159 Y87.113 E.02613
G1 X109.932 Y86.808 E.02606
G1 X110.717 Y86.592 E.02551
G1 X111.519 Y86.462 E.02547
G1 X112.596 Y86.423 E.03379
G1 X113.46 Y86.503 E.02721
G1 X114.277 Y86.673 E.02616
G1 X115.083 Y86.936 E.02659
G1 X115.889 Y87.305 E.02779
G1 X116.541 Y87.694 E.02381
G1 X123.331 Y92.303 E.2573
G1 X130.149 Y87.676 E.25839
G1 X130.837 Y87.271 E.02502
G1 X131.574 Y86.937 E.02535
G1 X132.493 Y86.644 E.03024
G1 X133.271 Y86.493 E.02486
G1 X134.06 Y86.423 E.02484
G1 X134.955 Y86.444 E.02807
G1 X135.9 Y86.583 E.02994
G1 X136.794 Y86.83 E.02908
G1 X137.606 Y87.162 E.0275
G1 X138.409 Y87.609 E.0288
G1 X139.101 Y88.107 E.02674
G1 X139.725 Y88.672 E.02639
G1 X140.285 Y89.307 E.02654
G1 X140.775 Y90.006 E.02677
G1 X141.188 Y90.766 E.02714
G1 X141.503 Y91.543 E.02628
G1 X141.73 Y92.349 E.02625
G1 X141.87 Y93.205 E.0272
G1 X141.912 Y94.101 E.02813
G1 X141.846 Y95 E.02826
G1 X141.68 Y95.861 E.02751
G1 X141.423 Y96.678 E.02685
G1 X141.089 Y97.435 E.02595
G1 X140.661 Y98.172 E.02672
G1 X136.037 Y105 E.25856
G1 X140.664 Y111.833 E.25873
G1 X141.049 Y112.486 E.0238
G1 X141.373 Y113.19 E.02429
G1 X141.674 Y114.115 E.03048
G1 X141.848 Y115.017 E.02881
G1 X141.912 Y115.948 E.02926
G1 X141.878 Y116.716 E.02409
G1 X141.767 Y117.477 E.02413
G1 X141.518 Y118.412 E.03033
G1 X141.175 Y119.262 E.02875
G1 X140.736 Y120.056 E.02845
G1 X140.212 Y120.785 E.02814
G1 X139.652 Y121.4 E.02608
G1 X139.023 Y121.955 E.02629
G1 X138.306 Y122.456 E.02742
G1 X137.527 Y122.875 E.02775
G1 X136.718 Y123.196 E.02727
G1 X135.875 Y123.423 E.02739
M73 Q3 S23
G1 X135 Y123.552 E.02773
G1 X134.107 Y123.578 E.028
G1 X133.302 Y123.512 E.02535
G1 X132.512 Y123.361 E.0252
G1 X131.702 Y123.112 E.02657
M73 P3 R23
G1 X130.9 Y122.761 E.02747
G1 X130.133 Y122.314 E.02781
G1 X123.33 Y117.697 E.25779
G1 X116.504 Y122.329 E.25867
G1 X115.85 Y122.715 E.02379
G1 X115.148 Y123.039 E.02424
G1 X114.221 Y123.342 E.03059
G1 X113.3 Y123.519 E.02943
G1 X112.38 Y123.582 E.02889
G1 X111.618 Y123.548 E.02392
M73 P3 R22
G1 X110.86 Y123.438 E.02401
G1 X109.951 Y123.198 E.0295
G1 X109.079 Y122.849 E.02946
G1 X108.256 Y122.394 E.02948
G1 X107.55 Y121.885 E.02727
G1 X106.932 Y121.323 E.02618
G1 X106.376 Y120.693 E.02637
G1 X105.879 Y119.982 E.02717
G1 X105.468 Y119.223 E.02706
G1 X105.142 Y118.409 E.02752
G1 X104.914 Y117.572 E.02718
G1 X104.784 Y116.731 E.02667
G1 X104.75 Y115.885 E.02655
G1 X104.816 Y114.991 E.02812
G1 X104.981 Y114.139 E.02719
G1 X105.234 Y113.332 E.02652
G1 X105.567 Y112.575 E.02595
G1 X106.006 Y111.819 E.02739
G1 X110.624 Y105 E.25824
G1 X106.023 Y98.208 E.25724
G1 X105.616 Y97.521 E.02503
G1 X105.283 Y96.796 E.02499
G1 X105.009 Y95.969 E.02732
G1 X104.823 Y95.059 E.02915
G1 X104.75 Y94.124 E.0294
G1 X104.788 Y93.235 E.02788
G1 X104.919 Y92.405 E.02637
G1 X105.161 Y91.534 E.02834
G1 X105.478 Y90.755 E.02636
G1 X105.863 Y90.043 E.0254
G1 X106.363 Y89.337 E.02711
M204 S1000
G1 X106.671 Y89.555 F10800
M204 S800
G1 F1200
G1 X106.757 Y89.434 E.00467
G1 X107.261 Y88.881 E.02347
G1 X107.825 Y88.378 E.02367
G1 X108.628 Y87.819 E.03069
G1 X109.326 Y87.452 E.02471
G1 X110.061 Y87.162 E.02478
G1 X110.788 Y86.962 E.02364
G1 X111.545 Y86.838 E.02404
G1 X112.597 Y86.8 E.03302
G1 X113.394 Y86.874 E.0251
G1 X114.17 Y87.034 E.02484
G1 X114.956 Y87.291 E.02592
G1 X115.705 Y87.634 E.02582
G1 X116.334 Y88.009 E.02297
G1 X123.331 Y92.759 E.26515
G1 X130.356 Y87.991 E.26622
G1 X131.003 Y87.61 E.02353
G1 X131.7 Y87.293 E.02401
G1 X132.576 Y87.012 E.02887
G1 X133.314 Y86.867 E.02358
