; generated by PrusaSlicer 2.5.2+win64 on 2023-05-16 at 23:20:55 UTC

; 

; external perimeters extrusion width = 0.45mm
; perimeters extrusion width = 0.45mm
; infill extrusion width = 0.45mm
; solid infill extrusion width = 0.45mm
; top infill extrusion width = 0.40mm
; first layer extrusion width = 0.42mm

M73 P0 R35
M73 Q0 S35
M201 X1000 Y1000 Z200 E5000 ; sets maximum accelerations, mm/sec^2
M203 X200 Y200 Z12 E120 ; sets maximum feedrates, mm / sec
M204 P1250 R1250 T1250 ; sets acceleration (P, T) and retract acceleration (R), mm/sec^2
M205 X8.00 Y8.00 Z0.40 E4.50 ; sets the jerk limits, mm/sec
M205 S0 T0 ; sets the minimum extruding and travel feed rate, mm/sec
M107
;TYPE:Custom
M862.3 P "MK3" ; printer model check
M862.1 P0.4 ; nozzle diameter check
M115 U3.10.1 ; tell printer latest fw version
G90 ; use absolute coordinates
M83 ; extruder relative mode
M104 S215 ; set extruder temp
M140 S60 ; set bed temp
M190 S60 ; wait for bed temp
M109 S215 ; wait for extruder temp
G28 W ; home all without mesh bed level
G80 ; mesh bed leveling
G1 Z0.2 F720
G1 Y-3 F1000 ; go outside print area
G92 E0
G1 X60 E9 F1000 ; intro line
G1 X100 E12.5 F1000 ; intro line
G92 E0
M221 S95

; Don't change E values below. Excessive value can damage the printer.
M907 E430 ; set extruder motor current
G21 ; set units to millimeters
G90 ; use absolute coordinates
M83 ; use relative distances for extrusion
M900 K0.05 ; Filament gcode LA 1.5
M900 K30 ; Filament gcode LA 1.0
M107
;LAYER_CHANGE
;Z:0.2
;HEIGHT:0.2
;BEFORE_LAYER_CHANGE
G92 E0.0
;0.2


G1 E-.8 F2100
G1 Z.4 F720
;AFTER_LAYER_CHANGE
;0.2
G1 X102.053 Y82.035 F10800
G1 Z.2 F720
G1 E.8 F2100
M204 S800
;TYPE:Skirt/Brim
;WIDTH:0.42
G1 F1200
G1 X102.91 Y81.147 E.03868
G1 X104.464 Y79.932 E.06185
G1 X105.532 Y79.314 E.03868
G1 X106.507 Y78.877 E.03352
G1 X107.818 Y78.452 E.04319
G1 X109.027 Y78.209 E.03868
G1 X110.538 Y78.089 E.04751
G1 X133.802 Y78.089 E.72942
G1 X134.862 Y78.151 E.03332
G1 X136.08 Y78.348 E.03868
G1 X137.542 Y78.768 E.04769
G1 X139.206 Y79.528 E.05736
G1 X139.996 Y80.01 E.02901
G1 X140.982 Y80.752 E.03868
G1 X142.08 Y81.804 E.04769
G1 X143.198 Y83.252 E.05736
G1 X143.673 Y84.046 E.02901
G1 X144.2 Y85.162 E.03868
G1 X144.755 Y86.905 E.05736
G1 X144.947 Y87.956 E.03352
G1 X145.046 Y89.326 E.04307
G1 X145.042 Y112.746 E.7343
G1 X144.925 Y114.118 E.04319
G1 X144.681 Y115.328 E.03868
G1 X144.411 Y116.213 E.02901
G1 X143.817 Y117.613 E.04769
G1 X143.12 Y118.801 E.04319
G1 X142.285 Y119.897 E.04319
G1 X141.324 Y120.884 E.04319
G1 X140.251 Y121.747 E.04319
G1 X139.206 Y122.404 E.03868
G1 X137.406 Y123.211 E.06185
G1 X136.221 Y123.554 E.03868
G1 X134.719 Y123.794 E.04769
G1 X109.62 Y123.794 E.78696
G1 X108.118 Y123.554 E.0477
G1 X106.796 Y123.164 E.04319
G1 X105.532 Y122.618 E.04319
G1 X104.343 Y121.923 E.04319
G1 X103.246 Y121.089 E.04319
G1 X102.258 Y120.128 E.04319
G1 X101.394 Y119.056 E.04319
G1 X100.736 Y118.012 E.03868
G1 X99.928 Y116.213 E.06185
G1 X99.584 Y115.028 E.03868
G1 X99.343 Y113.526 E.0477
G1 X99.292 Y89.326 E.75875
G1 X99.343 Y88.407 E.02888
G1 X99.584 Y86.905 E.0477
G1 X99.975 Y85.584 E.04319
G1 X100.522 Y84.32 E.04319
G1 X101.219 Y83.131 E.04319
G1 X102.017 Y82.083 E.04131
M204 S1000
;WIPE_START
G1 F8640
G1 X102.91 Y81.147 E-.29864
G1 X104.464 Y79.932 E-.4555
G1 X104.486 Y79.919 E-.00585
;WIPE_END
G1 E-.04 F2100
G1 Z.6 F720
G1 X104.101 Y83.741 F10800
G1 Z.2 F720
G1 E.8 F2100
M204 S800
G1 F1200
G1 X104.882 Y82.954 E.03476
G1 X105.734 Y82.286 E.03395
G1 X106.688 Y81.716 E.03483
G1 X107.717 Y81.269 E.03519
G1 X108.768 Y80.963 E.0343
G1 X109.816 Y80.795 E.0333
G1 X110.85 Y80.755 E.03242
G1 X111.846 Y80.833 E.03132
G1 X112.828 Y81.025 E.03139
G1 X113.763 Y81.321 E.03075
G1 X114.664 Y81.723 E.03093
G1 X115.508 Y82.222 E.03073
G1 X122.169 Y86.857 E.25444
G1 X128.746 Y82.277 E.2513
G1 X129.638 Y81.742 E.03258
G1 X130.68 Y81.282 E.03571
G1 X131.714 Y80.975 E.03382
G1 X132.605 Y80.819 E.02837
G1 X133.487 Y80.755 E.02772
G1 X134.591 Y80.802 E.03466
G1 X135.76 Y81.008 E.03722
G1 X136.914 Y81.379 E.03802
G1 X137.718 Y81.751 E.02776
G1 X138.467 Y82.192 E.02724
G1 X139.539 Y83.027 E.04261
G1 X140.304 Y83.818 E.03453
G1 X140.879 Y84.574 E.02978
G1 X141.371 Y85.392 E.02992
G1 X141.875 Y86.536 E.03921
G1 X142.143 Y87.437 E.02945
G1 X142.31 Y88.34 E.02882
G1 X142.382 Y89.486 E.036
G1 X142.312 Y90.57 E.03405
G1 X142.122 Y91.579 E.03218
G1 X141.829 Y92.522 E.03098
G1 X141.4 Y93.485 E.03306
G1 X140.869 Y94.374 E.03245
G1 X136.288 Y100.966 E.25172
G1 X140.903 Y107.61 E.25363
G1 X141.437 Y108.52 E.03308
G1 X141.842 Y109.446 E.03171
G1 X142.137 Y110.412 E.03166
G1 X142.323 Y111.449 E.03301
G1 X142.382 Y112.493 E.03281
G1 X142.308 Y113.605 E.03493
G1 X142.11 Y114.627 E.03262
G1 X141.814 Y115.562 E.03077
G1 X141.418 Y116.451 E.03053
G1 X140.885 Y117.351 E.03278
G1 X140.245 Y118.183 E.03292
G1 X139.47 Y118.968 E.03458
G1 X138.585 Y119.66 E.03521
G1 X137.623 Y120.23 E.03508
G1 X136.594 Y120.674 E.03515
G1 X135.748 Y120.928 E.02767
G1 X134.884 Y121.094 E.02759
G1 X133.777 Y121.179 E.03481
G1 X132.65 Y121.119 E.03539
G1 X131.487 Y120.901 E.03711
G1 X130.451 Y120.563 E.03416
G1 X129.576 Y120.158 E.03024
G1 X128.807 Y119.695 E.02814
G1 X122.169 Y115.076 E.25355
G1 X115.532 Y119.695 E.25355
G1 X114.623 Y120.231 E.03308
G1 X113.677 Y120.644 E.03237
G1 X112.715 Y120.936 E.03151
G1 X111.732 Y121.114 E.03134
M73 Q1 S35
G1 X110.73 Y121.179 E.03146
G1 X109.691 Y121.124 E.03264
G1 X108.635 Y120.938 E.03362
G1 X107.595 Y120.619 E.03411
G1 X106.647 Y120.195 E.03255
M73 P1 R35
G1 X105.754 Y119.66 E.03265
G1 X104.936 Y119.027 E.03243
G1 X104.153 Y118.25 E.03458
G1 X103.48 Y117.388 E.03432
G1 X102.923 Y116.455 E.03406
G1 X102.48 Y115.442 E.03466
G1 X102.213 Y114.565 E.02874
G1 X102.039 Y113.663 E.0288
G1 X101.957 Y112.572 E.0343
G1 X102.013 Y111.476 E.03442
G1 X102.218 Y110.348 E.03595
G1 X102.556 Y109.29 E.03481
G1 X102.96 Y108.407 E.03044
G1 X103.427 Y107.624 E.02861
G1 X108.051 Y100.966 E.25415
G1 X103.432 Y94.316 E.25389
G1 X102.918 Y93.444 E.03172
G1 X102.518 Y92.545 E.03087
G1 X102.214 Y91.567 E.03211
G1 X102.014 Y90.465 E.03512
G1 X101.957 Y89.375 E.03421
G1 X102.031 Y88.333 E.03277
G1 X102.227 Y87.312 E.03259
G1 X102.549 Y86.308 E.03307
G1 X102.983 Y85.364 E.03256
G1 X103.506 Y84.506 E.03153
G1 X104.065 Y83.788 E.02851
M204 S1000
G1 X104.361 Y84.019 F10800
M204 S800
G1 F1200
G1 X105.141 Y83.228 E.03482
G1 X105.957 Y82.59 E.03246
G1 X106.85 Y82.057 E.03262
G1 X107.835 Y81.627 E.03369
G1 X108.84 Y81.334 E.03282
G1 X109.843 Y81.172 E.03187
G1 X110.831 Y81.132 E.03102
G1 X111.805 Y81.208 E.03062
G1 X112.745 Y81.393 E.03002
G1 X113.639 Y81.677 E.02942
G1 X114.482 Y82.053 E.02894
G1 X115.298 Y82.535 E.02973
G1 X122.169 Y87.316 E.26245
G1 X128.956 Y82.59 E.25933
G1 X129.821 Y82.072 E.03161
G1 X130.798 Y81.64 E.03349
G1 X131.811 Y81.34 E.03311
G1 X132.642 Y81.194 E.02647
G1 X133.482 Y81.132 E.02641
G1 X134.539 Y81.176 E.03316
G1 X135.658 Y81.371 E.03561
G1 X136.767 Y81.727 E.03653
G1 X137.535 Y82.081 E.02651
G1 X138.265 Y82.51 E.02655
G1 X139.296 Y83.316 E.04103
G1 X140.025 Y84.072 E.03293
G1 X140.573 Y84.794 E.02842
G1 X141.031 Y85.555 E.02785
G1 X141.525 Y86.677 E.03845
G1 X141.778 Y87.534 E.028
G1 X141.937 Y88.397 E.02754
G1 X142.005 Y89.474 E.03382
G1 X141.937 Y90.534 E.03331
G1 X141.759 Y91.477 E.0301
G1 X141.48 Y92.379 E.02959
G1 X141.06 Y93.321 E.03234
G1 X140.549 Y94.175 E.03118
G1 X135.829 Y100.966 E.25933
G1 X140.589 Y107.819 E.26162
G1 X141.106 Y108.701 E.03205
G1 X141.492 Y109.587 E.0303
G1 X141.773 Y110.511 E.03029
G1 X141.947 Y111.482 E.03093
G1 X142.005 Y112.481 E.03137
G1 X141.935 Y113.546 E.03347
G1 X141.748 Y114.523 E.03121
G1 X141.458 Y115.438 E.03008
G1 X141.078 Y116.287 E.02918
G1 X140.566 Y117.148 E.0314
G1 X139.968 Y117.926 E.03077
G1 X139.21 Y118.694 E.03383
G1 X138.363 Y119.355 E.03368
G1 X137.442 Y119.899 E.03356
G1 X136.455 Y120.323 E.03367
G1 X135.65 Y120.563 E.02635
G1 X134.824 Y120.722 E.02637
G1 X133.785 Y120.801 E.03267
G1 X132.682 Y120.743 E.03462
G1 X131.591 Y120.539 E.0348
G1 X130.599 Y120.216 E.03272
G1 X129.744 Y119.82 E.02956
G1 X129.007 Y119.375 E.02698
G1 X122.17 Y114.616 E.2612
G1 X115.323 Y119.381 E.26156
G1 X114.442 Y119.9 E.03205
G1 X113.556 Y120.286 E.03029
G1 X112.637 Y120.567 E.03015
G1 X111.696 Y120.739 E.02998
G1 X110.739 Y120.802 E.03007
G1 X109.722 Y120.748 E.03192
G1 X108.712 Y120.569 E.03216
G1 X107.718 Y120.262 E.03265
G1 X106.812 Y119.856 E.03112
G1 X105.976 Y119.355 E.03056
G1 X105.193 Y118.751 E.03099
G1 X104.443 Y118.009 E.03309
G1 X103.784 Y117.165 E.03356
G1 X103.253 Y116.272 E.03256
G1 X102.83 Y115.302 E.0332
G1 X102.577 Y114.465 E.02739
G1 X102.411 Y113.603 E.02753
G1 X102.334 Y112.557 E.0329
G1 X102.389 Y111.508 E.03293
G1 X102.581 Y110.451 E.03369
G1 X102.904 Y109.437 E.03336
G1 X103.298 Y108.574 E.02975
G1 X103.748 Y107.823 E.02743
G1 X108.511 Y100.966 E.26177
G1 X103.746 Y94.106 E.26188
G1 X103.248 Y93.263 E.03071
G1 X102.868 Y92.402 E.02951
G1 X102.582 Y91.488 E.03002
G1 X102.39 Y90.432 E.03364
G1 X102.334 Y89.39 E.03273
G1 X102.406 Y88.371 E.03204
G1 X102.595 Y87.395 E.03117
G1 X102.897 Y86.454 E.03096
G1 X103.311 Y85.551 E.03117
G1 X103.811 Y84.728 E.03018
G1 X104.325 Y84.066 E.02628
M204 S1000
G1 X104.622 Y84.296 F10800
M204 S800
G1 F1200
G1 X105.383 Y83.517 E.03415
G1 X106.161 Y82.908 E.03098
G1 X107.013 Y82.397 E.03112
G1 X107.953 Y81.985 E.03218
G1 X108.912 Y81.704 E.03135
G1 X109.87 Y81.548 E.03042
G1 X110.835 Y81.509 E.0303
G1 X111.764 Y81.583 E.02922
G1 X112.641 Y81.756 E.02802
G1 X113.495 Y82.026 E.0281
G1 X114.3 Y82.384 E.0276
G1 X115.089 Y82.849 E.02872
G1 X122.169 Y87.776 E.27046
G1 X129.167 Y82.903 E.26736
G1 X129.985 Y82.412 E.02992
G1 X130.918 Y81.998 E.032
G1 X131.887 Y81.709 E.03171
G1 X132.679 Y81.569 E.02523
G1 X133.499 Y81.509 E.02576
G1 X134.51 Y81.552 E.03174
G1 X135.579 Y81.74 E.03404
G1 X136.62 Y82.074 E.03426
G1 X137.352 Y82.411 E.02526
G1 X138.063 Y82.829 E.02587
G1 X139.034 Y83.587 E.03864
G1 X139.732 Y84.309 E.03147
G1 X140.255 Y84.997 E.02711
G1 X140.702 Y85.739 E.02715
G1 X141.167 Y86.796 E.0362
G1 X141.409 Y87.612 E.02668
G1 X141.564 Y88.454 E.02686
G1 X141.628 Y89.485 E.03239
G1 X141.564 Y90.476 E.03113
G1 X141.396 Y91.376 E.02872
G1 X141.123 Y92.257 E.02889
G1 X140.721 Y93.157 E.03092
G1 X140.236 Y93.965 E.02953
G1 X135.369 Y100.966 E.26735
G1 X140.268 Y108.017 E.26918
G1 X140.765 Y108.862 E.03076
G1 X141.135 Y109.707 E.0289
G1 X141.409 Y110.61 E.02959
G1 X141.574 Y111.537 E.02952
G1 X141.628 Y112.49 E.02995
G1 X141.563 Y113.487 E.03131
G1 X141.385 Y114.421 E.02981
G1 X141.109 Y115.294 E.02873
G1 X140.748 Y116.105 E.02782
G1 X140.26 Y116.928 E.03
G1 X139.691 Y117.67 E.02932
G1 X138.968 Y118.405 E.03232
G1 X138.16 Y119.037 E.03216
G1 X137.281 Y119.558 E.03204
G1 X136.337 Y119.965 E.03225
G1 X135.551 Y120.199 E.02569
G1 X134.764 Y120.35 E.02514
G1 X133.792 Y120.424 E.03055
G1 X132.739 Y120.37 E.03307
G1 X131.696 Y120.176 E.03325
G1 X130.726 Y119.861 E.03198
G1 X129.93 Y119.492 E.02754
G1 X129.217 Y119.062 E.02608
G1 X122.17 Y114.157 E.26923
G1 X115.125 Y119.06 E.26912
G1 X114.28 Y119.559 E.03076
G1 X113.436 Y119.929 E.02889
G1 X112.537 Y120.203 E.02945
G1 X111.639 Y120.366 E.02861
G1 X110.748 Y120.425 E.02801
G1 X109.754 Y120.372 E.03119
G1 X108.79 Y120.2 E.0307
G1 X107.861 Y119.913 E.0305
G1 X106.996 Y119.526 E.02972
G1 X106.197 Y119.049 E.02917
G1 X105.45 Y118.474 E.02956
G1 X104.732 Y117.766 E.03159
G1 X104.102 Y116.961 E.03207
G1 X103.594 Y116.11 E.03107
G1 X103.188 Y115.181 E.03179
G1 X102.941 Y114.366 E.02673
G1 X102.784 Y113.543 E.02625
G1 X102.711 Y112.564 E.03079
G1 X102.762 Y111.563 E.03143
G1 X102.944 Y110.553 E.03216
G1 X103.259 Y109.562 E.03262
G1 X103.627 Y108.758 E.02771
G1 X104.061 Y108.033 E.02651
G1 X108.97 Y100.966 E.26978
G1 X104.067 Y93.908 E.26945
G1 X103.589 Y93.1 E.02945
G1 X103.217 Y92.26 E.02881
G1 X102.946 Y91.387 E.02864
G1 X102.766 Y90.4 E.03147
G1 X102.711 Y89.404 E.03126
G1 X102.778 Y88.431 E.0306
G1 X102.958 Y87.499 E.02974
G1 X103.252 Y86.58 E.03025
G1 X103.649 Y85.718 E.02976
G1 X104.116 Y84.951 E.02817
G1 X104.585 Y84.343 E.02407
M204 S1000
G1 X104.883 Y84.573 F10800
M204 S800
G1 F1200
G1 X105.626 Y83.806 E.03348
G1 X106.366 Y83.225 E.0295
G1 X107.176 Y82.738 E.02963
G1 X108.071 Y82.344 E.03068
G1 X108.985 Y82.074 E.02987
G1 X109.896 Y81.924 E.02896
G1 X110.839 Y81.886 E.02958
G1 X111.703 Y81.955 E.02716
G1 X112.538 Y82.118 E.02669
G1 X113.353 Y82.375 E.02678
G1 X114.118 Y82.714 E.02624
G1 X114.891 Y83.17 E.02815
G1 X122.169 Y88.235 E.27802
G1 X129.377 Y83.216 E.27539
G1 X130.149 Y82.752 E.02824
G1 X131.038 Y82.356 E.03051
G1 X131.964 Y82.079 E.0303
G1 X132.735 Y81.942 E.02457
G1 X133.515 Y81.886 E.0245
G1 X134.481 Y81.928 E.03032
G1 X135.501 Y82.109 E.03248
G1 X136.473 Y82.421 E.03201
G1 X137.185 Y82.749 E.0246
G1 X137.86 Y83.148 E.02458
G1 X138.773 Y83.859 E.03627
G1 X139.438 Y84.546 E.03001
G1 X139.949 Y85.217 E.02643
G1 X140.373 Y85.923 E.02581
G1 X140.809 Y86.914 E.03397
G1 X141.045 Y87.709 E.02598
G1 X141.191 Y88.511 E.02555
G1 X141.251 Y89.496 E.03096
G1 X141.191 Y90.418 E.02897
G1 X141.032 Y91.275 E.02733
G1 X140.766 Y92.134 E.02818
G1 X140.381 Y92.992 E.02949
G1 X139.923 Y93.754 E.02789
G1 X134.91 Y100.966 E.27538
G1 X139.947 Y108.215 E.27674
G1 X140.425 Y109.024 E.02947
M73 Q2 S35
G1 X140.784 Y109.848 E.02818
G1 X141.044 Y110.708 E.02818
M73 P2 R35
G1 X141.2 Y111.591 E.02811
G1 X141.251 Y112.5 E.02854
G1 X141.19 Y113.427 E.02915
G1 X141.016 Y114.339 E.0291
G1 X140.76 Y115.151 E.0267
G1 X140.417 Y115.923 E.02646
G1 X139.953 Y116.708 E.02861
G1 X139.414 Y117.415 E.02787
G1 X138.725 Y118.116 E.03081
G1 X137.957 Y118.719 E.03063
G1 X137.12 Y119.217 E.03051
G1 X136.218 Y119.607 E.03083
G1 X135.471 Y119.831 E.02444
G1 X134.703 Y119.977 E.02451
G1 X133.799 Y120.047 E.02845
G1 X132.794 Y119.997 E.03152
G1 X131.801 Y119.814 E.03168
G1 X130.854 Y119.506 E.03123
G1 X130.115 Y119.163 E.02553
G1 X129.427 Y118.749 E.02517
G1 X122.169 Y113.697 E.27726
G1 X114.927 Y118.74 E.27671
G1 X114.118 Y119.218 E.02947
G1 X113.295 Y119.579 E.02818
G1 X112.438 Y119.839 E.02806
G1 X111.603 Y119.99 E.02661
G1 X110.756 Y120.047 E.02664
G1 X109.809 Y119.999 E.02973
G1 X108.868 Y119.831 E.02996
G1 X108.004 Y119.564 E.02836
G1 X107.179 Y119.196 E.02833
G1 X106.417 Y118.743 E.02778
G1 X105.706 Y118.197 E.02812
G1 X105.021 Y117.524 E.0301
G1 X104.419 Y116.757 E.03057
G1 X103.934 Y115.948 E.02958
G1 X103.545 Y115.061 E.03037
G1 X103.309 Y114.285 E.02543
G1 X103.156 Y113.483 E.02559
G1 X103.088 Y112.571 E.02869
G1 X103.136 Y111.617 E.02994
G1 X103.307 Y110.656 E.03062
G1 X103.615 Y109.687 E.03186
G1 X103.956 Y108.943 E.02567
G1 X104.374 Y108.242 E.02557
G1 X109.429 Y100.966 E.27778
G1 X104.387 Y93.71 E.27703
G1 X103.929 Y92.937 E.02819
G1 X103.566 Y92.117 E.02811
G1 X103.31 Y91.287 E.02726
G1 X103.142 Y90.367 E.02932
G1 X103.088 Y89.418 E.0298
G1 X103.151 Y88.49 E.02915
G1 X103.326 Y87.582 E.02901
G1 X103.608 Y86.707 E.02881
G1 X103.986 Y85.886 E.02836
G1 X104.421 Y85.173 E.02619
G1 X104.846 Y84.62 E.02186
M204 S1000
G1 X105.145 Y84.851 F10800
M204 S800
G1 F1200
G1 X105.222 Y84.751 E.00395
G1 X105.886 Y84.079 E.02961
G1 X106.571 Y83.541 E.02731
G1 X107.339 Y83.078 E.02815
G1 X108.19 Y82.702 E.02917
G1 X109.059 Y82.444 E.02839
G1 X109.924 Y82.3 E.02751
G1 X110.821 Y82.263 E.02815
G1 X111.641 Y82.327 E.02579
G1 X112.455 Y82.486 E.026
G1 X113.229 Y82.731 E.02544
G1 X113.954 Y83.054 E.02491
G1 X114.693 Y83.491 E.02691
G1 X122.169 Y88.694 E.2856
G1 X129.588 Y83.529 E.28343
G1 X130.314 Y83.091 E.02658
G1 X131.158 Y82.713 E.02901
G1 X132.041 Y82.448 E.02889
G1 X132.773 Y82.318 E.02331
G1 X133.531 Y82.263 E.02384
G1 X134.451 Y82.304 E.02889
G1 X135.398 Y82.472 E.03015
G1 X136.326 Y82.769 E.03055
G1 X137.002 Y83.079 E.02332
G1 X137.658 Y83.466 E.02389
G1 X138.511 Y84.131 E.03391
G1 X139.146 Y84.784 E.02855
G1 X139.631 Y85.421 E.02509
G1 X140.043 Y86.107 E.0251
G1 X140.451 Y87.034 E.03175
G1 X140.676 Y87.787 E.02464
G1 X140.818 Y88.567 E.02486
G1 X140.874 Y89.507 E.02953
G1 X140.818 Y90.361 E.02684
G1 X140.669 Y91.175 E.02594
G1 X140.409 Y92.011 E.02746
G1 X140.042 Y92.827 E.02805
