; generated by PrusaSlicer 2.5.2+win64 on 2023-09-13 at 03:15:31 UTC


;
;
; 

; external perimeters extrusion width = 0.60mm
; perimeters extrusion width = 0.50mm
; infill extrusion width = 0.50mm
; solid infill extrusion width = 0.50mm
; top infill extrusion width = 0.45mm
; first layer extrusion width = 0.42mm

M73 P0 R98
M73 Q0 S99
M201 X1000 Y1000 Z200 E5000 ; sets maximum accelerations, mm/sec^2
M203 X200 Y200 Z12 E120 ; sets maximum feedrates, mm / sec
M204 P1250 R1250 T1250 ; sets acceleration (P, T) and retract acceleration (R), mm/sec^2
M205 X8.00 Y8.00 Z0.40 E4.50 ; sets the jerk limits, mm/sec
M205 S0 T0 ; sets the minimum extruding and travel feed rate, mm/sec
M107
;TYPE:Custom
M862.3 P "MK3" ; printer model check
M862.1 P0.4 ; nozzle diameter check
M115 U3.12.2 ; tell printer latest fw version
G90 ; use absolute coordinates
M83 ; extruder relative mode
M104 S215 ; set extruder temp
M140 S60 ; set bed temp
M190 S60 ; wait for bed temp
M109 S215 ; wait for extruder temp
G28 W ; home all without mesh bed level
G80 ; mesh bed leveling

G1 Z0.2 F720
G1 Y-3 F1000 ; go outside print area
G92 E0
G1 X60 E9 F1000 ; intro line
G1 X100 E12.5 F1000 ; intro line

G92 E0
M221 S95

; Don't change E values below. Excessive value can damage the printer.

M907 E538 ; set extruder motor current
G21 ; set units to millimeters
G90 ; use absolute coordinates
M83 ; use relative distances for extrusion
M900 K0.05 ; Filament gcode LA 1.5
M900 K30 ; Filament gcode LA 1.0
M107
;LAYER_CHANGE
;Z:0.4
;HEIGHT:0.4
;BEFORE_LAYER_CHANGE
G92 E0.0
;0.4


G1 E-.8 F2100
G1 Z.4 F720
;AFTER_LAYER_CHANGE
;0.4
G1 Z.8
G1 X69.92 Y28.962 F10800
G1 Z.4 F720
G1 E.8 F2100
M204 S800
;TYPE:Skirt/Brim
;WIDTH:0.42
G1 F1200
G1 X70.599 Y27.324 E.09851
G1 X73.586 Y24.337 E.23479
G1 X75.237 Y23.653 E.09928
G1 X155.635 Y23.653 E4.46778
G1 X157.285 Y24.337 E.09928
G1 X160.273 Y27.324 E.23479
G1 X160.956 Y28.975 E.09928
G1 X160.956 Y152.8 E6.88107
G1 X160.273 Y154.45 E.09928
G1 X157.285 Y157.438 E.23479
G1 X155.635 Y158.121 E.09928
G1 X75.237 Y158.121 E4.46778
G1 X73.586 Y157.438 E.09928
M73 Q0 S98
G1 X70.599 Y154.45 E.23479
G1 X69.915 Y152.8 E.09928
G1 X69.915 Y29.021 E6.8785
M204 S1000
;WIPE_START
G1 F8640
G1 X70.599 Y27.324 E-.42237
G1 X71.633 Y26.29 E-.33763
;WIPE_END
G1 E-.04 F2100
G1 Z.8 F720
G1 X72.963 Y29.745 F10800
G1 Z.4 F720
G1 E.8 F2100
M204 S800
G1 F1200
G1 X73.032 Y29.454 E.01662
G1 X73.378 Y28.708 E.04568
G1 X74.133 Y27.779 E.06654
G1 X74.856 Y27.18 E.05213
G1 X76.905 Y26.476 E.12044
G1 X153.888 Y26.479 E4.27798
G1 X154.856 Y26.661 E.05477
G1 X155.796 Y27.056 E.05663
G1 X156.877 Y27.912 E.07666
G1 X157.731 Y29.179 E.08488
G1 X158.133 Y30.688 E.0868
G1 X158.133 Y151.083 E6.69049
G1 X157.839 Y152.321 E.07069
G1 X157.493 Y153.066 E.04568
G1 X156.738 Y153.996 E.06654
G1 X156.016 Y154.594 E.05213
G1 X153.966 Y155.298 E.12043
G1 X76.953 Y155.298 E4.27968
G1 X75.716 Y155.005 E.07069
G1 X74.97 Y154.658 E.04568
G1 X74.041 Y153.903 E.06654
G1 X73.442 Y153.181 E.05213
G1 X72.738 Y151.131 E.12043
G1 X72.738 Y30.691 E6.69297
G1 X72.949 Y29.803 E.05073
M204 S1000
G1 X73.273 Y29.881 F10800
M204 S800
G1 F1200
G1 X73.353 Y29.549 E.01898
G1 X73.672 Y28.869 E.04172
G1 X74.381 Y28.004 E.0622
G1 X75.045 Y27.457 E.04776
G1 X76.933 Y26.81 E.11093
G1 X153.872 Y26.813 E4.27556
G1 X154.776 Y26.985 E.05114
G1 X155.644 Y27.354 E.05239
G1 X156.648 Y28.156 E.07144
G1 X157.437 Y29.34 E.07908
G1 X157.799 Y30.709 E.07868
G1 X157.799 Y151.063 E6.68818
G1 X157.519 Y152.226 E.06644
M73 P1 R97
M73 Q1 S98
G1 X157.2 Y152.905 E.04172
G1 X156.49 Y153.771 E.0622
G1 X155.827 Y154.317 E.04776
G1 X153.939 Y154.964 E.11093
G1 X76.973 Y154.964 E4.27703
G1 X75.811 Y154.684 E.06644
G1 X75.131 Y154.365 E.04172
G1 X74.266 Y153.656 E.0622
G1 X73.719 Y152.992 E.04776
G1 X73.072 Y151.104 E.11093
G1 X73.072 Y30.711 E6.69032
G1 X73.258 Y29.939 E.04413
M204 S1000
G1 X73.581 Y30.019 F10800
M204 S800
G1 F1200
G1 X73.673 Y29.646 E.02133
G1 X73.964 Y29.032 E.03775
G1 X74.628 Y28.23 E.05786
G1 X75.233 Y27.735 E.04342
G1 X76.96 Y27.144 E.10147
G1 X153.856 Y27.148 E4.27313
G1 X154.694 Y27.31 E.04748
G1 X155.49 Y27.652 E.04813
G1 X156.418 Y28.4 E.06627
G1 X157.122 Y29.454 E.0704
G1 X157.465 Y30.732 E.07352
G1 X157.465 Y151.043 E6.68581
G1 X157.199 Y152.129 E.06214
M73 Q1 S97
G1 X156.907 Y152.742 E.03775
G1 X156.244 Y153.545 E.05786
G1 X155.639 Y154.039 E.04342
G1 X153.911 Y154.63 E.10147
G1 X76.994 Y154.63 E4.27437
G1 X75.908 Y154.364 E.06214
G1 X75.294 Y154.072 E.03775
G1 X74.492 Y153.409 E.05786
G1 X73.997 Y152.804 E.04342
G1 X73.406 Y151.076 E.10147
G1 X73.406 Y30.732 E6.68765
G1 X73.567 Y30.077 E.03747
M204 S1000
G1 X73.889 Y30.157 F10800
M204 S800
G1 F1200
G1 X73.993 Y29.744 E.02368
G1 X74.256 Y29.196 E.03377
G1 X74.873 Y28.457 E.05353
G1 X75.42 Y28.013 E.0391
G1 X76.988 Y27.479 E.09207
G1 X153.839 Y27.482 E4.27068
G1 X154.611 Y27.634 E.04375
G1 X155.335 Y27.949 E.04386
G1 X156.187 Y28.642 E.06105
G1 X156.828 Y29.614 E.0647
G1 X157.131 Y30.753 E.06548
G1 X157.131 Y151.022 E6.68345
G1 X156.879 Y152.031 E.05777
G1 X156.615 Y152.578 E.03377
G1 X155.998 Y153.318 E.05353
G1 X155.452 Y153.761 E.0391
G1 X153.884 Y154.296 E.09207
G1 X77.015 Y154.296 E4.27168
G1 X76.006 Y154.044 E.05777
G1 X75.458 Y153.781 E.03377
G1 X74.719 Y153.163 E.05353
G1 X74.275 Y152.617 E.0391
G1 X73.741 Y151.049 E.09207
G1 X73.741 Y30.753 E6.68496
G1 X73.875 Y30.216 E.03076
M204 S1000
G1 X74.196 Y30.298 F10800
M204 S800
G1 F1200
G1 X74.312 Y29.844 E.02602
G1 X74.547 Y29.362 E.02979
G1 X75.118 Y28.685 E.04921
G1 X75.606 Y28.292 E.03482
G1 X77.015 Y27.813 E.08272
G1 X153.822 Y27.816 E4.26822
G1 X154.527 Y27.958 E.03997
G1 X155.179 Y28.245 E.03958
G1 X155.954 Y28.883 E.05581
G1 X156.533 Y29.774 E.059
G1 X156.797 Y30.774 E.05752
G1 X156.797 Y151.001 E6.68108
G1 X156.559 Y151.931 E.05334
M73 P2 R96
M73 Q2 S97
G1 X156.325 Y152.413 E.02979
G1 X155.754 Y153.09 E.04921
G1 X155.265 Y153.482 E.03482
G1 X153.856 Y153.962 E.08272
G1 X77.036 Y153.962 E4.26897
G1 X76.106 Y153.725 E.05334
G1 X75.624 Y153.49 E.02979
G1 X74.947 Y152.919 E.04921
G1 X74.554 Y152.43 E.03482
G1 X74.075 Y151.021 E.08272
G1 X74.075 Y30.774 E6.68226
G1 X74.181 Y30.356 E.02398
M204 S1000
G1 X74.502 Y30.439 F10800
M204 S800
G1 F1200
G1 X74.631 Y29.946 E.02835
G1 X74.837 Y29.529 E.02581
G1 X75.361 Y28.915 E.0449
G1 X75.791 Y28.572 E.03057
G1 X77.043 Y28.147 E.07344
G1 X153.806 Y28.15 E4.26578
G1 X154.409 Y28.271 E.03421
G1 X155.022 Y28.541 E.03723
G1 X155.721 Y29.124 E.05054
G1 X156.217 Y29.886 E.05058
G1 X156.463 Y30.797 E.05241
G1 X156.463 Y150.979 E6.67862
G1 X156.241 Y151.829 E.04882
M73 Q2 S96
G1 X156.035 Y152.245 E.02581
G1 X155.51 Y152.86 E.0449
G1 X155.08 Y153.203 E.03057
G1 X153.829 Y153.628 E.07344
G1 X77.058 Y153.628 E4.26624
G1 X76.208 Y153.406 E.04882
G1 X75.791 Y153.2 E.02581
G1 X75.177 Y152.675 E.0449
G1 X74.834 Y152.245 E.03057
G1 X74.409 Y150.994 E.07344
G1 X74.409 Y30.796 E6.67953
G1 X74.487 Y30.497 E.01713
M204 S1000
G1 X74.806 Y30.583 F10800
M204 S800
G1 F1200
G1 X74.949 Y30.05 E.03067
G1 X75.125 Y29.699 E.02182
G1 X75.603 Y29.146 E.04062
G1 X75.975 Y28.852 E.02635
G1 X77.07 Y28.481 E.06423
G1 X153.788 Y28.484 E4.2633
G1 X154.323 Y28.594 E.03035
G1 X154.864 Y28.836 E.0329
G1 X155.485 Y29.362 E.04523
G1 X155.922 Y30.044 E.04502
G1 X156.128 Y30.818 E.04455
G1 X156.128 Y150.956 E6.67618
G1 X155.923 Y151.725 E.04421
G1 X155.746 Y152.076 E.02182
G1 X155.269 Y152.629 E.04062
G1 X154.896 Y152.922 E.02635
G1 X153.802 Y153.293 E.06423
G1 X77.08 Y153.293 E4.26348
G1 X76.312 Y153.088 E.04421
G1 X75.961 Y152.911 E.02182
G1 X75.408 Y152.434 E.04062
G1 X75.114 Y152.061 E.02635
G1 X74.743 Y150.967 E.06423
G1 X74.743 Y30.818 E6.67676
G1 X74.79 Y30.641 E.0102
M204 S1000
G1 X75.108 Y30.728 F10800
M204 S800
G1 F1200
G1 X75.266 Y30.156 E.03298
G1 X75.412 Y29.871 E.01783
G1 X75.843 Y29.378 E.03636
G1 X76.158 Y29.133 E.02217
G1 X77.097 Y28.815 E.05511
G1 X153.77 Y28.818 E4.26078
G1 X154.235 Y28.917 E.02641
M73 P3 R95
G1 X154.703 Y29.13 E.02855
G1 X155.248 Y29.599 E.03998
G1 X155.607 Y30.157 E.03688
G1 X155.794 Y30.841 E.03943
G1 X155.794 Y150.933 E6.67362
G1 X155.606 Y151.618 E.03948
M73 Q3 S96
G1 X155.459 Y151.904 E.01783
G1 X155.028 Y152.396 E.03636
G1 X154.713 Y152.641 E.02217
G1 X153.774 Y152.959 E.05511
G1 X77.103 Y152.959 E4.26068
G1 X76.418 Y152.771 E.03948
G1 X76.133 Y152.624 E.01783
G1 X75.64 Y152.193 E.03636
G1 X75.395 Y151.879 E.02217
G1 X75.077 Y150.939 E.05511
G1 X75.077 Y30.841 E6.67396
G1 X75.092 Y30.786 E.00317
M204 S1000
G1 X75.411 Y30.865 F10800
M204 S800
G1 F1200
G1 X75.582 Y30.266 E.03463
G1 X75.698 Y30.046 E.01383
G1 X76.082 Y29.613 E.03215
G1 X76.339 Y29.415 E.01803
G1 X77.125 Y29.149 E.04608
G1 X153.751 Y29.153 E4.25822
G1 X154.144 Y29.239 E.02236
G1 X154.54 Y29.422 E.02421
G1 X155.01 Y29.834 E.03475
G1 X155.292 Y30.273 E.02898
G1 X155.46 Y30.865 E.03422
G1 X155.46 Y150.909 E6.67096
G1 X155.29 Y151.509 E.03463
M73 Q3 S95
G1 X155.174 Y151.729 E.01383
G1 X154.79 Y152.162 E.03215
G1 X154.532 Y152.359 E.01803
G1 X153.747 Y152.625 E.04608
G1 X77.127 Y152.625 E4.25783
G1 X76.528 Y152.455 E.03463
G1 X76.308 Y152.339 E.01383
G1 X75.875 Y151.955 E.03215
G1 X75.677 Y151.697 E.01803
G1 X75.411 Y150.912 E.04608
G1 X75.411 Y30.925 E6.66778
M204 S1000
G1 X75.746 Y30.925 F10800
M204 S800
G1 F1200
G1 X75.897 Y30.379 E.03148
G1 X75.981 Y30.224 E.00983
G1 X76.318 Y29.849 E.02801
G1 X76.518 Y29.698 E.01393
G1 X77.152 Y29.484 E.03717
G1 X153.731 Y29.487 E4.2556
G1 X154.05 Y29.56 E.01817
G1 X154.374 Y29.713 E.01989
G1 X154.77 Y30.068 E.02956
G1 X154.979 Y30.391 E.02138
G1 X155.126 Y30.89 E.02892
G1 X155.126 Y150.884 E6.6682
G1 X154.975 Y151.395 E.02961
G1 X154.89 Y151.551 E.00983
G1 X154.553 Y151.925 E.02801
G1 X154.353 Y152.076 E.01393
G1 X153.72 Y152.291 E.03717
G1 X77.152 Y152.291 E4.25493
G1 X76.641 Y152.14 E.02961
G1 X76.486 Y152.055 E.00983
G1 X76.111 Y151.718 E.02801
G1 X75.96 Y151.518 E.01393
G1 X75.746 Y150.885 E.03717
G1 X75.746 Y30.985 E6.66293
M204 S1000
G1 X76.08 Y30.985 F10800
M204 S800
G1 F1200
G1 X76.08 Y30.916 E.00382
G1 X76.21 Y30.498 E.02436
G1 X76.261 Y30.407 E.00582
G1 X76.553 Y30.088 E.02401
G1 X76.695 Y29.983 E.00985
G1 X77.18 Y29.818 E.02842
G1 X153.712 Y29.821 E4.25299
G1 X153.923 Y29.87 E.01205
M73 P4 R94
M73 Q4 S95
G1 X154.207 Y30.004 E.01745
G1 X154.528 Y30.299 E.02422
G1 X154.667 Y30.513 E.01417
G1 X154.792 Y30.916 E.02348
G1 X154.792 Y150.858 E6.66528
G1 X154.662 Y151.277 E.02436
G1 X154.61 Y151.368 E.00582
G1 X154.319 Y151.687 E.02401
G1 X154.176 Y151.792 E.00985
G1 X153.692 Y151.957 E.02842
G1 X77.178 Y151.957 E4.25193
G1 X76.76 Y151.827 E.02436
G1 X76.669 Y151.775 E.00582
G1 X76.35 Y151.484 E.02401
G1 X76.245 Y151.341 E.00985
G1 X76.08 Y150.857 E.02842
G1 X76.08 Y31.045 E6.65806
M204 S1000
G1 X76.414 Y31.045 F10800
M204 S800
G1 F1200
G1 X76.414 Y30.944 E.00559
G1 X76.536 Y30.597 E.02046
G1 X76.785 Y30.329 E.02034
G1 X76.869 Y30.269 E.00575
G1 X77.208 Y30.152 E.0199
G1 X153.693 Y30.155 E4.25034
G1 X153.796 Y30.179 E.00592
G1 X154.039 Y30.294 E.01492
G1 X154.284 Y30.527 E.01875
G1 X154.357 Y30.639 E.00748
G1 X154.458 Y30.944 E.01785
G1 X154.458 Y150.83 E6.66216
G1 X154.336 Y151.178 E.02046
M73 Q4 S94
G1 X154.087 Y151.446 E.02034
G1 X154.002 Y151.506 E.00575
G1 X153.664 Y151.623 E.0199
G1 X77.206 Y151.623 E4.2488
G1 X76.859 Y151.501 E.02046
G1 X76.591 Y151.252 E.02034
G1 X76.531 Y151.167 E.00575
G1 X76.414 Y150.829 E.0199
G1 X76.414 Y31.105 E6.65316
M204 S1000
G1 X76.748 Y31.105 F10800
M204 S800
G1 F1200
G1 X76.748 Y30.975 E.0072
G1 X76.816 Y30.787 E.01113
G1 X77.015 Y30.572 E.01626
G1 X77.237 Y30.486 E.01328
G1 X153.647 Y30.486 E4.24612
G1 X153.868 Y30.583 E.01345
G1 X154.051 Y30.774 E.01469
G1 X154.123 Y30.975 E.01189
G1 X154.123 Y150.799 E6.6587
G1 X154.056 Y150.988 E.01113
G1 X153.835 Y151.216 E.01765
G1 X153.634 Y151.289 E.01189
G1 X77.237 Y151.289 E4.24542
G1 X77.049 Y151.221 E.01113
G1 X76.82 Y151.001 E.01765
G1 X76.748 Y150.799 E.01189
G1 X76.748 Y31.165 E6.64817
M204 S1000
G1 X77.082 Y31.165 F10800
M204 S800
G1 F1200
G1 X77.082 Y31.013 E.00847
G1 X77.108 Y30.951 E.00369
G1 X77.213 Y30.846 E.0083
G1 X77.275 Y30.82 E.00369
G1 X153.597 Y30.82 E4.2413
G1 X153.658 Y30.846 E.00369
M73 P5 R93
M73 Q5 S94
G1 X153.764 Y30.951 E.0083
G1 X153.789 Y31.013 E.00369
G1 X153.789 Y150.762 E6.65458
G1 X153.764 Y150.823 E.00369
G1 X153.658 Y150.929 E.0083
G1 X153.597 Y150.954 E.00369
G1 X77.275 Y150.954 E4.2413
G1 X77.213 Y150.929 E.00369
G1 X77.108 Y150.823 E.0083
G1 X77.082 Y150.762 E.00369
G1 X77.082 Y31.225 E6.64277
M204 S1000
; printing object Body1 id:0 copy 0
;WIPE_START
G1 F8640
G1 X77.082 Y31.013 E-.04906
G1 X77.108 Y30.951 E-.01535
G1 X77.213 Y30.846 E-.03448
G1 X77.275 Y30.82 E-.01535
G1 X80.071 Y30.82 E-.64577
;WIPE_END
G1 E-.04 F2100
G1 Z.8 F720
G1 X152.978 Y150.143 F10800
G1 Z.4 F720
G1 E.8 F2100
M204 S800
;TYPE:Perimeter
;WIDTH:0.42
G1 F1200
G1 X77.893 Y150.143 E4.17252
G1 X77.893 Y31.631 E6.5858
G1 X152.978 Y31.631 E4.17252
M73 Q5 S93
G1 X152.978 Y150.083 E6.58246
M204 S1000
G1 X153.312 Y150.477 F10800
M204 S800
;TYPE:External perimeter
G1 F1200
G1 X77.559 Y150.477 E4.20966
G1 X77.559 Y31.297 E6.62294
G1 X153.312 Y31.297 E4.20966
G1 X153.312 Y150.417 E6.6196
M204 S1000
G1 X152.934 Y150.346 F10800
;WIPE_START
G1 F8640
G1 X150.021 Y150.42 E-.76
;WIPE_END
G1 E-.04 F2100
G1 Z.8 F720
G1 X144.454 Y50.892 F10800
G1 Z.4 F720
G1 E.8 F2100
M204 S800
;TYPE:Perimeter
G1 F1200
G1 X144.114 Y50.444 E.03123
G1 X143.917 Y49.967 E.02866
G1 X143.841 Y49.442 E.02948
G1 X143.895 Y48.908 E.02982
G1 X144.083 Y48.381 E.03113
G1 X144.242 Y48.115 E.01719
G1 X144.555 Y47.741 E.02714
G1 X144.956 Y47.44 E.02787
G1 X145.46 Y47.226 E.03042
G1 X145.988 Y47.141 E.02972
G1 X146.614 Y47.191 E.03485
G1 X147.178 Y47.4 E.03347
G1 X147.658 Y47.741 E.03268
G1 X148.032 Y48.194 E.03268
G1 X148.276 Y48.729 E.03268
G1 X148.372 Y49.309 E.03269
G1 X148.311 Y49.895 E.0327
G1 X148.099 Y50.444 E.03272
G1 X147.751 Y50.919 E.03273
G1 X147.291 Y51.288 E.03273
G1 X146.753 Y51.526 E.03273
G1 X146.171 Y51.618 E.03272
M73 P6 R93
G1 X145.585 Y51.559 E.03271
G1 X145.034 Y51.352 E.03269
G1 X144.675 Y51.101 E.02434
G1 X144.497 Y50.933 E.01361
M204 S1000
G1 X144.818 Y50.78 F10800
M204 S800
;TYPE:External perimeter
G1 F1200
G1 X144.668 Y50.64 E.01139
G1 X144.391 Y50.241 E.02698
G1 X144.226 Y49.799 E.02624
G1 X144.173 Y49.354 E.02493
G1 X144.245 Y48.858 E.02781
G1 X144.444 Y48.399 E.02782
G1 X144.757 Y48.007 E.02786
G1 X145.161 Y47.709 E.0279
G1 X145.628 Y47.524 E.02794
G1 X146.07 Y47.472 E.02471
G1 X146.58 Y47.524 E.02848
G1 X147.052 Y47.709 E.02822
G1 X147.456 Y48.007 E.0279
G1 X147.769 Y48.399 E.02786
G1 X147.968 Y48.858 E.02782
G1 X148.04 Y49.354 E.02781
G1 X147.98 Y49.85 E.02781
G1 X147.791 Y50.314 E.02784
M73 Q6 S93
G1 X147.487 Y50.714 E.02788
G1 X147.09 Y51.021 E.02792
G1 X146.626 Y51.216 E.02795
G1 X146.128 Y51.286 E.02797
G1 X145.628 Y51.227 E.02796
G1 X145.161 Y51.042 E.02794
G1 X144.862 Y50.821 E.02066
M204 S1000
G1 X144.628 Y50.856 F10800
;WIPE_START
G1 F8640
G1 X144.668 Y50.64 E-.0612
G1 X144.391 Y50.241 E-.11211
G1 X144.226 Y49.799 E-.10905
G1 X144.173 Y49.354 E-.10357
G1 X144.245 Y48.858 E-.11554
G1 X144.444 Y48.399 E-.11561
G1 X144.757 Y48.007 E-.11575
G1 X144.851 Y47.937 E-.02717
;WIPE_END
G1 E-.04 F2100
G1 Z.8 F720
G1 X127.945 Y51.399 F10800
G1 Z.4 F720
G1 E.8 F2100
M204 S800
;TYPE:Perimeter
G1 F1200
G1 X127.794 Y51.34 E.00902
G1 X127.632 Y51.134 E.01453
G1 X127.592 Y50.938 E.01113
G1 X127.592 Y47.814 E.1736
G1 X127.662 Y47.559 E.01467
G1 X127.849 Y47.376 E.01454
G1 X128.111 Y47.313 E.01496
G1 X128.902 Y47.565 E.04615
G1 X129.87 Y48.157 E.06306
G1 X130.219 Y48.539 E.02872
G1 X130.46 Y49.015 E.02966
G1 X130.519 Y49.442 E.02398
G1 X130.428 Y49.813 E.02121
G1 X130.188 Y50.259 E.02816
G1 X129.983 Y50.497 E.01745
G1 X129.69 Y50.724 E.0206
G1 X128.999 Y51.141 E.04481
G1 X128.339 Y51.383 E.0391
G1 X128.039 Y51.436 E.0169
G1 X128.001 Y51.421 E.00231
M204 S1000
G1 X128.043 Y51.097 F10800
M204 S800
;TYPE:External perimeter
G1 F1200
G1 X127.935 Y50.99 E.00845
G1 X127.927 Y47.814 E.17648
G1 X127.99 Y47.683 E.00811
G1 X128.133 Y47.651 E.00811
G1 X128.825 Y47.897 E.04083
