; generated by PrusaSlicer 2.5.2+win64 on 2023-09-19 at 23:07:01 UTC


;
;
; 

; external perimeters extrusion width = 0.60mm
; perimeters extrusion width = 0.50mm
; infill extrusion width = 0.50mm
; solid infill extrusion width = 0.50mm
; top infill extrusion width = 0.45mm
; first layer extrusion width = 0.42mm

M73 P0 R99
M73 Q0 S99
M201 X1000 Y1000 Z200 E5000 ; sets maximum accelerations, mm/sec^2
M203 X200 Y200 Z12 E120 ; sets maximum feedrates, mm / sec
M204 P1250 R1250 T1250 ; sets acceleration (P, T) and retract acceleration (R), mm/sec^2
M205 X8.00 Y8.00 Z0.40 E4.50 ; sets the jerk limits, mm/sec
M205 S0 T0 ; sets the minimum extruding and travel feed rate, mm/sec
M107
;TYPE:Custom
M862.3 P "MK3" ; printer model check
M862.1 P0.4 ; nozzle diameter check
M115 U3.12.2 ; tell printer latest fw version
G90 ; use absolute coordinates
M83 ; extruder relative mode
M104 S215 ; set extruder temp
M140 S60 ; set bed temp
M190 S60 ; wait for bed temp
M109 S215 ; wait for extruder temp
G28 W ; home all without mesh bed level
G80 ; mesh bed leveling

G1 Z0.2 F720
G1 Y-3 F1000 ; go outside print area
G92 E0
G1 X60 E9 F1000 ; intro line
M73 P0 R98
G1 X100 E12.5 F1000 ; intro line

G92 E0
M221 S95

; Don't change E values below. Excessive value can damage the printer.

M907 E538 ; set extruder motor current
G21 ; set units to millimeters
G90 ; use absolute coordinates
M83 ; use relative distances for extrusion
M900 K0.05 ; Filament gcode LA 1.5
M900 K30 ; Filament gcode LA 1.0
M107
;LAYER_CHANGE
;Z:0.4
;HEIGHT:0.4
;BEFORE_LAYER_CHANGE
G92 E0.0
;0.4


G1 E-.8 F2100
G1 Z.4 F720
;AFTER_LAYER_CHANGE
;0.4
G1 Z.8
G1 X74.367 Y51.199 F10800
G1 Z.4 F720
G1 E.8 F2100
M204 S800
;TYPE:Skirt/Brim
;WIDTH:0.42
G1 F1200
G1 X77.354 Y48.211 E.23479
G1 X79.005 Y47.528 E.09928
G1 X159.403 Y47.528 E4.46778
G1 X161.053 Y48.211 E.09928
G1 X164.041 Y51.199 E.23479
G1 X164.724 Y52.849 E.09928
G1 X164.724 Y176.674 E6.88107
G1 X164.041 Y178.325 E.09928
G1 X161.053 Y181.312 E.23479
G1 X159.403 Y181.996 E.09928
G1 X79.005 Y181.996 E4.46778
G1 X77.354 Y181.312 E.09928
M73 Q0 S98
G1 X74.367 Y178.325 E.23479
G1 X73.683 Y176.674 E.09928
G1 X73.683 Y52.849 E6.88107
G1 X74.344 Y51.254 E.09594
M204 S1000
;WIPE_START
G1 F8640
G1 X76.659 Y48.915 E-.76
;WIPE_END
G1 E-.04 F2100
G1 Z.8 F720
G1 X77.146 Y52.583 F10800
G1 Z.4 F720
G1 E.8 F2100
M204 S800
G1 F1200
G1 X77.901 Y51.653 E.06654
G1 X78.624 Y51.055 E.05213
G1 X80.674 Y50.351 E.12044
G1 X157.656 Y50.354 E4.27798
G1 X158.625 Y50.535 E.05477
G1 X159.564 Y50.93 E.05663
G1 X160.646 Y51.787 E.07666
G1 X161.499 Y53.053 E.08488
G1 X161.901 Y54.563 E.0868
G1 X161.901 Y174.958 E6.69049
G1 X161.608 Y176.196 E.07069
G1 X161.261 Y176.941 E.04568
G1 X160.506 Y177.87 E.06654
G1 X159.784 Y178.469 E.05213
G1 X157.734 Y179.173 E.12043
G1 X80.721 Y179.173 E4.27968
G1 X79.484 Y178.879 E.07069
G1 X78.738 Y178.533 E.04568
G1 X77.809 Y177.778 E.06654
G1 X77.21 Y177.056 E.05213
G1 X76.506 Y175.006 E.12043
G1 X76.506 Y54.566 E6.69297
G1 X76.8 Y53.328 E.07069
G1 X77.121 Y52.637 E.04234
M204 S1000
G1 X77.423 Y52.779 F10800
M204 S800
G1 F1200
G1 X78.149 Y51.878 E.06428
G1 X78.813 Y51.332 E.04776
G1 X80.701 Y50.685 E.11093
G1 X157.64 Y50.688 E4.27556
G1 X158.544 Y50.86 E.05114
G1 X159.412 Y51.229 E.05239
G1 X160.416 Y52.031 E.07144
G1 X161.206 Y53.215 E.07908
G1 X161.567 Y54.584 E.07868
G1 X161.567 Y174.938 E6.68818
G1 X161.287 Y176.1 E.06644
M73 P1 R97
M73 Q1 S98
G1 X160.968 Y176.78 E.04172
G1 X160.259 Y177.646 E.0622
G1 X159.595 Y178.192 E.04776
G1 X157.707 Y178.839 E.11093
G1 X80.741 Y178.839 E4.27703
G1 X79.579 Y178.559 E.06644
G1 X78.9 Y178.24 E.04172
G1 X78.034 Y177.53 E.0622
G1 X77.488 Y176.867 E.04776
G1 X76.84 Y174.978 E.11093
G1 X76.84 Y54.586 E6.69032
G1 X77.121 Y53.424 E.06644
G1 X77.398 Y52.833 E.03623
M204 S1000
G1 X77.699 Y52.977 F10800
M204 S800
G1 F1200
G1 X77.732 Y52.907 E.00429
G1 X78.396 Y52.104 E.05786
G1 X79.001 Y51.61 E.04342
G1 X80.729 Y51.019 E.10147
G1 X157.624 Y51.022 E4.27313
G1 X158.462 Y51.185 E.04748
G1 X159.258 Y51.526 E.04813
G1 X160.187 Y52.275 E.06627
G1 X160.89 Y53.328 E.0704
G1 X161.233 Y54.606 E.07352
G1 X161.233 Y174.918 E6.68581
G1 X160.967 Y176.004 E.06214
G1 X160.675 Y176.617 E.03775
G1 X160.012 Y177.42 E.05786
G1 X159.407 Y177.914 E.04342
G1 X157.679 Y178.505 E.10147
G1 X80.762 Y178.505 E4.27437
G1 X79.676 Y178.238 E.06214
M73 Q1 S97
G1 X79.062 Y177.947 E.03775
G1 X78.26 Y177.284 E.05786
G1 X77.765 Y176.679 E.04342
G1 X77.175 Y174.951 E.10147
G1 X77.175 Y54.606 E6.68765
G1 X77.441 Y53.52 E.06214
G1 X77.674 Y53.031 E.03012
M204 S1000
G1 X77.974 Y53.175 F10800
M204 S800
G1 F1200
G1 X78.024 Y53.071 E.00643
G1 X78.641 Y52.331 E.05353
G1 X79.188 Y51.888 E.0391
G1 X80.756 Y51.353 E.09207
G1 X157.607 Y51.357 E4.27068
G1 X158.38 Y51.509 E.04375
G1 X159.103 Y51.823 E.04386
G1 X159.955 Y52.517 E.06105
G1 X160.596 Y53.489 E.0647
G1 X160.899 Y54.628 E.06548
G1 X160.899 Y174.897 E6.68345
G1 X160.647 Y175.905 E.05777
G1 X160.384 Y176.453 E.03377
G1 X159.766 Y177.193 E.05353
G1 X159.22 Y177.636 E.0391
G1 X157.652 Y178.171 E.09207
G1 X80.783 Y178.171 E4.27168
G1 X79.774 Y177.919 E.05777
G1 X79.226 Y177.655 E.03377
G1 X78.487 Y177.038 E.05353
G1 X78.044 Y176.491 E.0391
G1 X77.509 Y174.923 E.09207
G1 X77.509 Y54.627 E6.68496
G1 X77.761 Y53.619 E.05777
G1 X77.948 Y53.229 E.02401
M204 S1000
G1 X78.247 Y53.375 F10800
M204 S800
G1 F1200
G1 X78.315 Y53.237 E.00856
G1 X78.886 Y52.56 E.04921
G1 X79.374 Y52.167 E.03482
G1 X80.783 Y51.687 E.08272
G1 X157.59 Y51.691 E4.26822
G1 X158.295 Y51.833 E.03997
G1 X158.947 Y52.119 E.03958
G1 X159.722 Y52.758 E.05581
G1 X160.301 Y53.648 E.059
G1 X160.565 Y54.649 E.05752
G1 X160.565 Y174.875 E6.68108
G1 X160.328 Y175.805 E.05334
M73 P2 R96
M73 Q2 S97
G1 X160.093 Y176.287 E.02979
G1 X159.522 Y176.964 E.04921
G1 X159.034 Y177.357 E.03482
G1 X157.624 Y177.836 E.08272
G1 X80.804 Y177.836 E4.26897
G1 X79.874 Y177.599 E.05334
G1 X79.392 Y177.364 E.02979
G1 X78.715 Y176.793 E.04921
G1 X78.322 Y176.305 E.03482
G1 X77.843 Y174.896 E.08272
G1 X77.843 Y54.649 E6.68226
G1 X78.08 Y53.719 E.05334
G1 X78.221 Y53.429 E.01789
M204 S1000
G1 X78.519 Y53.577 F10800
M204 S800
G1 F1200
G1 X78.605 Y53.404 E.0107
G1 X79.129 Y52.789 E.0449
G1 X79.559 Y52.447 E.03057
G1 X80.811 Y52.022 E.07344
G1 X157.574 Y52.025 E4.26578
G1 X158.177 Y52.146 E.03421
G1 X158.79 Y52.416 E.03723
G1 X159.489 Y52.998 E.05054
G1 X159.986 Y53.761 E.05058
G1 X160.231 Y54.672 E.05241
G1 X160.231 Y174.854 E6.67862
G1 X160.009 Y175.704 E.04882
M73 Q2 S96
G1 X159.803 Y176.12 E.02581
G1 X159.279 Y176.735 E.0449
G1 X158.848 Y177.077 E.03057
G1 X157.597 Y177.502 E.07344
G1 X80.826 Y177.502 E4.26624
G1 X79.976 Y177.281 E.04882
G1 X79.56 Y177.075 E.02581
G1 X78.945 Y176.55 E.0449
G1 X78.602 Y176.12 E.03057
G1 X78.177 Y174.869 E.07344
G1 X78.177 Y54.67 E6.67953
G1 X78.399 Y53.82 E.04882
G1 X78.493 Y53.63 E.01178
M204 S1000
G1 X78.79 Y53.78 F10800
M204 S800
G1 F1200
G1 X78.893 Y53.574 E.01283
G1 X79.371 Y53.02 E.04062
G1 X79.743 Y52.727 E.02635
G1 X80.838 Y52.356 E.06423
G1 X157.556 Y52.359 E4.2633
G1 X158.091 Y52.469 E.03035
G1 X158.632 Y52.711 E.0329
G1 X159.253 Y53.236 E.04523
G1 X159.69 Y53.919 E.04502
G1 X159.896 Y54.693 E.04455
G1 X159.896 Y174.831 E6.67618
G1 X159.691 Y175.6 E.04421
G1 X159.514 Y175.95 E.02182
G1 X159.037 Y176.504 E.04062
G1 X158.664 Y176.797 E.02635
G1 X157.57 Y177.168 E.06423
G1 X80.848 Y177.168 E4.26348
G1 X80.08 Y176.963 E.04421
G1 X79.729 Y176.786 E.02182
G1 X79.176 Y176.308 E.04062
G1 X78.882 Y175.936 E.02635
G1 X78.511 Y174.841 E.06423
G1 X78.511 Y54.693 E6.67676
G1 X78.717 Y53.924 E.04421
G1 X78.763 Y53.833 E.00565
M204 S1000
G1 X79.058 Y53.985 F10800
M204 S800
G1 F1200
G1 X79.181 Y53.746 E.01496
G1 X79.611 Y53.253 E.03636
G1 X79.926 Y53.008 E.02217
G1 X80.865 Y52.69 E.05511
G1 X157.538 Y52.693 E4.26078
G1 X158.003 Y52.792 E.02641
M73 P3 R96
G1 X158.471 Y53.004 E.02855
G1 X159.016 Y53.473 E.03998
G1 X159.375 Y54.032 E.03688
G1 X159.562 Y54.716 E.03943
G1 X159.562 Y174.808 E6.67362
G1 X159.374 Y175.493 E.03948
M73 P3 R95
M73 Q3 S96
G1 X159.227 Y175.778 E.01783
G1 X158.796 Y176.271 E.03636
G1 X158.482 Y176.516 E.02217
G1 X157.542 Y176.834 E.05511
G1 X80.871 Y176.834 E4.26068
G1 X80.186 Y176.645 E.03948
G1 X79.901 Y176.499 E.01783
G1 X79.408 Y176.068 E.03636
G1 X79.163 Y175.753 E.02217
G1 X78.845 Y174.814 E.05511
G1 X78.845 Y54.716 E6.67396
G1 X79.032 Y54.039 E.03901
M204 S1000
G1 X79.35 Y54.14 F10800
M204 S800
G1 F1200
G1 X79.466 Y53.92 E.01383
G1 X79.85 Y53.487 E.03215
G1 X80.107 Y53.29 E.01803
G1 X80.893 Y53.024 E.04608
G1 X157.519 Y53.027 E4.25822
G1 X157.912 Y53.114 E.02236
G1 X158.308 Y53.297 E.02421
G1 X158.778 Y53.709 E.03475
G1 X159.06 Y54.147 E.02898
G1 X159.228 Y54.74 E.03422
G1 X159.228 Y174.784 E6.67096
G1 X159.058 Y175.384 E.03463
M73 Q3 S95
G1 X158.942 Y175.604 E.01383
G1 X158.558 Y176.036 E.03215
G1 X158.3 Y176.234 E.01803
G1 X157.515 Y176.5 E.04608
G1 X80.895 Y176.5 E4.25783
G1 X80.296 Y176.329 E.03463
G1 X80.076 Y176.213 E.01383
G1 X79.643 Y175.829 E.03215
G1 X79.445 Y175.572 E.01803
G1 X79.18 Y174.787 E.04608
G1 X79.18 Y54.74 E6.67112
G1 X79.334 Y54.198 E.03129
M204 S1000
G1 X79.653 Y54.293 F10800
M204 S800
G1 F1200
G1 X79.749 Y54.098 E.01204
G1 X80.087 Y53.724 E.02801
G1 X80.287 Y53.573 E.01393
G1 X80.92 Y53.358 E.03717
G1 X157.5 Y53.361 E4.2556
G1 X157.818 Y53.435 E.01817
G1 X158.142 Y53.588 E.01989
G1 X158.539 Y53.942 E.02956
G1 X158.747 Y54.266 E.02138
G1 X158.894 Y54.765 E.02892
G1 X158.894 Y174.759 E6.6682
G1 X158.743 Y175.27 E.02961
G1 X158.658 Y175.426 E.00983
G1 X158.321 Y175.8 E.02801
G1 X158.121 Y175.951 E.01393
G1 X157.488 Y176.166 E.03717
G1 X80.92 Y176.166 E4.25493
G1 X80.409 Y176.015 E.02961
G1 X80.254 Y175.93 E.00983
G1 X79.879 Y175.593 E.02801
G1 X79.728 Y175.393 E.01393
G1 X79.514 Y174.759 E.03717
G1 X79.514 Y54.765 E6.66821
G1 X79.636 Y54.35 E.02402
M204 S1000
G1 X79.954 Y54.449 F10800
M204 S800
G1 F1200
G1 X80.029 Y54.281 E.0102
G1 X80.321 Y53.962 E.02401
G1 X80.464 Y53.857 E.00985
G1 X80.948 Y53.692 E.02842
G1 X157.48 Y53.696 E4.25299
G1 X157.692 Y53.745 E.01205
M73 P4 R95
M73 Q4 S95
G1 X157.975 Y53.879 E.01745
G1 X158.297 Y54.173 E.02422
G1 X158.435 Y54.387 E.01417
G1 X158.56 Y54.791 E.02348
G1 X158.56 Y174.733 E6.66528
G1 X158.43 Y175.152 E.02436
M73 P4 R94
G1 X158.378 Y175.243 E.00582
G1 X158.087 Y175.561 E.02401
G1 X157.944 Y175.667 E.00985
G1 X157.46 Y175.832 E.02842
G1 X80.946 Y175.832 E4.25193
G1 X80.528 Y175.702 E.02436
G1 X80.437 Y175.65 E.00582
G1 X80.118 Y175.358 E.02401
G1 X80.013 Y175.216 E.00985
G1 X79.848 Y174.732 E.02842
G1 X79.848 Y54.791 E6.66521
G1 X79.936 Y54.506 E.01658
M204 S1000
G1 X80.251 Y54.61 F10800
M204 S800
G1 F1200
G1 X80.304 Y54.472 E.00822
G1 X80.553 Y54.204 E.02034
G1 X80.637 Y54.143 E.00575
G1 X80.976 Y54.027 E.0199
G1 X157.461 Y54.03 E4.25034
G1 X157.564 Y54.054 E.00592
G1 X157.807 Y54.169 E.01492
G1 X158.052 Y54.401 E.01875
G1 X158.126 Y54.514 E.00748
G1 X158.226 Y54.819 E.01785
G1 X158.226 Y174.705 E6.66216
G1 X158.104 Y175.052 E.02046
M73 Q4 S94
G1 X157.855 Y175.32 E.02034
G1 X157.77 Y175.381 E.00575
G1 X157.432 Y175.497 E.0199
G1 X80.975 Y175.497 E4.2488
G1 X80.627 Y175.375 E.02046
G1 X80.359 Y175.126 E.02034
G1 X80.299 Y175.042 E.00575
G1 X80.182 Y174.704 E.0199
G1 X80.182 Y54.819 E6.66208
G1 X80.232 Y54.667 E.00892
M204 S1000
G1 X80.542 Y54.778 F10800
M204 S800
G1 F1200
G1 X80.584 Y54.662 E.00686
G1 X80.783 Y54.447 E.01626
G1 X81.006 Y54.361 E.01328
G1 X157.415 Y54.361 E4.24612
G1 X157.636 Y54.458 E.01345
G1 X157.819 Y54.649 E.01469
G1 X157.892 Y54.85 E.01189
G1 X157.892 Y174.674 E6.6587
G1 X157.824 Y174.862 E.01113
G1 X157.604 Y175.091 E.01765
G1 X157.402 Y175.163 E.01189
G1 X81.006 Y175.163 E4.24542
G1 X80.817 Y175.096 E.01113
G1 X80.588 Y174.875 E.01765
G1 X80.516 Y174.674 E.01189
G1 X80.522 Y54.834 E6.65959
M204 S1000
G1 X80.85 Y54.887 F10800
M204 S800
G1 F1200
G1 X80.876 Y54.826 E.00369
G1 X80.981 Y54.72 E.0083
G1 X81.043 Y54.695 E.00369
G1 X157.365 Y54.695 E4.2413
G1 X157.426 Y54.72 E.00369
M73 P5 R94
M73 Q5 S94
G1 X157.532 Y54.826 E.0083
G1 X157.557 Y54.887 E.00369
G1 X157.557 Y174.637 E6.65458
G1 X157.532 Y174.698 E.00369
M73 P5 R93
G1 X157.426 Y174.804 E.0083
G1 X157.365 Y174.829 E.00369
G1 X81.043 Y174.829 E4.2413
G1 X80.981 Y174.804 E.00369
G1 X80.876 Y174.698 E.0083
G1 X80.85 Y174.637 E.00369
G1 X80.85 Y54.947 E6.65124
M204 S1000
; printing object Body1 id:0 copy 0
;WIPE_START
G1 F8640
G1 X80.876 Y54.826 E-.02864
G1 X80.981 Y54.72 E-.03448
G1 X81.043 Y54.695 E-.01535
G1 X83.994 Y54.695 E-.68153
;WIPE_END
G1 E-.04 F2100
G1 Z.8 F720
G1 X156.746 Y174.018 F10800
G1 Z.4 F720
G1 E.8 F2100
M204 S800
;TYPE:Perimeter
;WIDTH:0.42
G1 F1200
G1 X81.662 Y174.018 E4.17252
G1 X81.662 Y55.506 E6.5858
G1 X156.746 Y55.506 E4.17252
M73 Q5 S93
G1 X156.746 Y173.958 E6.58246
M204 S1000
G1 X157.08 Y174.352 F10800
M204 S800
;TYPE:External perimeter
G1 F1200
G1 X81.327 Y174.352 E4.20966
G1 X81.327 Y55.172 E6.62294
G1 X157.08 Y55.172 E4.20966
G1 X157.08 Y174.292 E6.6196
M204 S1000
G1 X156.703 Y174.221 F10800
;WIPE_START
G1 F8640
G1 X153.789 Y174.295 E-.76
;WIPE_END
G1 E-.04 F2100
G1 Z.8 F720
G1 X148.251 Y71.702 F10800
G1 Z.4 F720
G1 E.8 F2100
M204 S800
;TYPE:Perimeter
G1 F1200
G1 X148.323 Y71.615 E.00625
G1 X148.725 Y71.314 E.02787
G1 X149.269 Y71.086 E.03279
G1 X149.77 Y71.014 E.02812
G1 X150.382 Y71.066 E.03414
G1 X150.947 Y71.274 E.03347
G1 X151.426 Y71.615 E.03268
G1 X151.8 Y72.069 E.03268
G1 X152.044 Y72.604 E.03268
G1 X152.14 Y73.184 E.03269
G1 X152.079 Y73.769 E.0327
G1 X151.867 Y74.319 E.03272
G1 X151.519 Y74.794 E.03273
G1 X151.06 Y75.162 E.03273
G1 X150.521 Y75.4 E.03273
G1 X149.939 Y75.492 E.03272
G1 X149.353 Y75.433 E.03271
G1 X148.803 Y75.227 E.03269
G1 X148.323 Y74.886 E.03268
G1 X147.949 Y74.432 E.03267
G1 X147.705 Y73.897 E.03268
G1 X147.61 Y73.317 E.03269
M73 P6 R93
G1 X147.663 Y72.783 E.02982
G1 X147.851 Y72.255 E.03113
G1 X148.01 Y71.99 E.01719
G1 X148.213 Y71.748 E.01755
M204 S1000
G1 X148.523 Y71.89 F10800
M204 S800
;TYPE:External perimeter
G1 F1200
G1 X148.891 Y71.605 E.02589
G1 X149.355 Y71.41 E.02795
G1 X149.838 Y71.346 E.02708
G1 X150.348 Y71.398 E.02848
G1 X150.82 Y71.584 E.02822
G1 X151.224 Y71.882 E.0279
G1 X151.537 Y72.274 E.02786
G1 X151.736 Y72.733 E.02782
G1 X151.808 Y73.228 E.02781
G1 X151.748 Y73.725 E.02781
G1 X151.559 Y74.189 E.02784
G1 X151.255 Y74.588 E.02788
G1 X150.858 Y74.896 E.02792
M73 Q6 S93
G1 X150.394 Y75.091 E.02795
G1 X149.896 Y75.161 E.02797
G1 X149.396 Y75.102 E.02796
G1 X148.929 Y74.917 E.02794
G1 X148.525 Y74.619 E.0279
G1 X148.212 Y74.227 E.02786
G1 X148.013 Y73.768 E.02782
G1 X147.941 Y73.273 E.02781
G1 X148.001 Y72.776 E.02781
G1 X148.19 Y72.312 E.02784
G1 X148.48 Y71.931 E.02656
M204 S1000
G1 X148.419 Y71.504 F10800
;WIPE_START
G1 F8640
G1 X148.891 Y71.605 E-.12127
G1 X149.355 Y71.41 E-.11614
G1 X149.838 Y71.346 E-.11253
G1 X150.348 Y71.398 E-.11834
G1 X150.82 Y71.584 E-.11724
G1 X151.224 Y71.882 E-.11593
G1 X151.382 Y72.08 E-.05855
;WIPE_END
G1 E-.04 F2100
G1 Z.8 F720
G1 X131.713 Y75.274 F10800
G1 Z.4 F720
G1 E.8 F2100
M204 S800
;TYPE:Perimeter
G1 F1200
G1 X131.562 Y75.214 E.00902
G1 X131.4 Y75.009 E.01453
G1 X131.36 Y74.812 E.01113
G1 X131.36 Y71.688 E.1736
G1 X131.43 Y71.434 E.01467
G1 X131.617 Y71.251 E.01454
G1 X131.879 Y71.188 E.01496
G1 X132.67 Y71.44 E.04615
G1 X133.638 Y72.032 E.06306
G1 X133.987 Y72.413 E.02872
G1 X134.228 Y72.89 E.02966
G1 X134.288 Y73.317 E.02398
G1 X134.196 Y73.687 E.02121
G1 X133.956 Y74.133 E.02816
G1 X133.667 Y74.45 E.0238
G1 X132.768 Y75.015 E.05903
G1 X132.107 Y75.258 E.0391
G1 X131.808 Y75.311 E.0169
G1 X131.769 Y75.296 E.00231
M204 S1000
G1 X131.811 Y74.972 F10800
M204 S800
;TYPE:External perimeter
G1 F1200
G1 X131.703 Y74.864 E.00845
G1 X131.695 Y71.688 E.17648
G1 X131.758 Y71.557 E.00811
G1 X131.901 Y71.526 E.00811
G1 X132.593 Y71.772 E.04083
G1 X133.46 Y72.315 E.05687
G1 X133.706 Y72.595 E.02065
G1 X133.916 Y73.013 E.02605
G1 X133.956 Y73.273 E.01458
G1 X133.863 Y73.603 E.0191
G1 X133.684 Y73.938 E.02112
G1 X133.47 Y74.179 E.0179
G1 X132.595 Y74.729 E.05743
G1 X131.997 Y74.942 E.0353
G1 X131.87 Y74.962 E.00713
M204 S1000
