; generated by PrusaSlicer 2.5.2+win64 on 2023-09-13 at 03:16:41 UTC


;
;
; 

; external perimeters extrusion width = 0.60mm
; perimeters extrusion width = 0.50mm
; infill extrusion width = 0.50mm
; solid infill extrusion width = 0.50mm
; top infill extrusion width = 0.45mm
; first layer extrusion width = 0.42mm

M73 P0 R208
M73 Q0 S209
M201 X1000 Y1000 Z200 E5000 ; sets maximum accelerations, mm/sec^2
M203 X200 Y200 Z12 E120 ; sets maximum feedrates, mm / sec
M204 P1250 R1250 T1250 ; sets acceleration (P, T) and retract acceleration (R), mm/sec^2
M205 X8.00 Y8.00 Z0.40 E4.50 ; sets the jerk limits, mm/sec
M205 S0 T0 ; sets the minimum extruding and travel feed rate, mm/sec
M107
;TYPE:Custom
M862.3 P "MK3" ; printer model check
M862.1 P0.4 ; nozzle diameter check
M115 U3.12.2 ; tell printer latest fw version
G90 ; use absolute coordinates
M83 ; extruder relative mode
M104 S215 ; set extruder temp
M140 S60 ; set bed temp
M190 S60 ; wait for bed temp
M109 S215 ; wait for extruder temp
G28 W ; home all without mesh bed level
G80 ; mesh bed leveling

G1 Z0.2 F720
G1 Y-3 F1000 ; go outside print area
G92 E0
G1 X60 E9 F1000 ; intro line
G1 X100 E12.5 F1000 ; intro line

G92 E0
M221 S95

; Don't change E values below. Excessive value can damage the printer.

M907 E538 ; set extruder motor current
G21 ; set units to millimeters
G90 ; use absolute coordinates
M83 ; use relative distances for extrusion
M900 K0.05 ; Filament gcode LA 1.5
M900 K30 ; Filament gcode LA 1.0
M107
;LAYER_CHANGE
;Z:0.4
;HEIGHT:0.4
;BEFORE_LAYER_CHANGE
G92 E0.0
;0.4


G1 E-.8 F2100
G1 Z.4 F720
;AFTER_LAYER_CHANGE
;0.4
G1 Z.8
G1 X92.089 Y30.623 F10800
G1 Z.4 F720
G1 E.8 F2100
M204 S800
;TYPE:Skirt/Brim
;WIDTH:0.42
G1 F1200
G1 X92.772 Y28.973 E.09928
G1 X95.76 Y25.985 E.23479
G1 X97.41 Y25.302 E.09928
G1 X172.449 Y25.302 E4.16994
G1 X174.099 Y25.985 E.09928
G1 X177.087 Y28.973 E.23479
G1 X177.77 Y30.623 E.09928
G1 X177.77 Y154.448 E6.88107
G1 X177.087 Y156.099 E.09928
G1 X174.099 Y159.086 E.23479
G1 X172.449 Y159.77 E.09928
G1 X97.41 Y159.77 E4.16994
G1 X95.76 Y159.086 E.09928
G1 X92.772 Y156.099 E.23479
G1 X92.089 Y154.448 E.09928
G1 X92.089 Y30.683 E6.87773
M204 S1000
;WIPE_START
G1 F8640
G1 X92.772 Y28.973 E-.42534
G1 X93.797 Y27.948 E-.33466
;WIPE_END
G1 E-.04 F2100
G1 Z.8 F720
G1 X95.134 Y31.41 F10800
G1 Z.4 F720
G1 E.8 F2100
M204 S800
G1 F1200
G1 X95.21 Y31.089 E.01837
G1 X95.527 Y30.393 E.0425
G1 X96.963 Y28.875 E.1161
G1 X97.888 Y28.418 E.05735
G1 X99.128 Y28.125 E.07084
G1 X170.702 Y28.128 E3.97741
G1 X171.67 Y28.309 E.05477
G1 X172.61 Y28.704 E.05663
G1 X173.691 Y29.56 E.07666
G1 X174.545 Y30.827 E.08488
G1 X174.947 Y32.336 E.0868
G1 X174.947 Y152.733 E6.69054
G1 X174.649 Y153.983 E.07141
G1 X174.333 Y154.679 E.0425
G1 X172.897 Y156.196 E.11609
G1 X171.972 Y156.654 E.05735
G1 X170.731 Y156.947 E.07083
G1 X99.126 Y156.947 E3.97917
G1 X97.876 Y156.648 E.07141
M73 Q0 S208
G1 X97.18 Y156.332 E.0425
G1 X95.662 Y154.896 E.11609
G1 X95.205 Y153.971 E.05735
G1 X94.912 Y152.731 E.07083
G1 X94.912 Y32.339 E6.69029
G1 X95.12 Y31.469 E.04971
M204 S1000
M73 P0 R207
G1 X95.443 Y31.547 F10800
M204 S800
G1 F1200
G1 X95.531 Y31.184 E.02078
G1 X95.819 Y30.557 E.03832
G1 X97.139 Y29.161 E.10677
G1 X97.985 Y28.738 E.05256
G1 X99.148 Y28.459 E.06649
G1 X170.686 Y28.462 E3.97542
G1 X171.59 Y28.634 E.05114
G1 X172.458 Y29.003 E.05239
G1 X173.462 Y29.805 E.07144
G1 X174.252 Y30.989 E.07908
G1 X174.613 Y32.358 E.07868
G1 X174.613 Y152.713 E6.68822
G1 X174.328 Y153.888 E.0672
G1 X174.04 Y154.514 E.03832
G1 X172.721 Y155.911 E.10677
G1 X171.875 Y156.334 E.05256
G1 X170.711 Y156.613 E.06648
G1 X99.146 Y156.613 E3.97693
G1 X97.971 Y156.328 E.0672
G1 X97.344 Y156.04 E.03832
G1 X95.948 Y154.72 E.10677
G1 X95.525 Y153.874 E.05256
G1 X95.246 Y152.711 E.06648
G1 X95.246 Y32.359 E6.68806
G1 X95.429 Y31.606 E.04309
M204 S1000
G1 X95.751 Y31.685 F10800
M204 S800
G1 F1200
G1 X95.851 Y31.28 E.02318
G1 X96.11 Y30.723 E.03417
G1 X97.315 Y29.446 E.09757
G1 X98.083 Y29.058 E.04779
G1 X99.168 Y28.793 E.06208
G1 X170.67 Y28.796 E3.97339
G1 X171.508 Y28.958 E.04748
G1 X172.304 Y29.3 E.04813
G1 X173.232 Y30.049 E.06627
G1 X173.936 Y31.102 E.0704
G1 X174.279 Y32.38 E.07352
G1 X174.279 Y152.692 E6.68584
G1 X174.008 Y153.791 E.06293
G1 X173.749 Y154.349 E.03417
G1 X172.544 Y155.626 E.09757
G1 X171.776 Y156.014 E.04779
G1 X170.691 Y156.279 E.06208
G1 X99.167 Y156.279 E3.97466
G1 X98.067 Y156.007 E.06293
G1 X97.51 Y155.749 E.03417
G1 X96.233 Y154.543 E.09757
G1 X95.845 Y153.776 E.04779
G1 X95.58 Y152.69 E.06208
G1 X95.58 Y32.38 E6.68578
G1 X95.737 Y31.743 E.03641
M204 S1000
G1 X96.059 Y31.824 F10800
M204 S800
G1 F1200
G1 X96.171 Y31.378 E.02558
G1 X96.401 Y30.889 E.03004
G1 X97.493 Y29.73 E.0885
G1 X98.183 Y29.377 E.04304
G1 X99.189 Y29.127 E.05761
G1 X170.653 Y29.13 E3.97131
G1 X171.425 Y29.283 E.04375
G1 X172.149 Y29.597 E.04386
G1 X173.001 Y30.291 E.06105
G1 X173.642 Y31.263 E.0647
G1 X173.945 Y32.402 E.06548
G1 X173.945 Y152.671 E6.68348
G1 X173.688 Y153.694 E.05859
G1 X173.458 Y154.183 E.03004
G1 X172.366 Y155.342 E.0885
G1 X171.676 Y155.694 E.04304
G1 X170.67 Y155.945 E.05761
G1 X99.188 Y155.945 E3.97234
G1 X98.165 Y155.687 E.05859
M73 Q0 S207
G1 X97.676 Y155.458 E.03004
G1 X96.517 Y154.365 E.0885
G1 X96.164 Y153.676 E.04304
G1 X95.914 Y152.67 E.05761
G1 X95.914 Y32.401 E6.68346
G1 X96.044 Y31.883 E.02968
M204 S1000
M73 P0 R206
G1 X96.366 Y31.965 F10800
M204 S800
G1 F1200
G1 X96.491 Y31.478 E.02796
G1 X96.691 Y31.056 E.02593
G1 X97.673 Y30.013 E.07959
G1 X98.285 Y29.696 E.03829
G1 X99.21 Y29.461 E.05307
G1 X170.636 Y29.465 E3.96919
G1 X171.341 Y29.606 E.03997
G1 X171.993 Y29.893 E.03958
G1 X172.768 Y30.532 E.05581
G1 X173.347 Y31.422 E.059
G1 X173.611 Y32.423 E.05752
G1 X173.611 Y152.65 E6.6811
G1 X173.368 Y153.594 E.05418
G1 X173.168 Y154.015 E.02593
G1 X172.186 Y155.059 E.07959
G1 X171.575 Y155.376 E.03829
G1 X170.649 Y155.61 E.05307
G1 X99.209 Y155.61 E3.96997
G1 X98.265 Y155.368 E.05418
G1 X97.843 Y155.167 E.02593
G1 X96.8 Y154.186 E.07959
G1 X96.483 Y153.574 E.03829
G1 X96.248 Y152.649 E.05307
G1 X96.248 Y32.422 E6.6811
G1 X96.351 Y32.023 E.02289
M204 S1000
M73 P1 R206
M73 Q1 S207
G1 X96.671 Y32.107 F10800
M204 S800
G1 F1200
G1 X96.809 Y31.579 E.03034
G1 X96.981 Y31.225 E.02186
G1 X97.853 Y30.296 E.07084
G1 X98.388 Y30.014 E.03357
G1 X99.232 Y29.795 E.04845
G1 X170.62 Y29.799 E3.96707
G1 X171.223 Y29.92 E.03421
G1 X171.836 Y30.189 E.03723
G1 X172.535 Y30.772 E.05054
G1 X173.031 Y31.535 E.05058
G1 X173.277 Y32.445 E.05241
G1 X173.277 Y152.628 E6.67864
G1 X173.05 Y153.493 E.04969
G1 X172.878 Y153.847 E.02186
G1 X172.006 Y154.776 E.07084
G1 X171.471 Y155.057 E.03357
G1 X170.627 Y155.276 E.04845
G1 X99.231 Y155.276 E3.96755
G1 X98.366 Y155.049 E.04969
G1 X98.012 Y154.878 E.02186
G1 X97.083 Y154.005 E.07084
G1 X96.801 Y153.471 E.03357
G1 X96.583 Y152.627 E.04845
G1 X96.583 Y32.444 E6.67867
G1 X96.656 Y32.165 E.01602
M204 S1000
G1 X96.975 Y32.251 F10800
M204 S800
G1 F1200
G1 X97.128 Y31.683 E.0327
G1 X97.269 Y31.395 E.01781
G1 X98.036 Y30.577 E.0623
G1 X98.494 Y30.332 E.02886
G1 X99.254 Y30.13 E.04374
G1 X170.602 Y30.133 E3.96487
G1 X171.137 Y30.243 E.03035
G1 X171.678 Y30.484 E.0329
G1 X172.299 Y31.01 E.04523
G1 X172.736 Y31.692 E.04502
G1 X172.942 Y32.467 E.04455
G1 X172.942 Y152.605 E6.67619
G1 X172.732 Y153.389 E.04511
G1 X172.59 Y153.676 E.01781
G1 X171.824 Y154.495 E.0623
G1 X171.366 Y154.74 E.02886
G1 X170.605 Y154.942 E.04374
G1 X99.254 Y154.942 E3.96506
G1 X98.47 Y154.731 E.04511
M73 Q1 S206
G1 X98.182 Y154.59 E.01781
G1 X97.364 Y153.823 E.0623
G1 X97.119 Y153.365 E.02886
G1 X96.917 Y152.605 E.04374
G1 X96.917 Y32.466 E6.67619
G1 X96.959 Y32.309 E.00907
M204 S1000
M73 P1 R205
G1 X97.277 Y32.397 F10800
M204 S800
G1 F1200
G1 X97.445 Y31.789 E.03504
G1 X97.556 Y31.567 E.01379
G1 X98.22 Y30.857 E.05401
G1 X98.602 Y30.649 E.02418
G1 X99.277 Y30.464 E.03892
G1 X170.584 Y30.467 E3.96259
G1 X171.049 Y30.566 E.02641
G1 X171.517 Y30.778 E.02855
G1 X172.062 Y31.247 E.03998
G1 X172.421 Y31.806 E.03688
G1 X172.608 Y32.49 E.03943
G1 X172.608 Y152.582 E6.67362
G1 X172.414 Y153.283 E.0404
G1 X172.303 Y153.504 E.01379
G1 X171.64 Y154.215 E.05401
G1 X171.258 Y154.423 E.02418
G1 X170.582 Y154.608 E.03892
G1 X99.277 Y154.608 E3.9625
G1 X98.576 Y154.414 E.0404
G1 X98.354 Y154.302 E.01379
G1 X97.644 Y153.639 E.05401
G1 X97.436 Y153.257 E.02418
G1 X97.251 Y152.582 E.03892
G1 X97.261 Y32.454 E6.67557
M204 S1000
G1 X97.585 Y32.514 F10800
M204 S800
G1 F1200
G1 X97.761 Y31.898 E.03556
G1 X97.842 Y31.742 E.00979
G1 X98.406 Y31.135 E.04602
G1 X98.713 Y30.964 E.01952
G1 X99.301 Y30.798 E.03397
G1 X170.565 Y30.801 E3.96022
G1 X170.958 Y30.888 E.02236
G1 X171.354 Y31.071 E.02421
G1 X171.824 Y31.483 E.03475
G1 X172.106 Y31.921 E.02898
G1 X172.274 Y32.514 E.03422
G1 X172.274 Y152.558 E6.67096
G1 X172.098 Y153.173 E.03556
G1 X172.017 Y153.33 E.00979
G1 X171.453 Y153.936 E.04602
G1 X171.146 Y154.107 E.01952
G1 X170.558 Y154.274 E.03397
G1 X99.301 Y154.274 E3.95984
G1 X98.685 Y154.098 E.03556
G1 X98.529 Y154.017 E.00979
G1 X97.922 Y153.453 E.04602
G1 X97.751 Y153.146 E.01952
G1 X97.585 Y152.558 E.03397
G1 X97.585 Y32.574 E6.66763
M204 S1000
G1 X97.919 Y32.574 F10800
M204 S800
G1 F1200
G1 X98.075 Y32.012 E.03239
G1 X98.125 Y31.92 E.00582
G1 X98.595 Y31.412 E.03845
G1 X98.827 Y31.279 E.01489
G1 X99.326 Y31.132 E.02887
G1 X170.546 Y31.135 E3.95775
G1 X170.864 Y31.209 E.01817
G1 X171.188 Y31.362 E.01989
G1 X171.584 Y31.716 E.02956
G1 X171.793 Y32.039 E.02138
G1 X171.94 Y32.539 E.02892
G1 X171.94 Y152.533 E6.66819
G1 X171.784 Y153.06 E.03052
G1 X171.734 Y153.152 E.00582
G1 X171.264 Y153.66 E.03845
G1 X171.032 Y153.793 E.01489
G1 X170.533 Y153.94 E.02887
G1 X99.326 Y153.94 E3.95707
G1 X98.799 Y153.783 E.03052
M73 Q1 S205
G1 X98.707 Y153.734 E.00582
G1 X98.199 Y153.264 E.03845
G1 X98.066 Y153.031 E.01489
G1 X97.919 Y152.533 E.02887
G1 X97.919 Y32.634 E6.66292
M204 S1000
G1 X98.253 Y32.634 F10800
M204 S800
M73 P1 R204
G1 F1200
G1 X98.253 Y32.565 E.00382
G1 X98.388 Y32.132 E.02518
G1 X98.787 Y31.686 E.0333
G1 X98.947 Y31.591 E.0103
G1 X99.352 Y31.466 E.02356
G1 X170.526 Y31.469 E3.95522
G1 X170.737 Y31.519 E.01205
G1 X171.021 Y31.653 E.01745
G1 X171.343 Y31.947 E.02422
G1 X171.481 Y32.161 E.01417
G1 X171.606 Y32.565 E.02348
G1 X171.606 Y152.507 E6.66528
G1 X171.455 Y152.967 E.02692
G1 X171.072 Y153.386 E.03156
G1 X170.912 Y153.48 E.0103
G1 X170.507 Y153.605 E.02356
G1 X99.352 Y153.605 E3.95416
G1 X98.892 Y153.455 E.02692
G1 X98.473 Y153.071 E.03156
G1 X98.378 Y152.912 E.0103
G1 X98.253 Y152.507 E.02356
G1 X98.253 Y32.694 E6.65813
M204 S1000
G1 X98.588 Y32.694 F10800
M204 S800
G1 F1200
G1 X98.588 Y32.593 E.00559
G1 X98.688 Y32.288 E.01787
G1 X98.986 Y31.955 E.02479
G1 X99.073 Y31.901 E.0057
G1 X99.38 Y31.8 E.01796
G1 X170.507 Y31.804 E3.95257
G1 X170.61 Y31.828 E.00592
M73 P2 R204
M73 Q2 S205
G1 X170.853 Y31.943 E.01492
G1 X171.098 Y32.175 E.01875
G1 X171.171 Y32.288 E.00748
G1 X171.272 Y32.593 E.01785
G1 X171.272 Y152.479 E6.66216
G1 X171.171 Y152.784 E.01787
G1 X170.873 Y153.116 E.02479
G1 X170.786 Y153.17 E.00571
G1 X170.479 Y153.271 E.01796
G1 X99.38 Y153.271 E3.95103
G1 X99.075 Y153.171 E.01787
G1 X98.742 Y152.873 E.02479
G1 X98.688 Y152.786 E.00571
G1 X98.588 Y152.479 E.01796
G1 X98.588 Y32.754 E6.65323
M204 S1000
G1 X98.922 Y32.754 F10800
M204 S800
G1 F1200
G1 X98.922 Y32.624 E.0072
G1 X98.989 Y32.435 E.01113
G1 X99.188 Y32.221 E.01626
G1 X99.411 Y32.135 E.01328
G1 X170.461 Y32.135 E3.94828
G1 X170.682 Y32.232 E.01345
G1 X170.865 Y32.423 E.01469
G1 X170.937 Y32.624 E.01189
G1 X170.937 Y152.448 E6.6587
G1 X170.87 Y152.636 E.01113
G1 X170.649 Y152.865 E.01765
G1 X170.448 Y152.937 E.01189
G1 X99.411 Y152.937 E3.94758
G1 X99.223 Y152.87 E.01113
G1 X98.994 Y152.649 E.01765
G1 X98.922 Y152.448 E.01189
G1 X98.922 Y32.814 E6.64817
M204 S1000
G1 X99.256 Y32.814 F10800
M204 S800
M73 Q2 S204
G1 F1200
G1 X99.256 Y32.661 E.00847
G1 X99.281 Y32.6 E.00369
G1 X99.387 Y32.494 E.0083
G1 X99.448 Y32.469 E.00369
G1 X170.411 Y32.469 E3.94346
G1 X170.472 Y32.494 E.00369
M73 P2 R203
G1 X170.578 Y32.6 E.0083
G1 X170.603 Y32.661 E.00369
G1 X170.603 Y152.41 E6.65458
G1 X170.578 Y152.472 E.00369
G1 X170.472 Y152.577 E.0083
G1 X170.411 Y152.603 E.00369
G1 X99.448 Y152.603 E3.94346
G1 X99.387 Y152.577 E.00369
G1 X99.281 Y152.472 E.0083
G1 X99.256 Y152.41 E.00369
G1 X99.256 Y32.874 E6.64277
M204 S1000
; printing object Body12 id:0 copy 0
;WIPE_START
G1 F8640
G1 X99.256 Y32.661 E-.04905
G1 X99.281 Y32.6 E-.01535
G1 X99.387 Y32.494 E-.03448
G1 X99.448 Y32.469 E-.01535
G1 X102.245 Y32.469 E-.64578
;WIPE_END
G1 E-.04 F2100
G1 Z.8 F720
G1 X169.792 Y151.792 F10800
G1 Z.4 F720
G1 E.8 F2100
M204 S800
;TYPE:Perimeter
;WIDTH:0.42
G1 F1200
G1 X100.067 Y151.792 E3.87468
G1 X100.067 Y33.28 E6.5858
G1 X169.792 Y33.28 E3.87468
G1 X169.792 Y151.732 E6.58246
M204 S1000
G1 X170.126 Y152.126 F10800
M204 S800
;TYPE:External perimeter
G1 F1200
G1 X99.733 Y152.126 E3.91182
G1 X99.733 Y32.946 E6.62294
G1 X170.126 Y32.946 E3.91182
G1 X170.126 Y152.066 E6.6196
M204 S1000
G1 X169.75 Y151.99 F10800
;WIPE_START
M73 Q2 S203
G1 F8640
G1 X166.835 Y152.069 E-.76
;WIPE_END
G1 E-.04 F2100
G1 Z.8 F720
G1 X160.656 Y51.047 F10800
G1 Z.4 F720
G1 E.8 F2100
M204 S800
;TYPE:Perimeter
G1 F1200
G1 X160.65 Y50.951 E.00532
G1 X160.727 Y50.438 E.02882
G1 X160.934 Y49.936 E.0302
G1 X161.271 Y49.48 E.03153
G1 X161.762 Y49.096 E.03463
G1 X162.291 Y48.869 E.03194
G1 X162.806 Y48.787 E.029
G1 X163.463 Y48.852 E.03665
G1 X164.008 Y49.061 E.03246
G1 X164.467 Y49.391 E.03141
G1 X164.829 Y49.825 E.03139
G1 X165.071 Y50.339 E.03159
G1 X165.179 Y50.951 E.03451
G1 X165.107 Y51.583 E.03538
G1 X164.894 Y52.115 E.03181
G1 X164.558 Y52.569 E.03143
G1 X164.066 Y52.953 E.03469
G1 X163.538 Y53.179 E.0319
G1 X162.977 Y53.266 E.03152
G1 X162.412 Y53.21 E.03155
G1 X161.875 Y53.015 E.03176
G1 X161.369 Y52.663 E.03427
G1 X160.999 Y52.223 E.03194
G1 X160.757 Y51.706 E.03171
G1 X160.659 Y51.107 E.03375
M204 S1000
G1 X160.981 Y51.049 F10800
M204 S800
;TYPE:External perimeter
G1 F1200
G1 X161.052 Y50.518 E.02977
G1 X161.25 Y50.051 E.02821
G1 X161.567 Y49.655 E.02818
G1 X161.972 Y49.357 E.02794
G1 X162.44 Y49.172 E.02795
G1 X162.891 Y49.119 E.02525
G1 X163.422 Y49.184 E.02972
G1 X163.915 Y49.39 E.02969
G1 X164.295 Y49.686 E.0268
G1 X164.588 Y50.068 E.02671
G1 X164.776 Y50.515 E.02697
G1 X164.85 Y51.024 E.02861
G1 X164.776 Y51.534 E.02861
G1 X164.566 Y52.018 E.02931
G1 X164.262 Y52.394 E.02688
G1 X163.83 Y52.705 E.02958
G1 X163.375 Y52.879 E.02709
G1 X162.894 Y52.934 E.02692
G1 X162.454 Y52.879 E.02462
G1 X161.977 Y52.694 E.02841
G1 X161.567 Y52.394 E.02828
G1 X161.253 Y52.004 E.02782
G1 X161.052 Y51.535 E.02834
G1 X160.99 Y51.108 E.02395
M204 S1000
G1 X160.634 Y50.851 F10800
;WIPE_START
G1 F8640
G1 X161.052 Y50.518 E-.13707
G1 X161.25 Y50.051 E-.1172
G1 X161.567 Y49.655 E-.11709
G1 X161.972 Y49.357 E-.11608
G1 X162.44 Y49.172 E-.11615
G1 X162.891 Y49.119 E-.1049
G1 X163.112 Y49.146 E-.0515
;WIPE_END
G1 E-.04 F2100
G1 Z.8 F720
G1 X146.464 Y60.81 F10800
G1 Z.4 F720
G1 E.8 F2100
M204 S800
;TYPE:Perimeter
G1 F1200
G1 X147.046 Y61.136 E.03706
G1 X147.663 Y61.67 E.04534
M73 P2 R202
G1 X148.05 Y62.162 E.0348
G1 X148.388 Y62.799 E.04008
G1 X148.6 Y63.489 E.04007
G1 X148.678 Y64.206 E.04008
G1 X148.618 Y64.924 E.04008
G1 X148.424 Y65.619 E.04007
G1 X148.101 Y66.264 E.04008
G1 X147.663 Y66.836 E.04008
G1 X147.124 Y67.315 E.04007
G1 X146.504 Y67.684 E.04008
G1 X145.825 Y67.928 E.04008
G1 X145.113 Y68.04 E.04008
G1 X144.392 Y68.014 E.04008
G1 X143.689 Y67.853 E.04007
G1 X143.029 Y67.562 E.04008
G1 X142.437 Y67.151 E.04007
G1 X141.933 Y66.635 E.04007
G1 X141.535 Y66.034 E.04008
G1 X141.259 Y65.367 E.04007
G1 X141.113 Y64.661 E.04007
G1 X141.104 Y63.94 E.04008
G1 X141.232 Y63.23 E.04008
G1 X141.491 Y62.557 E.04007
G1 X141.874 Y61.946 E.04008
G1 X142.365 Y61.418 E.04008
G1 X142.81 Y61.09 E.03073
G1 X143.058 Y60.932 E.01635
G1 X143.599 Y60.684 E.03306
G1 X144.298 Y60.506 E.04008
G1 X144.983 Y60.464 E.03815
G1 X145.727 Y60.555 E.04168
G1 X146.411 Y60.781 E.04004
M204 S1000
G1 X146.293 Y61.094 F10800
M204 S800
