; generated by PrusaSlicer 2.5.2+win64 on 2023-09-13 at 03:18:38 UTC


;
;
; 

; external perimeters extrusion width = 0.60mm
; perimeters extrusion width = 0.50mm
; infill extrusion width = 0.50mm
; solid infill extrusion width = 0.50mm
; top infill extrusion width = 0.45mm
; first layer extrusion width = 0.42mm

M73 P0 R67
M73 Q0 S68
M201 X1000 Y1000 Z200 E5000 ; sets maximum accelerations, mm/sec^2
M203 X200 Y200 Z12 E120 ; sets maximum feedrates, mm / sec
M204 P1250 R1250 T1250 ; sets acceleration (P, T) and retract acceleration (R), mm/sec^2
M205 X8.00 Y8.00 Z0.40 E4.50 ; sets the jerk limits, mm/sec
M205 S0 T0 ; sets the minimum extruding and travel feed rate, mm/sec
M107
;TYPE:Custom
M862.3 P "MK3" ; printer model check
M862.1 P0.4 ; nozzle diameter check
M115 U3.12.2 ; tell printer latest fw version
G90 ; use absolute coordinates
M83 ; extruder relative mode
M104 S215 ; set extruder temp
M140 S60 ; set bed temp
M190 S60 ; wait for bed temp
M109 S215 ; wait for extruder temp
G28 W ; home all without mesh bed level
G80 ; mesh bed leveling

G1 Z0.2 F720
G1 Y-3 F1000 ; go outside print area
G92 E0
G1 X60 E9 F1000 ; intro line
G1 X100 E12.5 F1000 ; intro line

G92 E0
M221 S95

; Don't change E values below. Excessive value can damage the printer.

M907 E538 ; set extruder motor current
G21 ; set units to millimeters
G90 ; use absolute coordinates
M83 ; use relative distances for extrusion
M900 K0.05 ; Filament gcode LA 1.5
M900 K30 ; Filament gcode LA 1.0
M107
;LAYER_CHANGE
;Z:0.4
;HEIGHT:0.4
;BEFORE_LAYER_CHANGE
G92 E0.0
;0.4


G1 E-.8 F2100
G1 Z.4 F720
;AFTER_LAYER_CHANGE
;0.4
G1 Z.8
G1 X82.999 Y34.379 F10800
G1 Z.4 F720
G1 E.8 F2100
M204 S800
;TYPE:Skirt/Brim
;WIDTH:0.42
G1 F1200
G1 X83.115 Y34.099 E.01682
G1 X86.102 Y31.112 E.23479
G1 X87.753 Y30.428 E.09928
G1 X162.65 Y30.428 E4.1621
G1 X164.3 Y31.112 E.09928
G1 X167.288 Y34.099 E.23479
G1 X167.971 Y35.75 E.09928
G1 X167.971 Y159.575 E6.88107
G1 X167.288 Y161.225 E.09928
M73 Q0 S67
G1 X164.3 Y164.213 E.23479
G1 X162.65 Y164.897 E.09928
G1 X87.753 Y164.897 E4.1621
G1 X86.102 Y164.213 E.09928
G1 X83.115 Y161.225 E.23479
G1 X82.431 Y159.575 E.09928
G1 X82.431 Y35.75 E6.88107
G1 X82.976 Y34.435 E.07912
M204 S1000
;WIPE_START
G1 F8640
G1 X83.115 Y34.099 E-.08376
G1 X85.185 Y32.029 E-.67624
;WIPE_END
G1 E-.04 F2100
G1 Z.8 F720
G1 X85.782 Y35.71 F10800
G1 Z.4 F720
G1 E.8 F2100
M204 S800
G1 F1200
G1 X85.869 Y35.519 E.01162
G1 X87.305 Y34.002 E.1161
G1 X88.23 Y33.544 E.05735
G1 X89.47 Y33.251 E.07084
G1 X160.903 Y33.254 E3.96958
G1 X161.871 Y33.436 E.05477
G1 X162.811 Y33.831 E.05663
G1 X163.892 Y34.687 E.07666
G1 X164.746 Y35.954 E.08488
G1 X165.148 Y37.463 E.0868
G1 X165.148 Y157.859 E6.69054
G1 X164.85 Y159.109 E.07141
G1 X164.534 Y159.806 E.0425
G1 X163.098 Y161.323 E.11609
G1 X162.173 Y161.781 E.05735
G1 X160.932 Y162.074 E.07083
G1 X89.468 Y162.074 E3.97133
G1 X88.218 Y161.775 E.07141
M73 P1 R67
M73 Q1 S67
G1 X87.522 Y161.459 E.0425
G1 X86.005 Y160.023 E.11609
G1 X85.547 Y159.098 E.05735
G1 X85.254 Y157.857 E.07083
G1 X85.254 Y37.465 E6.69029
G1 X85.552 Y36.216 E.07141
G1 X85.757 Y35.764 E.02754
M204 S1000
G1 X86.06 Y35.903 F10800
M204 S800
G1 F1200
G1 X86.161 Y35.684 E.01342
G1 X87.481 Y34.287 E.10677
G1 X88.327 Y33.865 E.05257
G1 X89.49 Y33.585 E.06649
G1 X160.887 Y33.589 E3.96758
G1 X161.791 Y33.76 E.05114
G1 X162.659 Y34.129 E.05239
G1 X163.663 Y34.931 E.07144
G1 X164.453 Y36.115 E.07908
G1 X164.814 Y37.484 E.07868
G1 X164.814 Y157.839 E6.68822
G1 X164.529 Y159.014 E.0672
M73 P1 R66
G1 X164.241 Y159.641 E.03832
G1 X162.922 Y161.037 E.10677
G1 X162.076 Y161.46 E.05256
G1 X160.912 Y161.739 E.06648
G1 X89.488 Y161.739 E3.96909
G1 X88.313 Y161.454 E.0672
G1 X87.686 Y161.167 E.03832
G1 X86.29 Y159.847 E.10677
G1 X85.867 Y159.001 E.05256
G1 X85.588 Y157.837 E.06648
G1 X85.588 Y37.486 E6.68805
G1 X85.873 Y36.311 E.0672
G1 X86.035 Y35.958 E.02157
M204 S1000
G1 X86.337 Y36.098 F10800
M204 S800
G1 F1200
G1 X86.452 Y35.849 E.01524
G1 X87.657 Y34.572 E.09757
G1 X88.425 Y34.184 E.04779
G1 X89.51 Y33.92 E.06208
G1 X160.871 Y33.923 E3.96555
G1 X161.709 Y34.085 E.04748
M73 Q1 S66
G1 X162.505 Y34.427 E.04813
G1 X163.434 Y35.175 E.06627
G1 X164.137 Y36.229 E.0704
G1 X164.48 Y37.507 E.07352
G1 X164.48 Y157.819 E6.68584
G1 X164.209 Y158.918 E.06293
G1 X163.95 Y159.476 E.03417
G1 X162.745 Y160.753 E.09757
G1 X161.977 Y161.14 E.04779
G1 X160.892 Y161.405 E.06208
G1 X89.509 Y161.405 E3.96682
G1 X88.409 Y161.134 E.06293
M73 P2 R66
M73 Q2 S66
G1 X87.852 Y160.875 E.03417
G1 X86.575 Y159.67 E.09757
G1 X86.187 Y158.902 E.04779
G1 X85.922 Y157.817 E.06208
G1 X85.922 Y37.506 E6.68578
G1 X86.193 Y36.407 E.06293
G1 X86.312 Y36.152 E.01559
M204 S1000
G1 X86.612 Y36.294 F10800
M204 S800
G1 F1200
G1 X86.743 Y36.015 E.01708
G1 X87.836 Y34.856 E.0885
G1 X88.525 Y34.504 E.04304
G1 X89.531 Y34.254 E.05762
G1 X160.854 Y34.257 E3.96347
G1 X161.626 Y34.409 E.04375
G1 X162.35 Y34.724 E.04386
G1 X163.202 Y35.418 E.06105
G1 X163.843 Y36.39 E.0647
G1 X164.146 Y37.528 E.06548
G1 X164.146 Y157.798 E6.68348
G1 X163.889 Y158.82 E.05859
G1 X163.659 Y159.309 E.03004
G1 X162.567 Y160.468 E.0885
G1 X161.877 Y160.821 E.04304
G1 X160.871 Y161.071 E.05761
G1 X89.53 Y161.071 E3.9645
G1 X88.507 Y160.814 E.05859
G1 X88.018 Y160.584 E.03004
G1 X86.859 Y159.492 E.0885
G1 X86.506 Y158.802 E.04304
G1 X86.256 Y157.796 E.05761
G1 X86.256 Y37.527 E6.68346
G1 X86.513 Y36.505 E.05859
G1 X86.587 Y36.348 E.00962
M204 S1000
G1 X86.887 Y36.491 F10800
M204 S800
G1 F1200
G1 X87.033 Y36.183 E.01896
G1 X88.015 Y35.14 E.07959
G1 X88.627 Y34.823 E.03829
G1 X89.552 Y34.588 E.05308
G1 X160.837 Y34.591 E3.96135
G1 X161.542 Y34.733 E.03997
G1 X162.194 Y35.02 E.03958
G1 X162.969 Y35.659 E.05581
G1 X163.548 Y36.549 E.059
G1 X163.812 Y37.55 E.05752
G1 X163.812 Y157.776 E6.6811
G1 X163.569 Y158.721 E.05418
M73 P2 R65
G1 X163.369 Y159.142 E.02593
G1 X162.387 Y160.185 E.07959
G1 X161.776 Y160.502 E.03829
G1 X160.85 Y160.737 E.05307
G1 X89.551 Y160.737 E3.96213
G1 X88.607 Y160.495 E.05418
M73 P3 R65
M73 Q3 S66
G1 X88.185 Y160.294 E.02593
G1 X87.142 Y159.313 E.07959
G1 X86.825 Y158.701 E.03829
G1 X86.59 Y157.775 E.05307
G1 X86.59 Y37.549 E6.6811
G1 X86.861 Y36.545 E.05776
M204 S1000
G1 X87.159 Y36.689 F10800
M204 S800
G1 F1200
G1 X87.323 Y36.352 E.02086
G1 X88.195 Y35.422 E.07084
G1 X88.73 Y35.141 E.03357
G1 X89.574 Y34.922 E.04846
G1 X160.821 Y34.925 E3.95924
G1 X161.424 Y35.046 E.03421
M73 Q3 S65
G1 X162.037 Y35.316 E.03723
G1 X162.736 Y35.899 E.05054
G1 X163.232 Y36.661 E.05058
G1 X163.478 Y37.572 E.05241
G1 X163.478 Y157.754 E6.67864
G1 X163.251 Y158.619 E.04969
G1 X163.079 Y158.973 E.02186
G1 X162.207 Y159.903 E.07084
G1 X161.672 Y160.184 E.03357
G1 X160.828 Y160.403 E.04845
G1 X89.573 Y160.403 E3.95971
G1 X88.708 Y160.176 E.04969
G1 X88.354 Y160.005 E.02186
G1 X87.425 Y159.132 E.07084
G1 X87.144 Y158.597 E.03357
G1 X86.925 Y157.753 E.04845
G1 X86.925 Y37.571 E6.67867
G1 X87.141 Y36.746 E.04736
M204 S1000
G1 X87.463 Y36.833 F10800
M204 S800
G1 F1200
G1 X87.611 Y36.522 E.01915
G1 X88.378 Y35.703 E.0623
G1 X88.836 Y35.459 E.02886
G1 X89.596 Y35.256 E.04374
G1 X160.803 Y35.259 E3.95703
G1 X161.338 Y35.37 E.03035
G1 X161.879 Y35.611 E.0329
G1 X162.5 Y36.137 E.04523
G1 X162.937 Y36.819 E.04502
G1 X163.143 Y37.594 E.04455
G1 X163.143 Y157.732 E6.67619
G1 X162.933 Y158.516 E.04511
G1 X162.791 Y158.803 E.01781
G1 X162.025 Y159.621 E.0623
G1 X161.567 Y159.866 E.02886
G1 X160.806 Y160.069 E.04374
G1 X89.596 Y160.069 E3.95722
G1 X88.812 Y159.858 E.04511
M73 P4 R65
M73 Q4 S65
G1 X88.524 Y159.716 E.01781
G1 X87.706 Y158.95 E.0623
G1 X87.461 Y158.492 E.02886
G1 X87.259 Y157.731 E.04374
G1 X87.259 Y37.593 E6.67619
G1 X87.448 Y36.891 E.04041
M204 S1000
G1 X87.769 Y36.98 F10800
M204 S800
G1 F1200
G1 X87.898 Y36.694 E.01744
G1 X88.562 Y35.983 E.05401
G1 X88.944 Y35.775 E.02418
G1 X89.619 Y35.59 E.03892
G1 X160.785 Y35.594 E3.95475
G1 X161.25 Y35.692 E.02641
G1 X161.718 Y35.905 E.02855
G1 X162.263 Y36.374 E.03998
G1 X162.622 Y36.932 E.03688
G1 X162.809 Y37.617 E.03943
G1 X162.809 Y157.709 E6.67362
G1 X162.615 Y158.409 E.0404
M73 P4 R64
G1 X162.504 Y158.631 E.01379
G1 X161.841 Y159.341 E.05401
G1 X161.459 Y159.55 E.02418
G1 X160.783 Y159.734 E.03892
G1 X89.619 Y159.734 E3.95466
G1 X88.918 Y159.541 E.0404
G1 X88.697 Y159.429 E.01379
G1 X87.986 Y158.766 E.05401
G1 X87.778 Y158.384 E.02418
G1 X87.593 Y157.708 E.03892
G1 X87.593 Y37.616 E6.67362
G1 X87.753 Y37.038 E.03336
M204 S1000
G1 X88.073 Y37.129 F10800
M204 S800
G1 F1200
G1 X88.103 Y37.025 E.00602
G1 X88.184 Y36.868 E.00979
G1 X88.748 Y36.262 E.04602
G1 X89.055 Y36.091 E.01952
G1 X89.643 Y35.925 E.03397
G1 X160.766 Y35.928 E3.95239
G1 X161.159 Y36.014 E.02236
M73 Q4 S64
G1 X161.555 Y36.197 E.02421
G1 X162.025 Y36.609 E.03475
G1 X162.307 Y37.048 E.02898
G1 X162.475 Y37.64 E.03422
G1 X162.475 Y157.685 E6.67096
G1 X162.299 Y158.3 E.03556
G1 X162.218 Y158.456 E.00979
G1 X161.654 Y159.063 E.04602
G1 X161.347 Y159.234 E.01952
G1 X160.759 Y159.4 E.03397
G1 X89.643 Y159.4 E3.952
G1 X89.027 Y159.225 E.03556
G1 X88.871 Y159.143 E.00979
G1 X88.264 Y158.58 E.04602
G1 X88.094 Y158.273 E.01952
G1 X87.927 Y157.684 E.03397
G1 X87.927 Y37.64 E6.67097
G1 X88.057 Y37.187 E.02621
M204 S1000
M73 P5 R64
M73 Q5 S64
G1 X88.375 Y37.281 F10800
M204 S800
G1 F1200
G1 X88.418 Y37.139 E.00826
G1 X88.467 Y37.047 E.00582
G1 X88.937 Y36.538 E.03845
G1 X89.17 Y36.405 E.01489
G1 X89.668 Y36.259 E.02887
G1 X160.747 Y36.262 E3.94991
G1 X161.065 Y36.335 E.01817
G1 X161.389 Y36.488 E.01989
G1 X161.785 Y36.843 E.02956
G1 X161.994 Y37.166 E.02138
G1 X162.141 Y37.665 E.02892
G1 X162.141 Y157.66 E6.66819
G1 X161.985 Y158.186 E.03052
G1 X161.935 Y158.278 E.00582
G1 X161.465 Y158.786 E.03845
G1 X161.233 Y158.92 E.01489
G1 X160.734 Y159.066 E.02887
G1 X89.668 Y159.066 E3.94923
G1 X89.141 Y158.91 E.03052
G1 X89.049 Y158.86 E.00582
G1 X88.541 Y158.391 E.03845
G1 X88.408 Y158.158 E.01489
G1 X88.261 Y157.66 E.02887
G1 X88.261 Y37.665 E6.6682
G1 X88.358 Y37.339 E.01892
M204 S1000
G1 X88.675 Y37.437 F10800
M204 S800
G1 F1200
G1 X88.746 Y37.231 E.01212
G1 X89.129 Y36.812 E.03156
G1 X89.289 Y36.718 E.0103
G1 X89.694 Y36.593 E.02356
G1 X160.727 Y36.596 E3.94738
G1 X160.938 Y36.645 E.01205
G1 X161.222 Y36.779 E.01745
G1 X161.544 Y37.074 E.02422
G1 X161.682 Y37.288 E.01417
G1 X161.807 Y37.691 E.02348
G1 X161.807 Y157.633 E6.66528
G1 X161.656 Y158.094 E.02692
M73 P5 R63
G1 X161.273 Y158.513 E.03156
G1 X161.113 Y158.607 E.0103
G1 X160.708 Y158.732 E.02356
G1 X89.694 Y158.732 E3.94632
G1 X89.234 Y158.581 E.02692
G1 X88.815 Y158.198 E.03156
G1 X88.72 Y158.038 E.0103
G1 X88.595 Y157.633 E.02356
G1 X88.595 Y37.692 E6.66528
G1 X88.657 Y37.494 E.01148
M204 S1000
M73 P6 R63
M73 Q6 S64
G1 X88.97 Y37.597 F10800
M204 S800
G1 F1200
G1 X89.03 Y37.414 E.01072
G1 X89.328 Y37.082 E.02479
G1 X89.415 Y37.028 E.00571
G1 X89.722 Y36.927 E.01796
G1 X160.708 Y36.93 E3.94473
G1 X160.811 Y36.955 E.00592
G1 X161.054 Y37.069 E.01492
G1 X161.299 Y37.302 E.01875
G1 X161.372 Y37.414 E.00748
G1 X161.473 Y37.72 E.01785
G1 X161.473 Y157.605 E6.66216
G1 X161.372 Y157.911 E.01787
M73 Q6 S63
G1 X161.074 Y158.243 E.02479
G1 X160.987 Y158.297 E.00571
G1 X160.68 Y158.398 E.01796
G1 X89.722 Y158.398 E3.94319
G1 X89.417 Y158.297 E.01787
G1 X89.085 Y158 E.02479
G1 X89.03 Y157.912 E.00571
G1 X88.93 Y157.605 E.01796
G1 X88.93 Y37.72 E6.66216
G1 X88.951 Y37.654 E.00381
M204 S1000
G1 X89.264 Y37.751 F10800
M204 S800
G1 F1200
G1 X89.331 Y37.562 E.01113
G1 X89.53 Y37.348 E.01626
G1 X89.753 Y37.261 E.01328
G1 X160.662 Y37.261 E3.94044
G1 X160.883 Y37.358 E.01345
G1 X161.066 Y37.549 E.01469
G1 X161.138 Y37.751 E.01189
G1 X161.138 Y157.574 E6.6587
G1 X161.071 Y157.763 E.01113
G1 X160.85 Y157.991 E.01765
G1 X160.649 Y158.064 E.01189
G1 X89.753 Y158.064 E3.93974
G1 X89.565 Y157.996 E.01113
G1 X89.336 Y157.776 E.01765
G1 X89.264 Y157.574 E.01189
G1 X89.264 Y37.811 E6.65537
M204 S1000
G1 X89.598 Y37.811 F10800
M204 S800
M73 P7 R63
M73 Q7 S63
G1 F1200
G1 X89.623 Y37.726 E.00489
G1 X89.729 Y37.621 E.0083
G1 X89.79 Y37.595 E.00369
G1 X160.612 Y37.595 E3.93562
G1 X160.673 Y37.621 E.00369
G1 X160.779 Y37.726 E.0083
G1 X160.804 Y37.788 E.00369
G1 X160.804 Y157.537 E6.65458
G1 X160.779 Y157.598 E.00369
M73 P7 R62
G1 X160.673 Y157.704 E.0083
G1 X160.612 Y157.729 E.00369
G1 X89.79 Y157.729 E3.93562
G1 X89.729 Y157.704 E.00369
G1 X89.623 Y157.598 E.0083
G1 X89.598 Y157.537 E.00369
G1 X89.598 Y37.871 E6.64997
M204 S1000
; printing object Body14 id:0 copy 0
;WIPE_START
G1 F8640
G1 X89.623 Y37.726 E-.03383
G1 X89.729 Y37.621 E-.03448
G1 X89.79 Y37.595 E-.01535
G1 X92.719 Y37.595 E-.67635
;WIPE_END
G1 E-.04 F2100
G1 Z.8 F720
G1 X159.993 Y156.918 F10800
G1 Z.4 F720
G1 E.8 F2100
M204 S800
;TYPE:Perimeter
;WIDTH:0.42
G1 F1200
G1 X90.409 Y156.918 E3.86684
G1 X90.409 Y38.407 E6.5858
G1 X159.993 Y38.407 E3.86684
M73 Q7 S62
G1 X159.993 Y156.858 E6.58246
M204 S1000
G1 X160.327 Y157.252 F10800
M204 S800
;TYPE:External perimeter
M73 P8 R62
G1 F1200
G1 X90.075 Y157.252 E3.90398
G1 X90.075 Y38.072 E6.62294
M73 Q8 S62
G1 X160.327 Y38.072 E3.90398
G1 X160.327 Y157.192 E6.6196
M204 S1000
G1 X159.951 Y157.117 F10800
;WIPE_START
G1 F8640
G1 X157.036 Y157.195 E-.76
;WIPE_END
G1 E-.04 F2100
G1 Z.8 F720
G1 X155.315 Y55.618 F10800
G1 Z.4 F720
G1 E.8 F2100
M204 S800
;TYPE:Perimeter
G1 F1200
G1 X155.391 Y56.085 E.02628
G1 X155.331 Y56.67 E.03269
G1 X155.119 Y57.219 E.03271
G1 X154.771 Y57.694 E.03272
G1 X154.312 Y58.063 E.03273
G1 X153.773 Y58.301 E.03272
G1 X153.192 Y58.393 E.03271
G1 X152.606 Y58.334 E.0327
G1 X152.056 Y58.127 E.03269
G1 X151.577 Y57.786 E.03267
G1 X151.484 Y57.694 E.00727
G1 X151.155 Y57.26 E.03024
G1 X150.959 Y56.798 E.02792
G1 X150.863 Y56.217 E.03268
G1 X150.924 Y55.632 E.03269
G1 X151.136 Y55.083 E.03271
G1 X151.484 Y54.608 E.03272
G1 X151.943 Y54.239 E.03276
G1 X152.545 Y53.99 E.03618
G1 X153.063 Y53.909 E.02914
G1 X153.648 Y53.968 E.0327
G1 X154.199 Y54.175 E.03269
G1 X154.678 Y54.516 E.03267
G1 X155.052 Y54.969 E.03267
G1 X155.296 Y55.504 E.03267
G1 X155.305 Y55.559 E.00307
M204 S1000
G1 X155.001 Y55.691 F10800
M204 S800
;TYPE:External perimeter
G1 F1200
G1 X155.06 Y56.173 E.02701
G1 X154.988 Y56.668 E.0278
G1 X154.789 Y57.127 E.02782
G1 X154.476 Y57.519 E.02785
G1 X154.073 Y57.818 E.02789
G1 X153.605 Y58.002 E.02793
G1 X153.106 Y58.062 E.02795
G1 X152.608 Y57.991 E.02796
G1 X152.144 Y57.796 E.02794
G1 X151.747 Y57.489 E.02791
G1 X151.444 Y57.089 E.02787
G1 X151.255 Y56.626 E.02783
G1 X151.195 Y56.129 E.02781
G1 X151.267 Y55.634 E.0278
G1 X151.466 Y55.174 E.02782
G1 X151.778 Y54.783 E.02785
G1 X152.187 Y54.482 E.02816
G1 X152.663 Y54.302 E.0283
G1 X153.149 Y54.24 E.02722
G1 X153.647 Y54.31 E.02796
G1 X154.11 Y54.506 E.02794
G1 X154.507 Y54.813 E.02791
G1 X154.811 Y55.212 E.02787
G1 X154.982 Y55.634 E.0253
M204 S1000
G1 X155.387 Y55.798 F10800
;WIPE_START
G1 F8640
G1 X155.06 Y56.173 E-.12574
G1 X154.988 Y56.668 E-.11552
G1 X154.789 Y57.127 E-.11559
G1 X154.476 Y57.519 E-.11572
G1 X154.073 Y57.818 E-.11589
G1 X153.605 Y58.002 E-.11604
G1 X153.367 Y58.031 E-.0555
;WIPE_END
G1 E-.04 F2100
G1 Z.8 F720
G1 X134.665 Y73.129 F10800
G1 Z.4 F720
G1 E.8 F2100
M204 S800
;TYPE:Perimeter
G1 F1200
G1 X134.016 Y72.98 E.037
G1 X133.356 Y72.688 E.04007
G1 X132.763 Y72.277 E.04008
G1 X132.259 Y71.762 E.04007
G1 X131.862 Y71.16 E.04008
G1 X131.585 Y70.494 E.04007
G1 X131.44 Y69.788 E.04008
G1 X131.431 Y69.067 E.04008
G1 X131.558 Y68.357 E.04007
G1 X131.818 Y67.684 E.04007
G1 X132.2 Y67.072 E.04008
G1 X132.691 Y66.544 E.04008
G1 X133.136 Y66.216 E.03073
G1 X133.384 Y66.058 E.01635
G1 X133.926 Y65.811 E.03306
G1 X134.624 Y65.632 E.04008
G1 X135.344 Y65.589 E.04008
G1 X136.059 Y65.682 E.04008
G1 X136.744 Y65.91 E.04008
G1 X137.373 Y66.262 E.04007
G1 X137.924 Y66.728 E.04008
G1 X138.376 Y67.289 E.04008
G1 X138.715 Y67.926 E.04008
G1 X138.927 Y68.615 E.04007
G1 X139.004 Y69.332 E.04008
G1 X138.945 Y70.051 E.04008
G1 X138.75 Y70.745 E.04007
G1 X138.428 Y71.39 E.04007
G1 X137.989 Y71.963 E.04008
G1 X137.45 Y72.442 E.04007
G1 X136.83 Y72.81 E.04008
G1 X136.152 Y73.055 E.04008
G1 X135.439 Y73.166 E.04008
G1 X134.723 Y73.141 E.03981
