; generated by PrusaSlicer 2.5.2+win64 on 2023-06-07 at 01:20:25 UTC


;
;
; 

; external perimeters extrusion width = 0.60mm
; perimeters extrusion width = 0.50mm
; infill extrusion width = 0.50mm
; solid infill extrusion width = 0.50mm
; top infill extrusion width = 0.45mm
; first layer extrusion width = 0.42mm

; external perimeters extrusion width = 0.60mm
; perimeters extrusion width = 0.50mm
; infill extrusion width = 0.50mm
; solid infill extrusion width = 0.50mm
; top infill extrusion width = 0.45mm
; first layer extrusion width = 0.42mm

M73 P0 R153
M73 Q0 S154
M201 X1000 Y1000 Z200 E5000 ; sets maximum accelerations, mm/sec^2
M203 X200 Y200 Z12 E120 ; sets maximum feedrates, mm / sec
M204 P1250 R1250 T1250 ; sets acceleration (P, T) and retract acceleration (R), mm/sec^2
M205 X8.00 Y8.00 Z0.40 E4.50 ; sets the jerk limits, mm/sec
M205 S0 T0 ; sets the minimum extruding and travel feed rate, mm/sec
M107
;TYPE:Custom
M862.3 P "MK3" ; printer model check
M862.1 P0.4 ; nozzle diameter check
M115 U3.12.2 ; tell printer latest fw version
G90 ; use absolute coordinates
M83 ; extruder relative mode
M104 S215 ; set extruder temp
M140 S60 ; set bed temp
M190 S60 ; wait for bed temp
M109 S215 ; wait for extruder temp
G28 W ; home all without mesh bed level
G80 ; mesh bed leveling

G1 Z0.2 F720
G1 Y-3 F1000 ; go outside print area
G92 E0
G1 X60 E9 F1000 ; intro line
G1 X100 E12.5 F1000 ; intro line

G92 E0
M221 S95

; Don't change E values below. Excessive value can damage the printer.

M907 E538 ; set extruder motor current
G21 ; set units to millimeters
G90 ; use absolute coordinates
M83 ; use relative distances for extrusion
M900 K0.05 ; Filament gcode LA 1.5
M900 K30 ; Filament gcode LA 1.0
M107
;LAYER_CHANGE
;Z:0.2
;HEIGHT:0.2
;BEFORE_LAYER_CHANGE
G92 E0.0
;0.2


G1 E-.8 F2100
M73 Q0 S153
G1 Z.4 F720
;AFTER_LAYER_CHANGE
;0.2
G1 X42.361 Y60.55 F10800
G1 Z.2 F720
G1 E.8 F2100
M204 S800
;TYPE:Skirt/Brim
;WIDTH:0.42
G1 F1200
G1 X43.301 Y60.356 E.03008
G1 X106.364 Y60.357 E1.9773
G1 X171.021 Y61.604 E2.02765
G1 X172.32 Y62.021 E.04278
M73 P0 R152
G1 X173.176 Y63.083 E.04278
G1 X173.352 Y63.981 E.02867
G1 X173.352 Y163.981 E3.13543
G1 X172.96 Y165.288 E.04278
G1 X171.914 Y166.164 E.04278
G1 X170.975 Y166.358 E.03008
G1 X111.361 Y166.358 E1.86915
G1 X43.257 Y165.11 E2.1357
G1 X41.958 Y164.695 E.04278
G1 X41.1 Y163.633 E.04278
G1 X40.924 Y162.733 E.02875
G1 X40.924 Y62.733 E3.13543
G1 X41.315 Y61.426 E.04278
G1 X42.315 Y60.588 E.0409
M204 S1000
; printing object Body3 id:0 copy 0
;WIPE_START
G1 F8640
G1 X43.301 Y60.356 E-.23384
G1 X45.579 Y60.356 E-.52616
;WIPE_END
G1 E-.04 F2100
G1 Z.6 F720
G1 X105.531 Y63.52 F10800
G1 Z.2 F720
G1 E.8 F2100
M204 S800
;TYPE:Perimeter
;WIDTH:0.419999
G1 F1200
G1 X105.531 Y161.946 E3.08607
G1 X44.088 Y161.946 E1.9265
G1 X44.088 Y63.52 E3.08607
G1 X105.471 Y63.52 E1.92462
M204 S1000
G1 X105.908 Y63.143 F10800
M204 S800
;TYPE:External perimeter
G1 F1200
G1 X105.908 Y162.323 E3.10971
G1 X43.711 Y162.323 E1.95014
G1 X43.711 Y63.143 E3.10971
G1 X105.848 Y63.143 E1.94826
M204 S1000
G1 X105.834 Y63.536 F10800
;WIPE_START
G1 F8640
G1 X105.85 Y66.435 E-.76
;WIPE_END
G1 E-.04 F2100
G1 Z.6 F720
G1 X104.597 Y63.69 F10800
M73 Q0 S152
G1 Z.2 F720
G1 E.8 F2100
M204 S800
;TYPE:Solid infill
;WIDTH:0.420831
G1 F1200
G1 X105.191 Y64.284 E.02641
G1 X105.191 Y64.819 E.01679
G1 X104.232 Y63.86 E.04262
G1 X103.698 Y63.86 E.01679
G1 X105.191 Y65.353 E.06637
G1 X105.191 Y65.888 E.01679
G1 X103.163 Y63.86 E.09012
G1 X102.629 Y63.86 E.01679
G1 X105.191 Y66.422 E.11387
G1 X105.191 Y66.957 E.01679
G1 X102.095 Y63.86 E.13762
G1 X101.56 Y63.86 E.01679
G1 X105.191 Y67.491 E.16137
G1 X105.191 Y68.026 E.01679
G1 X101.026 Y63.86 E.18513
G1 X100.491 Y63.86 E.01679
G1 X105.191 Y68.56 E.20888
G1 X105.191 Y69.094 E.01679
G1 X99.957 Y63.86 E.23263
G1 X99.422 Y63.86 E.01679
G1 X105.191 Y69.629 E.25638
G1 X105.191 Y70.163 E.01679
G1 X98.888 Y63.86 E.28013
G1 X98.353 Y63.86 E.01679
G1 X105.191 Y70.698 E.30388
G1 X105.191 Y71.232 E.01679
G1 X97.819 Y63.86 E.32763
G1 X97.285 Y63.86 E.01679
G1 X105.191 Y71.767 E.35138
G1 X105.191 Y72.301 E.01679
G1 X96.75 Y63.86 E.37513
G1 X96.216 Y63.86 E.01679
G1 X105.191 Y72.836 E.39888
G1 X105.191 Y73.37 E.01679
G1 X95.681 Y63.86 E.42263
G1 X95.147 Y63.86 E.01679
G1 X105.191 Y73.905 E.44638
M73 P0 R151
G1 X105.191 Y74.439 E.01679
G1 X94.612 Y63.86 E.47013
G1 X94.078 Y63.86 E.01679
G1 X105.191 Y74.973 E.49388
G1 X105.191 Y75.508 E.01679
G1 X93.543 Y63.86 E.51763
G1 X93.009 Y63.86 E.01679
G1 X105.191 Y76.042 E.54138
G1 X105.191 Y76.577 E.01679
G1 X92.474 Y63.86 E.56513
G1 X91.94 Y63.86 E.01679
G1 X105.191 Y77.111 E.58888
G1 X105.191 Y77.646 E.01679
G1 X91.406 Y63.86 E.61263
G1 X90.871 Y63.86 E.01679
G1 X105.191 Y78.18 E.63639
G1 X105.191 Y78.715 E.01679
G1 X90.337 Y63.86 E.66014
G1 X89.802 Y63.86 E.01679
G1 X105.191 Y79.249 E.68389
G1 X105.191 Y79.783 E.01679
G1 X89.268 Y63.86 E.70764
G1 X88.733 Y63.86 E.01679
G1 X105.191 Y80.318 E.73139
G1 X105.191 Y80.852 E.01679
G1 X88.199 Y63.86 E.75514
G1 X87.664 Y63.86 E.01679
G1 X105.191 Y81.387 E.77889
G1 X105.191 Y81.921 E.01679
G1 X87.13 Y63.86 E.80264
G1 X86.596 Y63.86 E.01679
G1 X105.191 Y82.456 E.82639
G1 X105.191 Y82.99 E.01679
G1 X86.061 Y63.86 E.85014
G1 X85.527 Y63.86 E.01679
G1 X105.191 Y83.525 E.87389
G1 X105.191 Y84.059 E.01679
G1 X84.992 Y63.86 E.89764
G1 X84.458 Y63.86 E.01679
M73 P1 R151
M73 Q1 S152
G1 X105.191 Y84.593 E.92139
G1 X105.191 Y85.128 E.01679
G1 X83.923 Y63.86 E.94514
G1 X83.389 Y63.86 E.01679
G1 X105.191 Y85.662 E.96889
G1 X105.191 Y86.197 E.01679
G1 X82.854 Y63.86 E.99264
G1 X82.32 Y63.86 E.01679
G1 X105.191 Y86.731 E1.01639
G1 X105.191 Y87.266 E.01679
G1 X81.786 Y63.86 E1.04014
G1 X81.251 Y63.86 E.01679
G1 X105.191 Y87.8 E1.06389
G1 X105.191 Y88.335 E.01679
G1 X80.717 Y63.86 E1.08765
G1 X80.182 Y63.86 E.01679
G1 X105.191 Y88.869 E1.1114
G1 X105.191 Y89.403 E.01679
G1 X79.648 Y63.86 E1.13515
G1 X79.113 Y63.86 E.01679
G1 X105.191 Y89.938 E1.1589
G1 X105.191 Y90.472 E.01679
G1 X78.579 Y63.86 E1.18265
G1 X78.044 Y63.86 E.01679
G1 X105.191 Y91.007 E1.2064
G1 X105.191 Y91.541 E.01679
G1 X77.51 Y63.86 E1.23015
G1 X76.976 Y63.86 E.01679
G1 X105.191 Y92.076 E1.2539
G1 X105.191 Y92.61 E.01679
G1 X76.441 Y63.86 E1.27765
G1 X75.907 Y63.86 E.01679
G1 X105.191 Y93.145 E1.3014
G1 X105.191 Y93.679 E.01679
M73 Q1 S151
G1 X75.372 Y63.86 E1.32515
G1 X74.838 Y63.86 E.01679
G1 X105.191 Y94.213 E1.3489
G1 X105.191 Y94.748 E.01679
G1 X74.303 Y63.86 E1.37265
G1 X73.769 Y63.86 E.01679
G1 X105.191 Y95.282 E1.3964
G1 X105.191 Y95.817 E.01679
M73 P1 R150
G1 X73.234 Y63.86 E1.42015
G1 X72.7 Y63.86 E.01679
G1 X105.191 Y96.351 E1.4439
G1 X105.191 Y96.886 E.01679
G1 X72.166 Y63.86 E1.46765
G1 X71.631 Y63.86 E.01679
G1 X105.191 Y97.42 E1.4914
G1 X105.191 Y97.955 E.01679
G1 X71.097 Y63.86 E1.51515
G1 X70.562 Y63.86 E.01679
G1 X105.191 Y98.489 E1.53891
G1 X105.191 Y99.024 E.01679
G1 X70.028 Y63.86 E1.56266
G1 X69.493 Y63.86 E.01679
G1 X105.191 Y99.558 E1.58641
G1 X105.191 Y100.092 E.01679
G1 X68.959 Y63.86 E1.61016
G1 X68.424 Y63.86 E.01679
G1 X105.191 Y100.627 E1.63391
G1 X105.191 Y101.161 E.01679
G1 X67.89 Y63.86 E1.65766
G1 X67.355 Y63.86 E.01679
G1 X105.191 Y101.696 E1.68141
G1 X105.191 Y102.23 E.01679
G1 X66.821 Y63.86 E1.70516
G1 X66.287 Y63.86 E.01679
G1 X105.191 Y102.765 E1.72891
G1 X105.191 Y103.299 E.01679
G1 X65.752 Y63.86 E1.75266
G1 X65.218 Y63.86 E.01679
G1 X105.191 Y103.834 E1.77641
G1 X105.191 Y104.368 E.01679
G1 X64.683 Y63.86 E1.80016
G1 X64.149 Y63.86 E.01679
G1 X105.191 Y104.902 E1.82391
G1 X105.191 Y105.437 E.01679
G1 X63.614 Y63.86 E1.84766
G1 X63.08 Y63.86 E.01679
G1 X105.191 Y105.971 E1.87141
G1 X105.191 Y106.506 E.01679
M73 P2 R150
M73 Q2 S150
G1 X62.545 Y63.86 E1.89516
G1 X62.011 Y63.86 E.01679
G1 X105.191 Y107.04 E1.91891
G1 X105.191 Y107.575 E.01679
M73 P2 R149
G1 X61.477 Y63.86 E1.94266
G1 X60.942 Y63.86 E.01679
G1 X105.191 Y108.109 E1.96641
G1 X105.191 Y108.644 E.01679
G1 X60.408 Y63.86 E1.99016
G1 X59.873 Y63.86 E.01679
G1 X105.191 Y109.178 E2.01392
G1 X105.191 Y109.712 E.01679
G1 X59.339 Y63.86 E2.03767
G1 X58.804 Y63.86 E.01679
G1 X105.191 Y110.247 E2.06142
G1 X105.191 Y110.781 E.01679
G1 X58.27 Y63.86 E2.08517
G1 X57.735 Y63.86 E.01679
G1 X105.191 Y111.316 E2.10892
G1 X105.191 Y111.85 E.01679
G1 X57.201 Y63.86 E2.13267
G1 X56.667 Y63.86 E.01679
G1 X105.191 Y112.385 E2.15642
G1 X105.191 Y112.919 E.01679
G1 X56.132 Y63.86 E2.18017
G1 X55.598 Y63.86 E.01679
G1 X105.191 Y113.454 E2.20392
G1 X105.191 Y113.988 E.01679
G1 X55.063 Y63.86 E2.22767
G1 X54.529 Y63.86 E.01679
G1 X105.191 Y114.522 E2.25142
G1 X105.191 Y115.057 E.01679
G1 X53.994 Y63.86 E2.27517
G1 X53.46 Y63.86 E.01679
G1 X105.191 Y115.591 E2.29892
G1 X105.191 Y116.126 E.01679
M73 Q2 S149
G1 X52.925 Y63.86 E2.32267
G1 X52.391 Y63.86 E.01679
G1 X105.191 Y116.66 E2.34642
G1 X105.191 Y117.195 E.01679
M73 P2 R148
G1 X51.857 Y63.86 E2.37017
G1 X51.322 Y63.86 E.01679
G1 X105.191 Y117.729 E2.39392
G1 X105.191 Y118.264 E.01679
G1 X50.788 Y63.86 E2.41767
G1 X50.253 Y63.86 E.01679
G1 X105.191 Y118.798 E2.44142
G1 X105.191 Y119.332 E.01679
G1 X49.719 Y63.86 E2.46518
G1 X49.184 Y63.86 E.01679
G1 X105.191 Y119.867 E2.48893
G1 X105.191 Y120.401 E.01679
M73 P3 R148
M73 Q3 S149
G1 X48.65 Y63.86 E2.51268
G1 X48.115 Y63.86 E.01679
G1 X105.191 Y120.936 E2.53643
G1 X105.191 Y121.47 E.01679
G1 X47.581 Y63.86 E2.56018
G1 X47.047 Y63.86 E.01679
G1 X105.191 Y122.005 E2.58393
G1 X105.191 Y122.539 E.01679
G1 X46.512 Y63.86 E2.60768
G1 X45.978 Y63.86 E.01679
G1 X105.191 Y123.074 E2.63143
G1 X105.191 Y123.608 E.01679
G1 X45.443 Y63.86 E2.65518
G1 X44.909 Y63.86 E.01679
M73 Q3 S148
G1 X105.191 Y124.143 E2.67893
G1 X105.191 Y124.677 E.01679
M73 P3 R147
G1 X44.427 Y63.913 E2.70033
G1 X44.427 Y64.447 E.01679
G1 X105.191 Y125.211 E2.70033
G1 X105.191 Y125.746 E.01679
G1 X44.427 Y64.982 E2.70033
G1 X44.427 Y65.516 E.01679
G1 X105.191 Y126.28 E2.70033
G1 X105.191 Y126.815 E.01679
G1 X44.427 Y66.05 E2.70033
G1 X44.427 Y66.585 E.01679
G1 X105.191 Y127.349 E2.70033
G1 X105.191 Y127.884 E.01679
G1 X44.427 Y67.119 E2.70033
G1 X44.427 Y67.654 E.01679
G1 X105.191 Y128.418 E2.70033
G1 X105.191 Y128.953 E.01679
G1 X44.427 Y68.188 E2.70033
G1 X44.427 Y68.723 E.01679
G1 X105.191 Y129.487 E2.70033
G1 X105.191 Y130.021 E.01679
G1 X44.427 Y69.257 E2.70033
G1 X44.427 Y69.792 E.01679
G1 X105.191 Y130.556 E2.70033
G1 X105.191 Y131.09 E.01679
G1 X44.427 Y70.326 E2.70033
G1 X44.427 Y70.861 E.01679
M73 Q3 S147
G1 X105.191 Y131.625 E2.70033
G1 X105.191 Y132.159 E.01679
M73 P4 R146
M73 Q4 S147
G1 X44.427 Y71.395 E2.70033
G1 X44.427 Y71.929 E.01679
G1 X105.191 Y132.694 E2.70033
G1 X105.191 Y133.228 E.01679
G1 X44.427 Y72.464 E2.70033
G1 X44.427 Y72.998 E.01679
G1 X105.191 Y133.763 E2.70033
G1 X105.191 Y134.297 E.01679
G1 X44.427 Y73.533 E2.70033
G1 X44.427 Y74.067 E.01679
G1 X105.191 Y134.831 E2.70033
G1 X105.191 Y135.366 E.01679
G1 X44.427 Y74.602 E2.70033
G1 X44.427 Y75.136 E.01679
G1 X105.191 Y135.9 E2.70033
G1 X105.191 Y136.435 E.01679
G1 X44.427 Y75.671 E2.70033
G1 X44.427 Y76.205 E.01679
G1 X105.191 Y136.969 E2.70033
G1 X105.191 Y137.504 E.01679
G1 X44.427 Y76.739 E2.70033
G1 X44.427 Y77.274 E.01679
G1 X105.191 Y138.038 E2.70033
G1 X105.191 Y138.573 E.01679
M73 Q4 S146
G1 X44.427 Y77.808 E2.70033
G1 X44.427 Y78.343 E.01679
G1 X105.191 Y139.107 E2.70033
G1 X105.191 Y139.641 E.01679
M73 P4 R145
G1 X44.427 Y78.877 E2.70033
G1 X44.427 Y79.412 E.01679
G1 X105.191 Y140.176 E2.70033
G1 X105.191 Y140.71 E.01679
G1 X44.427 Y79.946 E2.70033
G1 X44.427 Y80.481 E.01679
G1 X105.191 Y141.245 E2.70033
G1 X105.191 Y141.779 E.01679
G1 X44.427 Y81.015 E2.70033
G1 X44.427 Y81.549 E.01679
G1 X105.191 Y142.314 E2.70033
G1 X105.191 Y142.848 E.01679
G1 X44.427 Y82.084 E2.70033
G1 X44.427 Y82.618 E.01679
M73 P5 R145
M73 Q5 S146
G1 X105.191 Y143.383 E2.70033
G1 X105.191 Y143.917 E.01679
G1 X44.427 Y83.153 E2.70033
G1 X44.427 Y83.687 E.01679
G1 X105.191 Y144.451 E2.70033
G1 X105.191 Y144.986 E.01679
G1 X44.427 Y84.222 E2.70033
G1 X44.427 Y84.756 E.01679
G1 X105.191 Y145.52 E2.70033
G1 X105.191 Y146.055 E.01679
M73 Q5 S145
G1 X44.427 Y85.291 E2.70033
G1 X44.427 Y85.825 E.01679
G1 X105.191 Y146.589 E2.70033
G1 X105.191 Y147.124 E.01679
M73 P5 R144
G1 X44.427 Y86.359 E2.70033
G1 X44.427 Y86.894 E.01679
G1 X105.191 Y147.658 E2.70033
G1 X105.191 Y148.193 E.01679
G1 X44.427 Y87.428 E2.70033
G1 X44.427 Y87.963 E.01679
G1 X105.191 Y148.727 E2.70033
G1 X105.191 Y149.262 E.01679
G1 X44.427 Y88.497 E2.70033
G1 X44.427 Y89.032 E.01679
G1 X105.191 Y149.796 E2.70033
G1 X105.191 Y150.33 E.01679
G1 X44.427 Y89.566 E2.70033
G1 X44.427 Y90.101 E.01679
G1 X105.191 Y150.865 E2.70033
G1 X105.191 Y151.399 E.01679
G1 X44.427 Y90.635 E2.70033
G1 X44.427 Y91.169 E.01679
G1 X105.191 Y151.934 E2.70033
G1 X105.191 Y152.468 E.01679
G1 X44.427 Y91.704 E2.70033
G1 X44.427 Y92.238 E.01679
G1 X105.191 Y153.003 E2.70033
G1 X105.191 Y153.537 E.01679
M73 Q5 S144
G1 X44.427 Y92.773 E2.70033
G1 X44.427 Y93.307 E.01679
G1 X105.191 Y154.072 E2.70033
G1 X105.191 Y154.606 E.01679
M73 P6 R143
G1 X44.427 Y93.842 E2.70033
G1 X44.427 Y94.376 E.01679
M73 Q6 S144
G1 X105.191 Y155.14 E2.70033
G1 X105.191 Y155.675 E.01679
G1 X44.427 Y94.911 E2.70033
G1 X44.427 Y95.445 E.01679
G1 X105.191 Y156.209 E2.70033
G1 X105.191 Y156.744 E.01679
G1 X44.427 Y95.98 E2.70033
G1 X44.427 Y96.514 E.01679
G1 X105.191 Y157.278 E2.70033
G1 X105.191 Y157.813 E.01679
G1 X44.427 Y97.048 E2.70033
G1 X44.427 Y97.583 E.01679
G1 X105.191 Y158.347 E2.70033
G1 X105.191 Y158.882 E.01679
G1 X44.427 Y98.117 E2.70033
G1 X44.427 Y98.652 E.01679
G1 X105.191 Y159.416 E2.70033
G1 X105.191 Y159.95 E.01679
G1 X44.427 Y99.186 E2.70033
G1 X44.427 Y99.721 E.01679
G1 X105.191 Y160.485 E2.70033
G1 X105.191 Y161.019 E.01679
M73 Q6 S143
G1 X44.427 Y100.255 E2.70033
G1 X44.427 Y100.79 E.01679
G1 X105.191 Y161.554 E2.70033
G1 X105.191 Y161.607 E.00167
M73 P6 R142
G1 X104.71 Y161.607 E.01512
G1 X44.427 Y101.324 E2.67894
G1 X44.427 Y101.858 E.01679
G1 X104.176 Y161.607 E2.65519
G1 X103.641 Y161.607 E.01679
G1 X44.427 Y102.393 E2.63144
G1 X44.427 Y102.927 E.01679
G1 X103.107 Y161.607 E2.60769
G1 X102.572 Y161.607 E.01679
G1 X44.427 Y103.462 E2.58394
G1 X44.427 Y103.996 E.01679
G1 X102.038 Y161.607 E2.56019
G1 X101.503 Y161.607 E.01679
G1 X44.427 Y104.531 E2.53644
G1 X44.427 Y105.065 E.01679
M73 P7 R142
G1 X100.969 Y161.607 E2.51269
G1 X100.435 Y161.607 E.01679
M73 Q7 S143
G1 X44.427 Y105.6 E2.48894
G1 X44.427 Y106.134 E.01679
G1 X99.9 Y161.607 E2.46519
G1 X99.366 Y161.607 E.01679
G1 X44.427 Y106.668 E2.44144
G1 X44.427 Y107.203 E.01679
G1 X98.831 Y161.607 E2.41768
G1 X98.297 Y161.607 E.01679
M73 Q7 S142
G1 X44.427 Y107.737 E2.39393
G1 X44.427 Y108.272 E.01679
G1 X97.762 Y161.607 E2.37018
G1 X97.228 Y161.607 E.01679
M73 P7 R141
G1 X44.427 Y108.806 E2.34643
G1 X44.427 Y109.341 E.01679
G1 X96.693 Y161.607 E2.32268
G1 X96.159 Y161.607 E.01679
G1 X44.427 Y109.875 E2.29893
G1 X44.427 Y110.41 E.01679
G1 X95.625 Y161.607 E2.27518
G1 X95.09 Y161.607 E.01679
G1 X44.427 Y110.944 E2.25143
G1 X44.427 Y111.478 E.01679
G1 X94.556 Y161.607 E2.22768
G1 X94.021 Y161.607 E.01679
G1 X44.427 Y112.013 E2.20393
G1 X44.427 Y112.547 E.01679
G1 X93.487 Y161.607 E2.18018
G1 X92.952 Y161.607 E.01679
G1 X44.427 Y113.082 E2.15643
G1 X44.427 Y113.616 E.01679
G1 X92.418 Y161.607 E2.13268
G1 X91.883 Y161.607 E.01679
G1 X44.427 Y114.151 E2.10893
G1 X44.427 Y114.685 E.01679
G1 X91.349 Y161.607 E2.08518
G1 X90.815 Y161.607 E.01679
G1 X44.427 Y115.22 E2.06143
G1 X44.427 Y115.754 E.01679
G1 X90.28 Y161.607 E2.03768
G1 X89.746 Y161.607 E.01679
G1 X44.427 Y116.288 E2.01393
G1 X44.427 Y116.823 E.01679
M73 Q7 S141
G1 X89.211 Y161.607 E1.99018
G1 X88.677 Y161.607 E.01679
G1 X44.427 Y117.357 E1.96642
G1 X44.427 Y117.892 E.01679
G1 X88.142 Y161.607 E1.94267
G1 X87.608 Y161.607 E.01679
M73 P7 R140
G1 X44.427 Y118.426 E1.91892
G1 X44.427 Y118.961 E.01679
M73 P8 R140
G1 X87.073 Y161.607 E1.89517
G1 X86.539 Y161.607 E.01679
M73 Q8 S141
G1 X44.427 Y119.495 E1.87142
G1 X44.427 Y120.03 E.01679
G1 X86.004 Y161.607 E1.84767
G1 X85.47 Y161.607 E.01679
G1 X44.427 Y120.564 E1.82392
