; generated by PrusaSlicer 2.5.2+win64 on 2023-08-08 at 21:37:33 UTC


;
;
; 

; external perimeters extrusion width = 0.60mm
; perimeters extrusion width = 0.50mm
; infill extrusion width = 0.50mm
; solid infill extrusion width = 0.50mm
; top infill extrusion width = 0.45mm
; first layer extrusion width = 0.42mm

M73 P0 R93
M73 Q0 S93
M201 X1000 Y1000 Z200 E5000 ; sets maximum accelerations, mm/sec^2
M203 X200 Y200 Z12 E120 ; sets maximum feedrates, mm / sec
M204 P1250 R1250 T1250 ; sets acceleration (P, T) and retract acceleration (R), mm/sec^2
M205 X8.00 Y8.00 Z0.40 E4.50 ; sets the jerk limits, mm/sec
M205 S0 T0 ; sets the minimum extruding and travel feed rate, mm/sec
M107
;TYPE:Custom
M862.3 P "MK3" ; printer model check
M862.1 P0.4 ; nozzle diameter check
M115 U3.12.2 ; tell printer latest fw version
G90 ; use absolute coordinates
M83 ; extruder relative mode
M104 S215 ; set extruder temp
M140 S60 ; set bed temp
M190 S60 ; wait for bed temp
M109 S215 ; wait for extruder temp
G28 W ; home all without mesh bed level
G80 ; mesh bed leveling

G1 Z0.2 F720
G1 Y-3 F1000 ; go outside print area
G92 E0
G1 X60 E9 F1000 ; intro line
G1 X100 E12.5 F1000 ; intro line

G92 E0
M221 S95

; Don't change E values below. Excessive value can damage the printer.

M907 E538 ; set extruder motor current
G21 ; set units to millimeters
G90 ; use absolute coordinates
M83 ; use relative distances for extrusion
M900 K0.05 ; Filament gcode LA 1.5
M900 K30 ; Filament gcode LA 1.0
M107
;LAYER_CHANGE
;Z:0.2
;HEIGHT:0.2
;BEFORE_LAYER_CHANGE
G92 E0.0
;0.2


G1 E-.8 F2100
G1 Z.4 F720
;AFTER_LAYER_CHANGE
;0.2
G1 X94.764 Y55.277 F10800
G1 Z.2 F720
G1 E.8 F2100
M204 S800
;TYPE:Skirt/Brim
;WIDTH:0.42
G1 F1200
G1 X97.752 Y52.29 E.13247
G1 X99.432 Y51.593 E.05704
G1 X162.775 Y51.593 E1.98606
G1 X164.456 Y52.29 E.05704
M73 P0 R92
G1 X167.443 Y55.277 E.13247
G1 X168.14 Y56.958 E.05704
G1 X168.14 Y160.783 E3.25536
G1 X167.443 Y162.464 E.05704
G1 X164.456 Y165.451 E.13247
G1 X162.775 Y166.148 E.05704
G1 X99.432 Y166.148 E1.98606
G1 X97.752 Y165.451 E.05704
G1 X94.764 Y162.464 E.13247
G1 X94.068 Y160.783 E.05704
G1 X94.068 Y56.958 E3.25536
G1 X94.741 Y55.333 E.05516
M204 S1000
;WIPE_START
G1 F8640
G1 X97.056 Y52.993 E-.76
;WIPE_END
G1 E-.04 F2100
G1 Z.6 F720
G1 X97.356 Y56.651 F10800
G1 Z.2 F720
G1 E.8 F2100
M204 S800
G1 F1200
G1 X97.864 Y55.966 E.02674
G1 X98.895 Y55.03 E.04366
G1 X99.815 Y54.572 E.03223
G1 X101.127 Y54.257 E.04232
G1 X161.052 Y54.261 E1.87889
G1 X162.072 Y54.455 E.03256
G1 X163.05 Y54.87 E.03333
G1 X164.175 Y55.766 E.04508
G1 X165.068 Y57.104 E.05044
G1 X165.476 Y58.649 E.05011
G1 X165.476 Y159.118 E3.15011
G1 X164.851 Y161.09 E.06486
G1 X164.343 Y161.775 E.02674
G1 X163.313 Y162.711 E.04366
G1 X162.392 Y163.169 E.03223
G1 X161.08 Y163.484 E.04231
G1 X101.098 Y163.484 E1.88071
G1 X99.126 Y162.859 E.06486
G1 X98.441 Y162.351 E.02674
G1 X97.504 Y161.321 E.04366
G1 X97.046 Y160.401 E.03223
G1 X96.731 Y159.088 E.04231
G1 X96.731 Y58.623 E3.15001
G1 X97.338 Y56.709 E.06298
M204 S1000
G1 X97.678 Y56.849 F10800
M204 S800
G1 F1200
G1 X98.133 Y56.231 E.02407
G1 X99.088 Y55.354 E.04065
G1 X99.926 Y54.933 E.0294
G1 X101.15 Y54.634 E.03951
G1 X161.033 Y54.638 E1.8776
G1 X161.98 Y54.821 E.03023
G1 X162.877 Y55.206 E.03062
G1 X163.916 Y56.042 E.0418
G1 X164.712 Y57.232 E.0449
G1 X165.099 Y58.674 E.04682
G1 X165.099 Y159.089 E3.14842
G1 X164.529 Y160.892 E.05929
G1 X164.074 Y161.51 E.02407
G1 X163.119 Y162.387 E.04065
G1 X162.282 Y162.808 E.0294
G1 X161.057 Y163.107 E.03951
G1 X101.127 Y163.107 E1.87908
G1 X99.324 Y162.537 E.05929
M73 Q0 S92
G1 X98.706 Y162.082 E.02407
G1 X97.829 Y161.127 E.04065
G1 X97.407 Y160.29 E.0294
G1 X97.108 Y159.065 E.03951
G1 X97.108 Y58.652 E3.14838
G1 X97.66 Y56.907 E.05741
M204 S1000
M73 P1 R92
M73 Q1 S92
G1 X98.001 Y57.046 F10800
M204 S800
G1 F1200
G1 X98.404 Y56.495 E.02142
G1 X99.284 Y55.678 E.03764
G1 X100.038 Y55.293 E.02656
G1 X101.174 Y55.011 E.03667
G1 X161.015 Y55.015 E1.87628
G1 X161.886 Y55.187 E.02786
G1 X162.703 Y55.541 E.0279
G1 X163.655 Y56.315 E.03848
G1 X164.38 Y57.414 E.04126
G1 X164.722 Y58.699 E.0417
G1 X164.722 Y159.06 E3.14675
G1 X164.206 Y160.695 E.05375
G1 X163.804 Y161.247 E.02142
G1 X162.924 Y162.063 E.03764
G1 X162.169 Y162.448 E.02656
G1 X161.034 Y162.73 E.03667
G1 X101.155 Y162.73 E1.87745
G1 X99.521 Y162.214 E.05375
M73 P1 R91
G1 X98.969 Y161.812 E.02142
G1 X98.152 Y160.932 E.03764
G1 X97.768 Y160.177 E.02656
G1 X97.486 Y159.042 E.03667
G1 X97.486 Y58.681 E3.14674
G1 X97.983 Y57.104 E.05187
M204 S1000
G1 X98.325 Y57.242 F10800
M204 S800
G1 F1200
G1 X98.676 Y56.756 E.01879
G1 X99.481 Y56 E.03463
G1 X100.153 Y55.653 E.02372
G1 X101.197 Y55.388 E.03379
G1 X160.996 Y55.392 E1.87493
G1 X161.791 Y55.552 E.02545
G1 X162.526 Y55.876 E.02518
G1 X163.393 Y56.587 E.03516
G1 X164.047 Y57.593 E.03763
G1 X164.345 Y58.723 E.03663
G1 X164.345 Y159.031 E3.1451
G1 X163.882 Y160.499 E.04825
G1 X163.532 Y160.985 E.01879
G1 X162.726 Y161.741 E.03463
G1 X162.054 Y162.088 E.02372
G1 X161.01 Y162.353 E.03378
G1 X101.184 Y162.353 E1.87579
G1 X99.716 Y161.89 E.04825
G1 X99.231 Y161.54 E.01879
G1 X98.475 Y160.734 E.03463
G1 X98.127 Y160.062 E.02372
G1 X97.863 Y159.018 E.03378
G1 X97.863 Y58.71 E3.14509
G1 X98.307 Y57.299 E.04637
M204 S1000
G1 X98.649 Y57.437 F10800
M204 S800
G1 F1200
G1 X98.949 Y57.016 E.01619
G1 X99.68 Y56.321 E.03162
G1 X100.27 Y56.012 E.02087
G1 X101.222 Y55.765 E.03085
G1 X160.977 Y55.769 E1.87358
G1 X161.658 Y55.905 E.02178
G1 X162.35 Y56.21 E.02369
G1 X163.129 Y56.859 E.03181
G1 X163.691 Y57.72 E.03225
G1 X163.968 Y58.748 E.03337
G1 X163.968 Y159.002 E3.1434
G1 X163.558 Y160.305 E.0428
G1 X163.258 Y160.725 E.01619
G1 X162.527 Y161.42 E.03162
G1 X161.938 Y161.729 E.02087
G1 X160.986 Y161.976 E.03084
G1 X101.213 Y161.976 E1.87413
G1 X99.911 Y161.566 E.0428
G1 X99.491 Y161.266 E.01619
G1 X98.796 Y160.535 E.03162
G1 X98.487 Y159.946 E.02087
G1 X98.24 Y158.994 E.03084
G1 X98.24 Y58.739 E3.14342
G1 X98.631 Y57.494 E.04092
M204 S1000
G1 X98.974 Y57.629 F10800
M204 S800
G1 F1200
G1 X99.225 Y57.275 E.01361
G1 X99.882 Y56.641 E.02862
G1 X100.389 Y56.371 E.01801
G1 X101.247 Y56.142 E.02785
G1 X160.957 Y56.146 E1.87217
G1 X161.561 Y56.27 E.01933
M73 P2 R91
M73 Q2 S91
G1 X162.171 Y56.543 E.02093
G1 X162.864 Y57.128 E.02843
G1 X163.357 Y57.898 E.0287
G1 X163.591 Y58.773 E.02837
G1 X163.591 Y158.974 E3.14173
G1 X163.233 Y160.112 E.03741
G1 X162.983 Y160.467 E.01361
G1 X162.325 Y161.1 E.02862
G1 X161.819 Y161.37 E.01801
G1 X160.96 Y161.599 E.02785
G1 X101.242 Y161.599 E1.87244
G1 X100.104 Y161.241 E.03741
G1 X99.749 Y160.991 E.01361
G1 X99.115 Y160.334 E.02862
G1 X98.845 Y159.827 E.01801
G1 X98.617 Y158.968 E.02785
G1 X98.617 Y58.767 E3.14173
G1 X98.956 Y57.687 E.03552
M204 S1000
G1 X99.301 Y57.82 F10800
M204 S800
G1 F1200
G1 X99.502 Y57.531 E.01106
G1 X100.086 Y56.959 E.02562
G1 X100.511 Y56.728 E.01515
G1 X101.273 Y56.52 E.02478
G1 X160.937 Y56.523 E1.87072
G1 X161.461 Y56.635 E.01681
M73 P2 R90
G1 X161.989 Y56.874 E.01817
G1 X162.597 Y57.395 E.0251
G1 X163.002 Y58.026 E.02351
G1 X163.213 Y58.798 E.0251
G1 X163.213 Y158.945 E3.14002
G1 X162.907 Y159.921 E.03208
G1 X162.705 Y160.211 E.01106
G1 X162.121 Y160.782 E.02562
G1 X161.697 Y161.013 E.01515
G1 X160.934 Y161.222 E.02478
G1 X101.271 Y161.222 E1.87072
G1 X100.295 Y160.915 E.03208
G1 X100.005 Y160.713 E.01106
G1 X99.433 Y160.129 E.02562
G1 X99.202 Y159.705 E.01515
G1 X98.994 Y158.943 E.02478
G1 X98.994 Y58.796 E3.14002
G1 X99.283 Y57.878 E.03019
M204 S1000
G1 X99.628 Y58.009 F10800
M204 S800
G1 F1200
G1 X99.782 Y57.784 E.00855
G1 X100.293 Y57.275 E.02264
G1 X100.636 Y57.084 E.01229
G1 X101.3 Y56.897 E.02163
G1 X160.916 Y56.9 E1.86922
G1 X161.359 Y56.998 E.01424
G1 X161.805 Y57.204 E.01541
G1 X162.328 Y57.661 E.02178
G1 X162.647 Y58.157 E.01847
G1 X162.836 Y58.825 E.02179
G1 X162.836 Y158.916 E3.13827
G1 X162.579 Y159.732 E.02682
G1 X162.426 Y159.957 E.00855
G1 X161.914 Y160.466 E.02264
G1 X161.571 Y160.657 E.01229
G1 X160.908 Y160.844 E.02163
G1 X101.299 Y160.844 E1.86897
G1 X100.484 Y160.587 E.02682
G1 X100.258 Y160.434 E.00855
G1 X99.749 Y159.922 E.02264
G1 X99.559 Y159.58 E.01229
G1 X99.371 Y158.916 E.02163
G1 X99.371 Y58.825 E3.13827
G1 X99.61 Y58.066 E.02494
M204 S1000
G1 X99.957 Y58.195 F10800
M204 S800
G1 F1200
G1 X100.064 Y58.035 E.00606
G1 X100.504 Y57.588 E.01967
G1 X100.765 Y57.439 E.00942
G1 X101.328 Y57.274 E.01838
G1 X160.893 Y57.277 E1.86764
G1 X161.253 Y57.36 E.01157
G1 X161.618 Y57.533 E.01266
G1 X162.058 Y57.925 E.01848
G1 X162.293 Y58.29 E.01362
G1 X162.459 Y58.853 E.01841
G1 X162.459 Y158.887 E3.13648
G1 X162.251 Y159.546 E.02167
M73 P3 R90
M73 Q3 S91
G1 X162.143 Y159.706 E.00606
G1 X161.703 Y160.153 E.01967
G1 X161.442 Y160.302 E.00942
G1 X160.88 Y160.467 E.01838
G1 X101.329 Y160.467 E1.86718
G1 X100.67 Y160.259 E.02167
G1 X100.509 Y160.152 E.00606
G1 X100.063 Y159.711 E.01967
G1 X99.913 Y159.45 E.00942
G1 X99.748 Y158.888 E.01838
G1 X99.748 Y58.854 E3.13648
G1 X99.939 Y58.253 E.01979
M204 S1000
M73 Q3 S90
G1 X100.287 Y58.378 F10800
M204 S800
G1 F1200
G1 X100.349 Y58.282 E.00358
G1 X100.72 Y57.898 E.01672
G1 X100.9 Y57.792 E.00656
G1 X101.357 Y57.651 E.015
G1 X160.872 Y57.654 E1.86603
G1 X161.11 Y57.71 E.00767
G1 X161.43 Y57.861 E.01111
G1 X161.785 Y58.186 E.01508
G1 X161.942 Y58.427 E.00902
G1 X162.082 Y58.883 E.01495
G1 X162.082 Y158.857 E3.13462
G1 X161.92 Y159.363 E.01667
G1 X161.858 Y159.459 E.00358
G1 X161.487 Y159.843 E.01672
G1 X161.307 Y159.949 E.00656
G1 X160.85 Y160.09 E.015
G1 X101.358 Y160.09 E1.86533
G1 X100.852 Y159.928 E.01667
G1 X100.756 Y159.866 E.00358
G1 X100.373 Y159.495 E.01672
G1 X100.266 Y159.315 E.00656
G1 X100.125 Y158.858 E.015
G1 X100.125 Y58.884 E3.13462
G1 X100.269 Y58.435 E.01478
M204 S1000
M73 P3 R89
G1 X100.621 Y58.553 F10800
M204 S800
G1 F1200
G1 X100.942 Y58.204 E.01486
G1 X101.042 Y58.142 E.00372
G1 X101.389 Y58.028 E.01143
G1 X160.849 Y58.031 E1.86434
G1 X160.966 Y58.059 E.00377
G1 X161.24 Y58.188 E.0095
G1 X161.509 Y58.443 E.0116
G1 X161.592 Y58.57 E.00476
G1 X161.705 Y58.915 E.01136
G1 X161.705 Y158.826 E3.13266
G1 X161.568 Y159.217 E.01299
G1 X161.266 Y159.537 E.0138
G1 X161.165 Y159.599 E.00372
G1 X160.818 Y159.713 E.01143
G1 X101.389 Y159.713 E1.86336
G1 X100.998 Y159.576 E.01299
G1 X100.678 Y159.274 E.0138
G1 X100.616 Y159.173 E.00372
G1 X100.502 Y158.826 E.01143
G1 X100.502 Y58.915 E3.13266
G1 X100.602 Y58.61 E.01005
M204 S1000
G1 X100.956 Y58.737 F10800
M204 S800
G1 F1200
G1 X101.173 Y58.502 E.01002
G1 X101.424 Y58.405 E.00845
G1 X160.797 Y58.405 E1.86161
G1 X161.048 Y58.514 E.00856
G1 X161.247 Y58.722 E.00902
G1 X161.328 Y58.95 E.00757
G1 X161.328 Y158.791 E3.13046
G1 X161.252 Y159.004 E.00709
G1 X161.011 Y159.255 E.0109
G1 X160.783 Y159.336 E.00757
G1 X101.424 Y159.336 E1.86117
G1 X101.211 Y159.26 E.00709
G1 X100.961 Y159.019 E.0109
G1 X100.879 Y158.791 E.00757
G1 X100.879 Y58.95 E3.13046
G1 X100.935 Y58.793 E.00521
M204 S1000
M73 P4 R89
M73 Q4 S90
G1 X101.279 Y58.936 F10800
M204 S800
G1 F1200
G1 X101.397 Y58.811 E.00538
G1 X101.466 Y58.782 E.00235
G1 X160.741 Y58.782 E1.85854
G1 X160.811 Y58.811 E.00235
G1 X160.922 Y58.922 E.00495
G1 X160.951 Y58.992 E.00235
G1 X160.951 Y158.749 E3.12784
G1 X160.922 Y158.819 E.00235
M73 Q4 S89
G1 X160.811 Y158.93 E.00495
G1 X160.741 Y158.959 E.00235
G1 X101.466 Y158.959 E1.85854
G1 X101.397 Y158.93 E.00235
G1 X101.285 Y158.819 E.00495
G1 X101.256 Y158.749 E.00235
G1 X101.256 Y58.991 E3.12785
M204 S1000
; printing object Body9 id:0 copy 0
;WIPE_START
G1 F8640
G1 X101.397 Y58.811 E-.05278
G1 X101.466 Y58.782 E-.01732
G1 X104.454 Y58.782 E-.68991
;WIPE_END
G1 E-.04 F2100
G1 Z.6 F720
G1 X160.075 Y158.083 F10800
G1 Z.2 F720
G1 E.8 F2100
M204 S800
;TYPE:Perimeter
;WIDTH:0.419999
G1 F1200
G1 X102.132 Y158.083 E1.81677
G1 X102.132 Y59.658 E3.08607
G1 X160.075 Y59.658 E1.81677
M73 P4 R88
G1 X160.075 Y158.023 E3.08419
M204 S1000
G1 X160.452 Y158.461 F10800
M204 S800
;TYPE:External perimeter
G1 F1200
G1 X101.755 Y158.461 E1.84042
G1 X101.755 Y59.281 E3.10971
G1 X160.452 Y59.281 E1.84042
G1 X160.452 Y158.401 E3.10783
M204 S1000
G1 X160.076 Y158.325 F10800
;WIPE_START
G1 F8640
G1 X157.161 Y158.404 E-.76
;WIPE_END
G1 E-.04 F2100
G1 Z.6 F720
G1 X151.914 Y65.758 F10800
G1 Z.2 F720
G1 E.8 F2100
M204 S800
;TYPE:Perimeter
G1 F1200
G1 X152.107 Y66.185 E.01471
G1 X152.204 Y66.774 E.01871
G1 X152.145 Y67.368 E.01871
G1 X151.935 Y67.926 E.01871
G1 X151.587 Y68.411 E.01871
G1 X151.126 Y68.789 E.01871
G1 X150.582 Y69.035 E.01871
G1 X149.994 Y69.132 E.01871
G1 X149.4 Y69.073 E.0187
G1 X148.842 Y68.863 E.01871
G1 X148.357 Y68.515 E.01871
G1 X147.979 Y68.054 E.01871
G1 X147.733 Y67.51 E.01871
G1 X147.636 Y66.922 E.01871
G1 X147.694 Y66.328 E.0187
G1 X147.905 Y65.77 E.01871
G1 X148.252 Y65.285 E.01871
G1 X148.714 Y64.907 E.01871
G1 X149.257 Y64.661 E.01871
G1 X149.812 Y64.568 E.01763
G1 X150.429 Y64.621 E.01942
G1 X150.998 Y64.833 E.01903
G1 X151.483 Y65.181 E.01871
G1 X151.861 Y65.642 E.0187
G1 X151.889 Y65.703 E.00212
M204 S1000
G1 X151.601 Y65.951 F10800
M204 S800
;TYPE:External perimeter
G1 F1200
G1 X151.771 Y66.377 E.01438
G1 X151.832 Y66.848 E.01488
G1 X151.759 Y67.366 E.01641
G1 X151.562 Y67.824 E.01564
G1 X151.253 Y68.216 E.01564
G1 X150.854 Y68.515 E.01564
G1 X150.39 Y68.699 E.01564
G1 X149.895 Y68.758 E.01564
G1 X149.402 Y68.687 E.01564
G1 X148.943 Y68.49 E.01564
G1 X148.548 Y68.176 E.01583
G1 X148.253 Y67.782 E.01543
G1 X148.068 Y67.319 E.01564
G1 X148.009 Y66.823 E.01564
G1 X148.081 Y66.33 E.01564
G1 X148.278 Y65.871 E.01564
G1 X148.586 Y65.48 E.01564
G1 X148.986 Y65.181 E.01564
G1 X149.449 Y64.996 E.01564
G1 X149.907 Y64.942 E.01445
G1 X150.438 Y65.009 E.01678
G1 X150.896 Y65.206 E.01564
G1 X151.288 Y65.515 E.01564
G1 X151.575 Y65.898 E.01502
M204 S1000
G1 X152.001 Y65.959 F10800
;WIPE_START
G1 F8640
G1 X151.771 Y66.377 E-.11957
G1 X151.832 Y66.848 E-.10956
G1 X151.759 Y67.366 E-.12084
G1 X151.562 Y67.824 E-.11515
G1 X151.253 Y68.216 E-.11516
G1 X150.854 Y68.515 E-.11516
G1 X150.594 Y68.618 E-.06456
;WIPE_END
G1 E-.04 F2100
G1 Z.6 F720
G1 X151.94 Y91.318 F10800
G1 Z.2 F720
G1 E.8 F2100
M204 S800
;TYPE:Perimeter
G1 F1200
G1 X151.862 Y92.124 E.02539
G1 X151.61 Y92.914 E.02601
G1 X151.194 Y93.631 E.026
G1 X150.633 Y94.243 E.026
G1 X149.954 Y94.719 E.02601
G1 X149.189 Y95.038 E.026
G1 X148.372 Y95.185 E.02601
G1 X147.568 Y95.155 E.02525
G1 X146.741 Y94.945 E.02675
G1 X146.002 Y94.568 E.02601
G1 X145.51 Y94.168 E.01988
G1 X145.277 Y93.952 E.00995
G1 X144.849 Y93.389 E.02219
G1 X144.489 Y92.642 E.02601
G1 X144.298 Y91.835 E.026
G1 X144.284 Y91.005 E.026
G1 X144.45 Y90.193 E.02601
G1 X144.786 Y89.434 E.02601
G1 X145.277 Y88.766 E.026
G1 X145.901 Y88.219 E.02601
G1 X146.627 Y87.819 E.026
G1 X147.423 Y87.585 E.026
G1 X148.222 Y87.528 E.02512
G1 X149.066 Y87.647 E.02673
G1 X149.846 Y87.942 E.02615
G1 X150.54 Y88.397 E.026
G1 X151.12 Y88.99 E.026
G1 X151.559 Y89.693 E.02601
G1 X151.836 Y90.475 E.026
G1 X151.934 Y91.258 E.02474
M204 S1000
M73 P5 R88
G1 X151.562 Y91.322 F10800
M204 S800
;TYPE:External perimeter
G1 F1200
G1 X151.487 Y92.083 E.02399
G1 X151.253 Y92.794 E.02346
G1 X150.871 Y93.437 E.02346
G1 X150.359 Y93.983 E.02346
G1 X149.742 Y94.407 E.02346
G1 X149.049 Y94.688 E.02346
G1 X148.311 Y94.813 E.02346
G1 X147.588 Y94.778 E.0227
G1 X146.842 Y94.581 E.0242
G1 X146.179 Y94.235 E.02346
G1 X145.755 Y93.88 E.01733
G1 X145.578 Y93.724 E.0074
G1 X145.149 Y93.161 E.02219
G1 X144.831 Y92.483 E.02346
G1 X144.666 Y91.754 E.02346
G1 X144.662 Y91.005 E.02346
G1 X144.818 Y90.274 E.02346
G1 X145.128 Y89.593 E.02346
G1 X145.578 Y88.994 E.02346
G1 X146.145 Y88.507 E.02346
G1 X146.804 Y88.152 E.02346
G1 X147.524 Y87.948 E.02346
G1 X148.242 Y87.905 E.02257
G1 X149.008 Y88.019 E.02428
G1 X149.706 Y88.293 E.02351
G1 X150.328 Y88.709 E.02346
G1 X150.846 Y89.249 E.02346
G1 X151.235 Y89.888 E.02346
G1 X151.479 Y90.595 E.02346
G1 X151.555 Y91.262 E.02104
M204 S1000
G1 X151.91 Y91.518 F10800
;WIPE_START
G1 F8640
G1 X151.487 Y92.083 E-.19021
G1 X151.253 Y92.794 E-.17277
G1 X150.871 Y93.437 E-.17277
G1 X150.359 Y93.983 E-.17277
G1 X150.175 Y94.109 E-.05148
;WIPE_END
