; generated by PrusaSlicer 2.5.2+win64 on 2023-05-11 at 23:10:53 UTC

; 

; external perimeters extrusion width = 0.45mm
; perimeters extrusion width = 0.45mm
; infill extrusion width = 0.45mm
; solid infill extrusion width = 0.45mm
; top infill extrusion width = 0.40mm
; first layer extrusion width = 0.42mm

M73 P0 R24
M73 Q0 S24
M201 X1000 Y1000 Z200 E5000 ; sets maximum accelerations, mm/sec^2
M203 X200 Y200 Z12 E120 ; sets maximum feedrates, mm / sec
M204 P1250 R1250 T1250 ; sets acceleration (P, T) and retract acceleration (R), mm/sec^2
M205 X8.00 Y8.00 Z0.40 E4.50 ; sets the jerk limits, mm/sec
M205 S0 T0 ; sets the minimum extruding and travel feed rate, mm/sec
M107
;TYPE:Custom
M862.3 P "MK3" ; printer model check
M862.1 P0.4 ; nozzle diameter check
M115 U3.10.1 ; tell printer latest fw version
G90 ; use absolute coordinates
M83 ; extruder relative mode
M104 S215 ; set extruder temp
M140 S60 ; set bed temp
M190 S60 ; wait for bed temp
M109 S215 ; wait for extruder temp
G28 W ; home all without mesh bed level
G80 ; mesh bed leveling
G1 Z0.2 F720
G1 Y-3 F1000 ; go outside print area
G92 E0
G1 X60 E9 F1000 ; intro line
G1 X100 E12.5 F1000 ; intro line
G92 E0
M221 S95

; Don't change E values below. Excessive value can damage the printer.
M907 E430 ; set extruder motor current
G21 ; set units to millimeters
G90 ; use absolute coordinates
M83 ; use relative distances for extrusion
M900 K0.05 ; Filament gcode LA 1.5
M900 K30 ; Filament gcode LA 1.0
M107
;LAYER_CHANGE
;Z:0.2
;HEIGHT:0.2
;BEFORE_LAYER_CHANGE
G92 E0.0
;0.2


G1 E-.8 F2100
G1 Z.4 F720
;AFTER_LAYER_CHANGE
;0.2
G1 X103.003 Y86.321 F10800
G1 Z.2 F720
G1 E.8 F2100
M204 S800
;TYPE:Skirt/Brim
;WIDTH:0.42
G1 F1200
G1 X103.685 Y85.557 E.03212
G1 X104.66 Y84.666 E.0414
G1 X105.616 Y83.971 E.03707
G1 X106.885 Y83.253 E.04571
G1 X107.976 Y82.797 E.03707
G1 X109.802 Y82.306 E.05928
G1 X110.974 Y82.155 E.03707
G1 X111.932 Y82.123 E.03005
G1 X134.801 Y82.124 E.71702
G1 X136.859 Y82.306 E.0648
G1 X138.556 Y82.749 E.05497
G1 X139.508 Y83.128 E.03212
G1 X140.558 Y83.671 E.03707
G1 X142.001 Y84.666 E.05497
G1 X142.767 Y85.347 E.03212
G1 X143.569 Y86.216 E.03707
G1 X144.586 Y87.644 E.05497
G1 X145.253 Y88.94 E.04571
G1 X145.671 Y90.046 E.03707
G1 X145.938 Y91.035 E.03212
G1 X146.149 Y92.339 E.04139
G1 X146.208 Y93.594 E.0394
G1 X146.184 Y117.229 E.74105
G1 X145.999 Y118.675 E.04571
G1 X145.578 Y120.235 E.05066
G1 X145.073 Y121.455 E.0414
G1 X144.354 Y122.723 E.04571
G1 X143.658 Y123.679 E.03707
G1 X142.767 Y124.653 E.0414
G1 X141.769 Y125.517 E.0414
G1 X140.678 Y126.26 E.0414
G1 X139.508 Y126.872 E.0414
G1 X138.275 Y127.344 E.0414
G1 X136.995 Y127.67 E.0414
G1 X135.687 Y127.845 E.04139
G1 X110.974 Y127.845 E.77484
G1 X109.376 Y127.61 E.05066
G1 X108.105 Y127.251 E.0414
G1 X106.885 Y126.747 E.0414
G1 X105.616 Y126.029 E.04571
G1 X104.66 Y125.334 E.03707
G1 X103.685 Y124.443 E.0414
G1 X102.819 Y123.446 E.0414
G1 X102.075 Y122.356 E.04139
G1 X101.463 Y121.186 E.0414
G1 X100.99 Y119.954 E.0414
G1 X100.663 Y118.675 E.04139
G1 X100.486 Y117.366 E.0414
G1 X100.486 Y92.634 E.77547
G1 X100.663 Y91.325 E.0414
M73 P1 R24
M73 Q1 S24
G1 X101.083 Y89.765 E.05066
G1 X101.588 Y88.545 E.0414
G1 X102.307 Y87.277 E.04571
G1 X102.968 Y86.37 E.03519
M204 S1000
;WIPE_START
G1 F8640
G1 X103.685 Y85.557 E-.25035
G1 X104.66 Y84.666 E-.30485
G1 X105.377 Y84.145 E-.2048
;WIPE_END
G1 E-.04 F2100
G1 Z.6 F720
G1 X105.08 Y87.99 F10800
G1 Z.2 F720
G1 E.8 F2100
M204 S800
G1 F1200
G1 X105.713 Y87.296 E.02945
G1 X106.408 Y86.68 E.02911
G1 X107.221 Y86.106 E.03121
G1 X108.094 Y85.629 E.0312
G1 X109.151 Y85.209 E.03567
G1 X110.033 Y84.975 E.0286
G1 X110.948 Y84.832 E.02905
G1 X112.163 Y84.793 E.03812
G1 X113.173 Y84.891 E.03179
G1 X114.148 Y85.101 E.03129
G1 X115.078 Y85.415 E.03077
G1 X116 Y85.849 E.03196
G1 X116.747 Y86.306 E.02744
G1 X123.331 Y90.89 E.25155
G1 X129.945 Y86.286 E.2527
G1 X130.73 Y85.812 E.02874
G1 X131.643 Y85.391 E.03154
G1 X132.577 Y85.084 E.03081
G1 X133.507 Y84.888 E.02981
G1 X134.525 Y84.792 E.03204
G1 X135.539 Y84.816 E.0318
G1 X136.616 Y84.972 E.03413
G1 X137.653 Y85.257 E.03373
G1 X138.63 Y85.659 E.03313
G1 X139.549 Y86.175 E.03304
G1 X140.245 Y86.674 E.02685
G1 X140.892 Y87.24 E.02696
G1 X141.717 Y88.162 E.03878
G1 X142.281 Y88.983 E.03125
G1 X142.747 Y89.861 E.03116
G1 X143.11 Y90.787 E.03118
G1 X143.369 Y91.766 E.03175
G1 X143.512 Y92.761 E.03152
G1 X143.54 Y93.732 E.03047
G1 X143.46 Y94.7 E.03045
G1 X143.267 Y95.679 E.03129
G1 X142.947 Y96.668 E.03259
G1 X142.556 Y97.529 E.02964
G1 X142.064 Y98.356 E.03017
G1 X137.449 Y105 E.25365
G1 X142.058 Y111.635 E.25332
G1 X142.536 Y112.433 E.02917
G1 X142.933 Y113.296 E.02978
G1 X143.239 Y114.216 E.03038
G1 X143.441 Y115.167 E.03048
G1 X143.538 Y116.185 E.03209
G1 X143.515 Y117.21 E.03212
G1 X143.361 Y118.274 E.03371
G1 X143.079 Y119.306 E.03356
G1 X142.68 Y120.282 E.03304
G1 X142.155 Y121.219 E.03368
G1 X141.559 Y122.036 E.03173
G1 X140.921 Y122.73 E.02955
G1 X140.207 Y123.356 E.02979
G1 X139.379 Y123.931 E.03159
G1 X138.496 Y124.404 E.03142
G1 X137.561 Y124.774 E.03151
G1 X136.588 Y125.034 E.03157
G1 X135.59 Y125.18 E.03165
G1 X134.589 Y125.21 E.03138
G1 X133.604 Y125.126 E.031
G1 X132.615 Y124.926 E.03164
G1 X131.633 Y124.605 E.03239
G1 X130.778 Y124.213 E.0295
G1 X129.958 Y123.722 E.02996
G1 X123.33 Y119.11 E.25317
G1 X116.706 Y123.72 E.25306
G1 X115.953 Y124.176 E.0276
G1 X115.067 Y124.589 E.03065
G1 X114.07 Y124.92 E.03294
G1 X113.042 Y125.128 E.0329
G1 X111.948 Y125.212 E.03439
G1 X111.065 Y125.179 E.0277
G1 X110.175 Y125.055 E.02818
G1 X109.123 Y124.781 E.03409
G1 X108.12 Y124.384 E.03382
G1 X107.197 Y123.879 E.03301
G1 X106.353 Y123.276 E.03249
G1 X105.62 Y122.611 E.03104
G1 X104.977 Y121.879 E.03056
G1 X104.411 Y121.068 E.03102
G1 X103.936 Y120.187 E.03136
G1 X103.561 Y119.244 E.03183
G1 X103.3 Y118.275 E.03144
G1 X103.156 Y117.317 E.03039
G1 X103.12 Y116.277 E.03263
G1 X103.202 Y115.287 E.03114
G1 X103.396 Y114.314 E.03111
G1 X103.721 Y113.313 E.033
G1 X104.114 Y112.454 E.0296
G1 X104.604 Y111.634 E.02997
G1 X109.212 Y105 E.25325
G1 X104.624 Y98.398 E.25208
G1 X104.102 Y97.523 E.03194
G1 X103.69 Y96.607 E.03151
G1 X103.401 Y95.705 E.02969
G1 X103.211 Y94.77 E.02989
G1 X103.12 Y93.698 E.03375
G1 X103.148 Y92.775 E.02894
G1 X103.275 Y91.85 E.02929
G1 X103.578 Y90.706 E.03712
G1 X103.932 Y89.822 E.02983
G1 X104.391 Y88.964 E.03053
G1 X105.046 Y88.039 E.03552
M204 S1000
G1 X105.352 Y88.257 F10800
M204 S800
G1 F1200
G1 X105.971 Y87.571 E.02895
G1 X106.634 Y86.982 E.02782
G1 X107.411 Y86.432 E.02985
G1 X108.265 Y85.965 E.03049
G1 X109.259 Y85.571 E.03354
G1 X110.12 Y85.342 E.02793
G1 X110.994 Y85.206 E.02775
G1 X112.139 Y85.17 E.03592
G1 X113.105 Y85.262 E.0304
G1 X114.038 Y85.462 E.02994
G1 X114.928 Y85.761 E.02942
G1 X115.812 Y86.177 E.03065
G1 X116.536 Y86.619 E.02659
G1 X123.331 Y91.35 E.2596
G1 X130.156 Y86.599 E.26074
G1 X130.916 Y86.141 E.02783
G1 X131.772 Y85.746 E.02957
G1 X132.665 Y85.45 E.0295
G1 X133.554 Y85.262 E.02848
G1 X134.528 Y85.17 E.03067
G1 X135.497 Y85.191 E.03039
G1 X136.528 Y85.339 E.03267
G1 X137.521 Y85.61 E.03228
G1 X138.456 Y85.994 E.03169
G1 X139.338 Y86.488 E.03169
G1 X140.018 Y86.975 E.02622
G1 X140.635 Y87.516 E.02573
G1 X141.413 Y88.385 E.03658
G1 X141.964 Y89.188 E.03052
G1 X142.409 Y90.028 E.0298
G1 X142.755 Y90.914 E.02983
G1 X143.002 Y91.851 E.03039
G1 X143.137 Y92.803 E.03016
G1 X143.163 Y93.732 E.02913
G1 X143.086 Y94.658 E.02913
G1 X142.899 Y95.594 E.02995
G1 X142.599 Y96.522 E.03056
G1 X142.217 Y97.363 E.02897
G1 X141.744 Y98.157 E.02898
G1 X136.99 Y105 E.26125
M73 P1 R23
G1 X141.745 Y111.845 E.26133
G1 X142.207 Y112.618 E.02825
G1 X142.586 Y113.444 E.02848
G1 X142.877 Y114.324 E.02908
G1 X143.067 Y115.213 E.0285
G1 X143.161 Y116.189 E.03072
G1 X143.14 Y117.168 E.03071
G1 X142.994 Y118.186 E.03226
G1 X142.726 Y119.175 E.03211
G1 X142.345 Y120.108 E.0316
G1 X141.843 Y121.006 E.03226
G1 X141.273 Y121.79 E.03038
G1 X140.665 Y122.454 E.02825
G1 X139.982 Y123.053 E.02847
G1 X139.192 Y123.604 E.03022
G1 X138.328 Y124.067 E.03072
G1 X137.433 Y124.419 E.03014
G1 X136.502 Y124.667 E.03022
G1 X135.567 Y124.803 E.02963
G1 X134.61 Y124.833 E.03002
G1 X133.647 Y124.751 E.03031
G1 X132.7 Y124.559 E.03027
G1 X131.78 Y124.258 E.03036
G1 X130.944 Y123.875 E.02883
G1 X130.157 Y123.402 E.02878
G1 X123.33 Y118.65 E.2608
G1 X116.496 Y123.407 E.26109
G1 X115.767 Y123.848 E.02671
M73 Q2 S24
G1 X114.938 Y124.235 E.02868
G1 X113.963 Y124.559 E.03223
G1 X112.979 Y124.756 E.03146
G1 X111.952 Y124.835 E.03231
M73 P2 R23
G1 X111.089 Y124.803 E.02706
G1 X110.239 Y124.683 E.02692
G1 X109.23 Y124.42 E.0327
G1 X108.271 Y124.038 E.03236
G1 X107.388 Y123.553 E.03157
G1 X106.582 Y122.976 E.03109
G1 X105.896 Y122.354 E.02904
G1 X105.28 Y121.655 E.02922
G1 X104.726 Y120.861 E.03034
G1 X104.274 Y120.018 E.02999
G1 X103.915 Y119.115 E.03047
G1 X103.672 Y118.208 E.02944
G1 X103.532 Y117.293 E.02904
G1 X103.497 Y116.297 E.03124
G1 X103.577 Y115.329 E.03045
G1 X103.764 Y114.399 E.02975
G1 X104.069 Y113.46 E.03096
G1 X104.452 Y112.621 E.02893
G1 X104.924 Y111.833 E.02879
G1 X109.671 Y105 E.26087
G1 X104.938 Y98.188 E.26009
G1 X104.432 Y97.34 E.03098
M73 Q2 S23
G1 X104.039 Y96.462 E.03015
G1 X103.768 Y95.619 E.02776
G1 X103.586 Y94.727 E.02855
G1 X103.497 Y93.698 E.03237
G1 X103.524 Y92.797 E.02827
G1 X103.647 Y91.913 E.02798
G1 X103.932 Y90.835 E.03497
G1 X104.278 Y89.972 E.02914
G1 X104.718 Y89.153 E.02917
G1 X105.318 Y88.305 E.03254
M204 S1000
G1 X105.624 Y88.523 F10800
M204 S800
G1 F1200
G1 X106.229 Y87.846 E.02846
G1 X106.861 Y87.283 E.02653
G1 X107.602 Y86.757 E.02849
G1 X108.435 Y86.302 E.02978
G1 X109.367 Y85.932 E.03143
G1 X110.188 Y85.713 E.02664
G1 X111.041 Y85.58 E.02706
G1 X112.116 Y85.546 E.03372
G1 X113.037 Y85.633 E.02901
G1 X113.929 Y85.823 E.0286
G1 X114.778 Y86.107 E.02806
G1 X115.625 Y86.504 E.02933
G1 X116.325 Y86.931 E.02572
G1 X123.331 Y91.809 E.26765
G1 X130.366 Y86.912 E.26877
G1 X131.101 Y86.469 E.02692
G1 X131.9 Y86.1 E.02759
G1 X132.774 Y85.812 E.02883
G1 X133.621 Y85.634 E.02716
G1 X134.531 Y85.547 E.02866
G1 X135.455 Y85.566 E.02898
G1 X136.441 Y85.706 E.03121
G1 X137.389 Y85.964 E.03082
G1 X138.283 Y86.329 E.03026
G1 X139.128 Y86.801 E.03034
G1 X139.776 Y87.264 E.025
G1 X140.377 Y87.792 E.02508
G1 X141.109 Y88.609 E.03438
G1 X141.647 Y89.392 E.02979
G1 X142.07 Y90.194 E.02843
G1 X142.393 Y91.02 E.02781
G1 X142.634 Y91.936 E.0297
G1 X142.762 Y92.845 E.02878
G1 X142.786 Y93.731 E.0278
G1 X142.711 Y94.615 E.02781
G1 X142.531 Y95.51 E.02861
G1 X142.252 Y96.376 E.02855
G1 X141.888 Y97.179 E.02764
G1 X141.423 Y97.958 E.02844
G1 X136.53 Y105 E.26885
G1 X141.432 Y112.055 E.26934
G1 X141.878 Y112.803 E.02732
G1 X142.231 Y113.572 E.02654
G1 X142.516 Y114.433 E.02842
G1 X142.695 Y115.281 E.02718
G1 X142.783 Y116.192 E.0287
G1 X142.765 Y117.126 E.0293
G1 X142.627 Y118.099 E.03081
G1 X142.372 Y119.044 E.03067
G1 X142.01 Y119.935 E.03016
G1 X141.532 Y120.794 E.03083
G1 X140.988 Y121.543 E.02903
G1 X140.408 Y122.178 E.02696
G1 X139.757 Y122.75 E.02716
G1 X139.003 Y123.277 E.02885
G1 X138.179 Y123.72 E.02933
G1 X137.306 Y124.064 E.02943
G1 X136.416 Y124.299 E.02884
G1 X135.524 Y124.429 E.02829
G1 X134.63 Y124.456 E.02802
G1 X133.711 Y124.38 E.02893
G1 X132.786 Y124.192 E.02958
G1 X131.928 Y123.91 E.02833
G1 X131.111 Y123.536 E.02816
G1 X130.357 Y123.082 E.02759
G1 X123.331 Y118.191 E.26845
G1 X116.286 Y123.094 E.26913
G1 X115.581 Y123.52 E.02582
G1 X114.809 Y123.881 E.0267
G1 X113.855 Y124.197 E.03151
G1 X112.916 Y124.384 E.03001
G1 X111.955 Y124.458 E.03025
G1 X111.132 Y124.428 E.0258
G1 X110.303 Y124.311 E.02627
G1 X109.337 Y124.058 E.03131
G1 X108.422 Y123.692 E.03089
G1 X107.58 Y123.229 E.03013
G1 X106.811 Y122.676 E.02969
G1 X106.158 Y122.082 E.02769
G1 X105.583 Y121.43 E.02726
G1 X105.053 Y120.673 E.02897
G1 X104.611 Y119.85 E.02929
G1 X104.27 Y118.987 E.0291
G1 X104.043 Y118.141 E.02746
G1 X103.909 Y117.268 E.02769
G1 X103.874 Y116.316 E.02985
G1 X103.949 Y115.392 E.02906
G1 X104.131 Y114.484 E.02905
G1 X104.416 Y113.607 E.02891
G1 X104.791 Y112.787 E.02826
G1 X105.244 Y112.032 E.0276
G1 X110.131 Y105 E.2685
G1 X105.251 Y97.978 E.2681
G1 X104.771 Y97.175 E.02934
G1 X104.394 Y96.336 E.02883
G1 X104.136 Y95.532 E.02648
G1 X103.96 Y94.683 E.0272
G1 X103.874 Y93.698 E.03099
G1 X103.899 Y92.839 E.02696
G1 X104.019 Y91.976 E.0273
G1 X104.286 Y90.965 E.03281
G1 X104.624 Y90.123 E.02844
G1 X105.044 Y89.342 E.02781
G1 X105.59 Y88.572 E.02959
M204 S1000
G1 X105.897 Y88.789 F10800
M204 S800
G1 F1200
G1 X106.501 Y88.107 E.02857
G1 X107.104 Y87.572 E.02526
G1 X107.811 Y87.072 E.02717
G1 X108.585 Y86.648 E.02767
G1 X109.496 Y86.287 E.03071
G1 X110.275 Y86.08 E.02528
G1 X111.064 Y85.957 E.02505
G1 X112.116 Y85.923 E.03299
G1 X112.97 Y86.004 E.02689
G1 X113.82 Y86.184 E.02724
G1 X114.648 Y86.461 E.02738
G1 X115.437 Y86.831 E.02734
G1 X116.114 Y87.244 E.02486
G1 X123.331 Y92.269 E.2757
G1 X130.576 Y87.225 E.27681
G1 X131.269 Y86.807 E.02538
G1 X132.029 Y86.455 E.02625
G1 X132.882 Y86.173 E.02815
G1 X133.688 Y86.005 E.02582
G1 X134.555 Y85.923 E.02732
G1 X135.436 Y85.943 E.02761
G1 X136.354 Y86.073 E.02907
G1 X137.258 Y86.317 E.02936
G1 X138.129 Y86.673 E.02952
G1 X138.917 Y87.113 E.02828
G1 X139.549 Y87.566 E.02437
G1 X140.12 Y88.068 E.02383
G1 X140.82 Y88.851 E.03294
G1 X141.319 Y89.578 E.02765
G1 X141.723 Y90.341 E.02708
G1 X142.038 Y91.147 E.02713
G1 X142.262 Y92 E.02765
G1 X142.386 Y92.866 E.02744
G1 X142.409 Y93.711 E.02648
G1 X142.339 Y94.552 E.02648
G1 X142.169 Y95.404 E.02725
G1 X141.896 Y96.25 E.02786
G1 X141.549 Y97.013 E.0263
G1 X141.11 Y97.748 E.02684
G1 X136.071 Y105 E.27687
G1 X141.111 Y112.254 E.27696
G1 X141.54 Y112.969 E.02614
G1 X141.884 Y113.72 E.02589
G1 X142.15 Y114.521 E.02647
G1 X142.321 Y115.328 E.02587
G1 X142.406 Y116.196 E.02734
G1 X142.39 Y117.086 E.02789
G1 X142.26 Y118.013 E.02937
G1 X142.018 Y118.913 E.02921
G1 X141.665 Y119.782 E.02942
G1 X141.208 Y120.6 E.02938
G1 X140.689 Y121.313 E.02763
G1 X140.137 Y121.915 E.02564
G1 X139.517 Y122.46 E.02587
G1 X138.797 Y122.961 E.02751
G1 X138.011 Y123.382 E.02795
G1 X137.178 Y123.709 E.02804
G1 X136.331 Y123.932 E.02747
G1 X135.501 Y124.052 E.02631
G1 X134.65 Y124.08 E.02668
G1 X133.774 Y124.008 E.02756
G1 X132.893 Y123.83 E.02819
M73 Q3 S23
G1 X132.055 Y123.555 E.02764
G1 X131.296 Y123.208 E.02617
G1 X130.567 Y122.769 E.02667
G1 X123.331 Y117.731 E.27648
M73 P3 R23
G1 X116.085 Y122.775 E.2768
G1 X115.412 Y123.183 E.02468
G1 X114.66 Y123.534 E.02603
G1 X113.748 Y123.835 E.03009
G1 X112.855 Y124.012 E.02856
G1 X111.937 Y124.081 E.02885
G1 X111.156 Y124.052 E.02451
G1 X110.388 Y123.943 E.02433
G1 X109.444 Y123.696 E.03059
G1 X108.574 Y123.346 E.02941
G1 X107.772 Y122.904 E.02869
G1 X107.04 Y122.377 E.02828
G1 X106.42 Y121.811 E.02635
G1 X105.873 Y121.189 E.02595
G1 X105.369 Y120.466 E.02763
G1 X104.949 Y119.682 E.02791
G1 X104.625 Y118.859 E.02773
G1 X104.41 Y118.053 E.02614
G1 X104.285 Y117.242 E.02572
G1 X104.251 Y116.335 E.02847
G1 X104.321 Y115.455 E.02768
G1 X104.493 Y114.59 E.02766
G1 X104.772 Y113.734 E.02822
G1 X105.12 Y112.972 E.02626
G1 X105.557 Y112.242 E.02668
G1 X110.59 Y105 E.27652
G1 X105.571 Y97.779 E.27572
G1 X105.11 Y97.01 E.0281
G1 X104.743 Y96.192 E.02814
G1 X104.498 Y95.427 E.02517
G1 X104.335 Y94.639 E.02523
G1 X104.251 Y93.677 E.03029
G1 X104.276 Y92.86 E.0256
G1 X104.386 Y92.062 E.02528
G1 X104.648 Y91.072 E.03209
G1 X104.961 Y90.292 E.02637
G1 X105.359 Y89.55 E.02639
G1 X105.863 Y88.838 E.02733
M204 S1000
G1 X106.169 Y89.055 F10800
M204 S800
G1 F1200
G1 X106.242 Y88.952 E.00396
G1 X106.76 Y88.382 E.02414
G1 X107.346 Y87.861 E.0246
G1 X108.019 Y87.386 E.02584
G1 X108.755 Y86.985 E.02629
G1 X109.624 Y86.642 E.02927
G1 X110.362 Y86.447 E.02393
G1 X111.11 Y86.331 E.02376
G1 X112.093 Y86.3 E.03081
G1 X112.903 Y86.376 E.02552
G1 X113.711 Y86.545 E.02589
G1 X114.498 Y86.808 E.02602
G1 X115.25 Y87.159 E.02602
G1 X115.904 Y87.557 E.02399
G1 X123.331 Y92.728 E.28375
G1 X130.787 Y87.538 E.28485
G1 X131.455 Y87.135 E.02447
G1 X132.158 Y86.81 E.02428
G1 X132.989 Y86.535 E.02746
G1 X133.754 Y86.376 E.02447
