; generated by PrusaSlicer 2.5.2+win64 on 2023-06-14 at 00:34:57 UTC

; 

; external perimeters extrusion width = 0.45mm
; perimeters extrusion width = 0.45mm
; infill extrusion width = 0.45mm
; solid infill extrusion width = 0.45mm
; top infill extrusion width = 0.45mm
; first layer extrusion width = 0.42mm

; external perimeters extrusion width = 0.45mm
; perimeters extrusion width = 0.45mm
; infill extrusion width = 0.45mm
; solid infill extrusion width = 0.45mm
; top infill extrusion width = 0.45mm
; first layer extrusion width = 0.42mm

M73 P0 R39
M73 Q0 S40
M201 X1000 Y1000 Z200 E5000 ; sets maximum accelerations, mm/sec^2
M203 X200 Y200 Z12 E120 ; sets maximum feedrates, mm / sec
M204 P1250 R1250 T1250 ; sets acceleration (P, T) and retract acceleration (R), mm/sec^2
M205 X8.00 Y8.00 Z0.40 E4.50 ; sets the jerk limits, mm/sec
M205 S0 T0 ; sets the minimum extruding and travel feed rate, mm/sec
M107
;TYPE:Custom
M862.3 P "MK3" ; printer model check
M862.1 P0.4 ; nozzle diameter check
M115 U3.10.1 ; tell printer latest fw version
G90 ; use absolute coordinates
M83 ; extruder relative mode
M104 S215 ; set extruder temp
M140 S60 ; set bed temp
M190 S60 ; wait for bed temp
M109 S215 ; wait for extruder temp
G28 W ; home all without mesh bed level
G80 ; mesh bed leveling
G1 Z0.2 F720
G1 Y-3 F1000 ; go outside print area
G92 E0
G1 X60 E9 F1000 ; intro line
G1 X100 E12.5 F1000 ; intro line
G92 E0
M221 S95

; Don't change E values below. Excessive value can damage the printer.

M907 E538 ; set extruder motor current
G21 ; set units to millimeters
G90 ; use absolute coordinates
M83 ; use relative distances for extrusion
M900 K0.05 ; Filament gcode LA 1.5
M900 K30 ; Filament gcode LA 1.0
M107
;LAYER_CHANGE
;Z:0.4
;HEIGHT:0.4
;BEFORE_LAYER_CHANGE
G92 E0.0
;0.4


G1 E-.8 F2100
G1 Z.4 F720
;AFTER_LAYER_CHANGE
;0.4
G1 Z.8
G1 X50.144 Y80.629 F10800
G1 Z.4 F720
G1 E.8 F2100
M204 S800
;TYPE:Skirt/Brim
;WIDTH:0.42
G1 F1200
G1 X124.619 Y34.313 E4.8737
G1 X125.851 Y33.961 E.07124
M73 Q0 S39
G1 X138.017 Y33.961 E.67606
G1 X139.668 Y34.644 E.09928
G1 X142.655 Y37.632 E.23479
G1 X143.339 Y39.282 E.09928
G1 X143.339 Y120.887 E4.53486
G1 X142.655 Y122.538 E.09928
G1 X139.668 Y125.525 E.23479
G1 X138.017 Y126.209 E.09928
G1 X125.655 Y126.201 E.68696
G1 X31.132 Y118.234 E5.27137
G1 X29.678 Y117.559 E.08912
G1 X26.69 Y114.571 E.23479
G1 X26.006 Y112.921 E.09928
G1 X26.006 Y98.067 E.82543
G1 X26.69 Y96.417 E.09928
G1 X29.678 Y93.429 E.23479
G1 X30.095 Y93.097 E.02964
M73 P1 R39
M73 Q1 S39
G1 X50.093 Y80.661 E1.30866
M204 S1000
;WIPE_START
G1 F8640
G1 X52.888 Y78.923 E-.76
;WIPE_END
G1 E-.04 F2100
G1 Z.8 F720
G1 X123.353 Y80.661 F10800
G1 Z.4 F720
G1 E.8 F2100
M204 S800
G1 F1200
G1 X123.353 Y40.996 E2.20422
G1 X123.711 Y39.583 E.08103
G1 X124.511 Y38.331 E.08256
G1 X125.618 Y37.408 E.08011
G1 X126.933 Y36.886 E.07861
G1 X136.66 Y36.832 E.54053
G1 X137.452 Y37.038 E.04551
G1 X138.209 Y37.38 E.04616
G1 X139.263 Y38.222 E.07495
G1 X140.114 Y39.486 E.08468
G1 X140.516 Y40.995 E.08679
G1 X140.516 Y119.174 E4.34445
G1 X140.157 Y120.587 E.08103
G1 X139.358 Y121.839 E.08256
G1 X138.25 Y122.762 E.0801
G1 X136.937 Y123.284 E.07852
G1 X127.573 Y123.387 E.52042
G1 X125.973 Y122.946 E.09222
G1 X124.685 Y122.023 E.08803
G1 X123.765 Y120.719 E.08867
G1 X123.353 Y119.186 E.08822
G1 X123.353 Y80.721 E2.13757
M204 S1000
G1 X123.687 Y80.721 F10800
M204 S800
G1 F1200
G1 X123.687 Y41.016 E2.20642
G1 X124.008 Y39.738 E.07325
G1 X124.746 Y38.569 E.07685
G1 X125.767 Y37.708 E.07419
G1 X127.027 Y37.208 E.07534
G1 X136.596 Y37.16 E.53178
G1 X137.354 Y37.358 E.04349
G1 X138.051 Y37.675 E.04258
G1 X139.033 Y38.466 E.07004
G1 X139.82 Y39.648 E.07893
G1 X140.182 Y41.017 E.07868
G1 X140.182 Y119.153 E4.34212
G1 X139.86 Y120.432 E.07325
G1 X139.122 Y121.601 E.07685
G1 X138.101 Y122.462 E.07419
G1 X136.843 Y122.962 E.07527
G1 X127.593 Y123.052 E.51406
G1 X126.141 Y122.656 E.08359
G1 X124.94 Y121.806 E.0818
G1 X124.08 Y120.602 E.08221
G1 X123.687 Y119.164 E.08284
G1 X123.687 Y80.781 E2.13298
M204 S1000
G1 X124.021 Y80.781 F10800
M204 S800
G1 F1200
G1 X124.021 Y41.038 E2.20857
G1 X124.325 Y39.847 E.06826
M73 P2 R38
M73 Q2 S39
G1 X125.013 Y38.771 E.07099
G1 X125.959 Y37.983 E.06844
G1 X127.119 Y37.53 E.06919
G1 X136.534 Y37.489 E.5232
G1 X137.229 Y37.668 E.03986
G1 X137.893 Y37.97 E.04054
G1 X138.802 Y38.709 E.06512
G1 X139.504 Y39.761 E.0703
G1 X139.847 Y41.039 E.07352
G1 X139.847 Y119.132 E4.33971
G1 X139.543 Y120.322 E.06826
G1 X138.855 Y121.399 E.07099
G1 X137.909 Y122.187 E.06844
G1 X136.75 Y122.639 E.06913
G1 X127.612 Y122.718 E.50781
G1 X126.308 Y122.365 E.07507
G1 X125.193 Y121.586 E.0756
G1 X124.393 Y120.483 E.07572
G1 X124.021 Y119.141 E.0774
G1 X124.021 Y80.841 E2.12837
M204 S1000
G1 X124.355 Y80.841 F10800
M204 S800
G1 F1200
G1 X124.355 Y41.059 E2.21071
G1 X124.641 Y39.958 E.06321
G1 X125.279 Y38.975 E.06511
G1 X126.15 Y38.258 E.06269
G1 X127.21 Y37.853 E.06305
G1 X136.472 Y37.818 E.51469
G1 X137.131 Y37.988 E.03782
G1 X137.733 Y38.265 E.03684
G1 X138.57 Y38.951 E.06016
G1 X139.21 Y39.922 E.06463
G1 X139.513 Y41.061 E.06547
G1 X139.513 Y119.111 E4.33731
G1 X139.227 Y120.212 E.06321
G1 X138.589 Y121.194 E.06511
G1 X137.718 Y121.911 E.06269
G1 X136.659 Y122.316 E.06301
G1 X127.633 Y122.384 E.50159
G1 X126.425 Y122.051 E.06965
G1 X125.447 Y121.367 E.0663
G1 X124.682 Y120.311 E.07247
G1 X124.355 Y119.119 E.06872
G1 X124.355 Y80.901 E2.12381
M204 S1000
G1 X124.689 Y80.901 F10800
M204 S800
G1 F1200
G1 X124.689 Y41.081 E2.21281
G1 X124.957 Y40.071 E.05808
G1 X125.543 Y39.182 E.05919
G1 X126.339 Y38.536 E.05695
G1 X127.298 Y38.177 E.05694
G1 X136.41 Y38.147 E.50637
G1 X137.005 Y38.298 E.03411
G1 X137.573 Y38.559 E.03473
G1 X138.337 Y39.191 E.05511
G1 X138.915 Y40.081 E.05897
G1 X139.179 Y41.082 E.05752
G1 X139.179 Y119.089 E4.33489
G1 X138.911 Y120.099 E.05808
M73 P3 R38
M73 Q3 S38
G1 X138.325 Y120.988 E.05919
G1 X137.53 Y121.634 E.05694
G1 X136.571 Y121.993 E.05692
G1 X127.654 Y122.05 E.49551
G1 X126.591 Y121.759 E.06126
G1 X125.699 Y121.146 E.06016
G1 X124.995 Y120.191 E.06589
G1 X124.689 Y119.096 E.06321
G1 X124.689 Y80.961 E2.11919
M204 S1000
G1 X125.023 Y80.961 F10800
M204 S800
G1 F1200
G1 X125.023 Y41.104 E2.2149
G1 X125.272 Y40.185 E.05292
G1 X125.776 Y39.423 E.05073
G1 X126.482 Y38.838 E.05097
G1 X127.388 Y38.5 E.0537
G1 X136.349 Y38.476 E.49799
G1 X136.908 Y38.618 E.03205
G1 X137.412 Y38.852 E.03088
G1 X138.103 Y39.431 E.05012
G1 X138.6 Y40.194 E.05056
G1 X138.845 Y41.104 E.05241
G1 X138.845 Y119.066 E4.33239
G1 X138.596 Y119.985 E.05292
G1 X138.093 Y120.747 E.05073
G1 X137.386 Y121.331 E.05097
G1 X136.481 Y121.67 E.05368
G1 X127.675 Y121.715 E.48939
G1 X126.754 Y121.467 E.053
G1 X125.948 Y120.922 E.05406
G1 X125.307 Y120.069 E.05926
G1 X125.023 Y119.072 E.05762
G1 X125.023 Y81.021 E2.11454
M204 S1000
G1 X125.358 Y81.021 F10800
M204 S800
G1 F1200
G1 X125.358 Y41.127 E2.21694
G1 X125.587 Y40.301 E.04763
G1 X126.038 Y39.631 E.04489
G1 X126.67 Y39.116 E.04533
G1 X127.474 Y38.824 E.04749
G1 X136.289 Y38.806 E.48986
G1 X136.782 Y38.928 E.02824
G1 X137.25 Y39.146 E.02868
G1 X137.867 Y39.669 E.04499
G1 X138.304 Y40.351 E.04502
G1 X138.511 Y41.126 E.04455
G1 X138.511 Y119.043 E4.32991
G1 X138.282 Y119.869 E.04763
G1 X137.83 Y120.539 E.04489
G1 X137.198 Y121.054 E.04533
G1 X136.395 Y121.346 E.04748
G1 X127.697 Y121.381 E.48336
G1 X126.87 Y121.152 E.04769
G1 X126.196 Y120.696 E.0452
G1 X125.619 Y119.945 E.05267
G1 X125.358 Y119.048 E.05191
G1 X125.358 Y81.081 E2.10985
M204 S1000
G1 X125.692 Y81.081 F10800
M204 S800
G1 F1200
G1 X125.692 Y41.149 E2.21905
G1 X125.88 Y40.462 E.03958
M73 P4 R38
G1 X126.269 Y39.874 E.0392
G1 X126.858 Y39.394 E.04221
M73 Q4 S38
G1 X127.557 Y39.149 E.04115
G1 X136.228 Y39.135 E.48188
G1 X136.685 Y39.248 E.02616
G1 X137.086 Y39.437 E.02464
G1 X137.631 Y39.906 E.03994
G1 X137.989 Y40.465 E.03688
G1 X138.177 Y41.149 E.03943
G1 X138.177 Y119.021 E4.3274
G1 X137.988 Y119.708 E.03958
G1 X137.599 Y120.296 E.0392
G1 X137.01 Y120.776 E.04221
G1 X136.312 Y121.021 E.04114
G1 X127.718 Y121.047 E.47754
G1 X127.031 Y120.858 E.0396
G1 X126.441 Y120.467 E.03935
G1 X125.929 Y119.817 E.04598
G1 X125.692 Y119.023 E.04608
G1 X125.692 Y81.141 E2.10513
M204 S1000
G1 X126.026 Y81.141 F10800
M204 S800
G1 F1200
G1 X126.026 Y41.173 E2.22106
G1 X126.194 Y40.579 E.03431
G1 X126.503 Y40.114 E.03102
G1 X126.998 Y39.699 E.03592
G1 X127.641 Y39.473 E.03784
G1 X136.17 Y39.465 E.47397
G1 X136.558 Y39.558 E.0222
G1 X136.922 Y39.729 E.02232
G1 X137.393 Y40.142 E.03479
G1 X137.675 Y40.58 E.02898
G1 X137.842 Y41.173 E.03422
G1 X137.842 Y118.997 E4.32475
G1 X137.674 Y119.591 E.03431
M73 P4 R37
G1 X137.366 Y120.056 E.03102
G1 X136.87 Y120.471 E.03592
G1 X136.228 Y120.697 E.03784
G1 X127.742 Y120.713 E.47156
G1 X127.148 Y120.544 E.03431
G1 X126.684 Y120.237 E.03094
G1 X126.239 Y119.686 E.03934
G1 X126.026 Y118.997 E.04009
G1 X126.026 Y81.201 E2.10037
M204 S1000
G1 X126.36 Y81.201 F10800
M204 S800
G1 F1200
G1 X126.36 Y41.198 E2.22301
G1 X126.507 Y40.698 E.02894
G1 X126.735 Y40.355 E.02292
G1 X127.188 Y39.976 E.03276
G1 X127.72 Y39.799 E.03117
G1 X136.114 Y39.794 E.46648
G1 X136.433 Y39.868 E.01816
G1 X136.756 Y40.021 E.01989
G1 X137.153 Y40.375 E.02956
G1 X137.361 Y40.699 E.02138
G1 X137.508 Y41.198 E.02892
G1 X137.508 Y118.972 E4.32199
G1 X137.361 Y119.472 E.02894
G1 X137.133 Y119.815 E.02292
G1 X136.681 Y120.193 E.03276
G1 X136.149 Y120.371 E.03117
G1 X127.767 Y120.379 E.4658
G1 X127.267 Y120.231 E.02894
M73 P5 R37
G1 X126.923 Y120.003 E.02292
G1 X126.546 Y119.552 E.0327
G1 X126.36 Y118.97 E.03393
G1 X126.36 Y81.261 E2.09555
M204 S1000
G1 X126.694 Y81.261 F10800
M204 S800
M73 Q5 S38
G1 F1200
G1 X126.694 Y41.224 E2.22489
G1 X126.819 Y40.821 E.02346
G1 X126.968 Y40.595 E.01502
G1 X127.375 Y40.255 E.02948
G1 X127.793 Y40.125 E.02431
G1 X136.095 Y40.129 E.46134
G1 X136.306 Y40.178 E.01204
G1 X136.59 Y40.312 E.01745
G1 X136.911 Y40.606 E.02422
G1 X137.05 Y40.82 E.01417
G1 X137.174 Y41.224 E.02348
G1 X137.174 Y118.946 E4.31908
G1 X137.05 Y119.349 E.02346
G1 X136.9 Y119.574 E.01502
G1 X136.493 Y119.915 E.02948
G1 X136.075 Y120.044 E.0243
G1 X127.793 Y120.044 E.46027
G1 X127.389 Y119.92 E.02346
G1 X127.164 Y119.77 E.01502
G1 X126.824 Y119.363 E.02948
G1 X126.694 Y118.946 E.0243
G1 X126.694 Y81.321 E2.09085
M204 S1000
G1 X127.028 Y81.321 F10800
M204 S800
M73 Q5 S37
G1 F1200
G1 X127.028 Y41.252 E2.22666
G1 X127.128 Y40.948 E.01781
G1 X127.206 Y40.831 E.0078
G1 X127.515 Y40.56 E.0228
G1 X127.821 Y40.459 E.01792
G1 X136.075 Y40.463 E.45868
G1 X136.179 Y40.487 E.00592
G1 X136.421 Y40.602 E.01492
G1 X136.666 Y40.834 E.01875
G1 X136.74 Y40.947 E.00748
G1 X136.84 Y41.252 E.01785
G1 X136.84 Y118.918 E4.31596
G1 X136.74 Y119.222 E.01781
G1 X136.662 Y119.339 E.0078
G1 X136.354 Y119.609 E.0228
G1 X136.047 Y119.71 E.01792
G1 X127.821 Y119.71 E.45715
G1 X127.516 Y119.61 E.01781
G1 X127.4 Y119.533 E.0078
G1 X127.129 Y119.224 E.0228
G1 X127.028 Y118.918 E.01792
G1 X127.028 Y81.381 E2.08596
M204 S1000
G1 X127.363 Y81.381 F10800
M204 S800
G1 F1200
G1 X127.363 Y41.283 E2.22827
G1 X127.449 Y41.06 E.01328
G1 X127.663 Y40.861 E.01626
G1 X127.852 Y40.794 E.01113
G1 X136.057 Y40.799 E.45597
G1 X136.251 Y40.891 E.01189
G1 X136.418 Y41.058 E.01312
G1 X136.506 Y41.283 E.01345
G1 X136.506 Y118.887 E4.3125
G1 X136.419 Y119.109 E.01328
M73 P6 R37
M73 Q6 S37
G1 X136.205 Y119.309 E.01626
G1 X136.016 Y119.376 E.01113
G1 X127.852 Y119.376 E.4537
G1 X127.629 Y119.29 E.01328
G1 X127.43 Y119.075 E.01626
G1 X127.363 Y118.887 E.01113
G1 X127.363 Y81.441 E2.0809
M204 S1000
G1 X127.697 Y81.441 F10800
M204 S800
G1 F1200
G1 X127.697 Y41.32 E2.22954
G1 X127.722 Y41.259 E.00369
G1 X127.828 Y41.153 E.0083
G1 X127.889 Y41.128 E.00369
G1 X135.979 Y41.128 E.44957
G1 X136.041 Y41.153 E.00369
G1 X136.146 Y41.259 E.0083
G1 X136.172 Y41.32 E.00369
G1 X136.172 Y118.85 E4.30837
G1 X136.146 Y118.911 E.00369
G1 X136.041 Y119.017 E.0083
G1 X135.979 Y119.042 E.00369
G1 X127.889 Y119.042 E.44957
G1 X127.828 Y119.017 E.00369
G1 X127.722 Y118.911 E.0083
G1 X127.697 Y118.85 E.00369
G1 X127.697 Y81.501 E2.0755
M204 S1000
;WIPE_START
G1 F8640
G1 X127.697 Y78.209 E-.76
;WIPE_END
G1 E-.04 F2100
G1 Z.8 F720
G1 X114.179 Y97.007 F10800
G1 Z.4 F720
G1 E.8 F2100
M204 S800
G1 F1200
G1 X115.03 Y98.271 E.08469
G1 X115.432 Y99.784 E.087
G1 X115.369 Y111.636 E.65861
G1 X114.922 Y112.942 E.07669
G1 X114.13 Y114.027 E.07464
G1 X113.027 Y114.874 E.07734
G1 X111.758 Y115.337 E.07503
G1 X33.041 Y115.419 E4.37439
G1 X31.618 Y115.057 E.08158
G1 X30.36 Y114.247 E.08314
G1 X29.435 Y113.122 E.08092
G1 X28.914 Y111.753 E.08143
G1 X28.892 Y99.354 E.68902
G1 X29.339 Y98.046 E.0768
G1 X30.131 Y96.961 E.07464
G1 X31.235 Y96.113 E.07734
G1 X32.503 Y95.651 E.07504
G1 X111.577 Y95.617 E4.39419
G1 X112.368 Y95.823 E.04544
M73 P7 R36
G1 X113.125 Y96.165 E.04617
G1 X114.132 Y96.969 E.07162
M204 S1000
G1 X113.922 Y97.229 F10800
M204 S800
G1 F1200
G1 X114.736 Y98.433 E.08073
G1 X115.098 Y99.804 E.07883
G1 X115.044 Y111.553 E.6529
G1 X114.614 Y112.809 E.07373
M73 Q7 S37
G1 X113.876 Y113.808 E.06906
G1 X112.845 Y114.592 E.07197
G1 X111.673 Y115.013 E.06921
G1 X33.062 Y115.085 E4.36848
G1 X31.729 Y114.74 E.07652
G1 X30.565 Y113.982 E.0772
G1 X29.712 Y112.933 E.07511
G1 X29.237 Y111.664 E.0753
G1 X29.217 Y99.436 E.67954
G1 X29.647 Y98.179 E.07381
G1 X30.385 Y97.179 E.06906
G1 X31.416 Y96.395 E.07197
G1 X32.588 Y95.975 E.06922
G1 X111.513 Y95.945 E4.38593
G1 X112.27 Y96.142 E.04344
G1 X112.967 Y96.46 E.04258
G1 X113.876 Y97.192 E.06484
M204 S1000
G1 X113.665 Y97.451 F10800
M204 S800
G1 F1200
G1 X113.718 Y97.494 E.0038
G1 X114.42 Y98.546 E.0703
G1 X114.764 Y99.826 E.07362
G1 X114.719 Y111.473 E.64724
G1 X114.329 Y112.633 E.06801
G1 X113.653 Y113.559 E.0637
G1 X112.708 Y114.287 E.0663
G1 X111.587 Y114.688 E.06613
G1 X33.084 Y114.751 E4.36252
G1 X31.841 Y114.424 E.07139
G1 X30.772 Y113.718 E.07123
G1 X29.99 Y112.746 E.06931
G1 X29.561 Y111.577 E.06918
G1 X29.542 Y99.516 E.67025
G1 X29.932 Y98.355 E.06807
G1 X30.608 Y97.429 E.0637
G1 X31.553 Y96.701 E.0663
G1 X32.674 Y96.3 E.06614
G1 X111.451 Y96.274 E4.3777
G1 X112.145 Y96.453 E.03982
G1 X112.809 Y96.755 E.04055
G1 X113.619 Y97.413 E.05799
M204 S1000
G1 X113.407 Y97.671 F10800
M204 S800
G1 F1200
G1 X113.486 Y97.736 E.00568
G1 X114.126 Y98.707 E.06463
G1 X114.429 Y99.847 E.06554
G1 X114.393 Y111.394 E.6417
G1 X114.042 Y112.459 E.06231
G1 X113.428 Y113.311 E.05836
G1 X112.569 Y113.982 E.06054
G1 X111.502 Y114.364 E.06302
G1 X33.106 Y114.417 E4.35653
G1 X31.955 Y114.109 E.06619
M73 P8 R36
M73 Q8 S36
G1 X30.98 Y113.455 E.06523
G1 X30.269 Y112.561 E.06351
G1 X29.885 Y111.492 E.0631
G1 X29.868 Y99.595 E.66115
G1 X30.219 Y98.529 E.06236
G1 X30.833 Y97.677 E.05836
G1 X31.692 Y97.006 E.06054
G1 X32.759 Y96.624 E.06302
G1 X111.388 Y96.603 E4.36945
G1 X112.047 Y96.772 E.0378
G1 X112.649 Y97.049 E.03684
G1 X113.361 Y97.633 E.05114
M204 S1000
G1 X113.148 Y97.889 F10800
M204 S800
G1 F1200
G1 X113.253 Y97.976 E.00756
G1 X113.831 Y98.866 E.05897
G1 X114.095 Y99.867 E.05756
G1 X114.067 Y111.317 E.63626
G1 X113.755 Y112.287 E.05664
G1 X113.203 Y113.063 E.0529
G1 X112.386 Y113.701 E.05761
G1 X111.419 Y114.039 E.05693
G1 X33.127 Y114.083 E4.35073
G1 X32.116 Y113.815 E.05812
G1 X31.223 Y113.225 E.05948
G1 X30.574 Y112.421 E.05743
G1 X30.21 Y111.406 E.05991
G1 X30.194 Y99.671 E.65211
G1 X30.506 Y98.7 E.05668
G1 X31.059 Y97.925 E.0529
G1 X31.876 Y97.287 E.05761
G1 X32.843 Y96.949 E.05693
G1 X111.326 Y96.932 E4.36142
G1 X111.921 Y97.083 E.0341
G1 X112.489 Y97.344 E.03473
G1 X113.102 Y97.851 E.04422
M204 S1000
G1 X112.888 Y98.106 F10800
M204 S800
G1 F1200
G1 X113.019 Y98.216 E.00949
G1 X113.516 Y98.979 E.05056
G1 X113.761 Y99.889 E.05242
G1 X113.74 Y111.242 E.63086
G1 X113.466 Y112.118 E.051
G1 X112.975 Y112.817 E.04749
G1 X112.248 Y113.395 E.0516
G1 X111.335 Y113.715 E.05376
G1 X33.15 Y113.749 E4.34482
G1 X32.231 Y113.5 E.05289
G1 X31.432 Y112.963 E.05351
G1 X30.854 Y112.236 E.05161
G1 X30.534 Y111.323 E.05374
G1 X30.521 Y99.746 E.64332
G1 X30.795 Y98.87 E.05102
G1 X31.286 Y98.171 E.04749
G1 X32.013 Y97.593 E.05161
G1 X32.926 Y97.273 E.05377
