; generated by PrusaSlicer 2.5.2+win64 on 2023-08-16 at 02:18:11 UTC


;
;
; 

; external perimeters extrusion width = 0.60mm
; perimeters extrusion width = 0.50mm
; infill extrusion width = 0.50mm
; solid infill extrusion width = 0.50mm
; top infill extrusion width = 0.45mm
; first layer extrusion width = 0.42mm

M73 P0 R75
M73 Q0 S75
M201 X1000 Y1000 Z200 E5000 ; sets maximum accelerations, mm/sec^2
M203 X200 Y200 Z12 E120 ; sets maximum feedrates, mm / sec
M204 P1250 R1250 T1250 ; sets acceleration (P, T) and retract acceleration (R), mm/sec^2
M205 X8.00 Y8.00 Z0.40 E4.50 ; sets the jerk limits, mm/sec
M205 S0 T0 ; sets the minimum extruding and travel feed rate, mm/sec
M107
;TYPE:Custom
M862.3 P "MK3" ; printer model check
M862.1 P0.4 ; nozzle diameter check
M115 U3.12.2 ; tell printer latest fw version
G90 ; use absolute coordinates
M83 ; extruder relative mode
M104 S215 ; set extruder temp
M140 S60 ; set bed temp
M190 S60 ; wait for bed temp
M109 S215 ; wait for extruder temp
G28 W ; home all without mesh bed level
G80 ; mesh bed leveling

G1 Z0.2 F720
G1 Y-3 F1000 ; go outside print area
G92 E0
G1 X60 E9 F1000 ; intro line
G1 X100 E12.5 F1000 ; intro line

G92 E0
M221 S95

; Don't change E values below. Excessive value can damage the printer.

M907 E538 ; set extruder motor current
G21 ; set units to millimeters
G90 ; use absolute coordinates
M83 ; use relative distances for extrusion
M900 K0.05 ; Filament gcode LA 1.5
M900 K30 ; Filament gcode LA 1.0
M107
;LAYER_CHANGE
;Z:0.4
;HEIGHT:0.4
;BEFORE_LAYER_CHANGE
G92 E0.0
;0.4


G1 E-.8 F2100
G1 Z.4 F720
;AFTER_LAYER_CHANGE
;0.4
G1 Z.8
G1 X68.273 Y68.273 F10800
G1 Z.4 F720
G1 E.8 F2100
M204 S800
;TYPE:Skirt/Brim
;WIDTH:0.42
G1 F1200
G1 X70.986 Y65.561 E.21319
G1 X72.637 Y64.877 E.09928
G1 X196.462 Y64.877 E6.88107
G1 X198.112 Y65.561 E.09928
G1 X201.1 Y68.548 E.23479
G1 X201.783 Y70.199 E.09928
G1 X201.783 Y124.024 E2.9911
G1 X201.1 Y125.674 E.09928
M73 P0 R74
G1 X198.112 Y128.662 E.23479
G1 X196.462 Y129.345 E.09928
G1 X72.637 Y129.345 E6.88107
G1 X70.986 Y128.662 E.09928
G1 X67.999 Y125.674 E.23479
G1 X67.315 Y124.024 E.09928
G1 X67.315 Y70.199 E2.9911
G1 X67.999 Y68.548 E.09928
G1 X68.231 Y68.316 E.01826
M204 S1000
;WIPE_START
G1 F8640
G1 X70.558 Y65.988 E-.76
;WIPE_END
G1 E-.04 F2100
G1 Z.8 F720
G1 X70.88 Y69.767 F10800
G1 Z.4 F720
G1 E.8 F2100
M204 S800
G1 F1200
G1 X71.916 Y68.673 E.08375
G1 X72.714 Y68.156 E.05277
G1 X74.342 Y67.7 E.09396
G1 X194.715 Y67.703 E6.68924
G1 X195.683 Y67.884 E.05477
G1 X196.623 Y68.28 E.05663
G1 X197.704 Y69.136 E.07666
G1 X198.558 Y70.402 E.08488
G1 X198.96 Y71.912 E.0868
G1 X198.96 Y122.306 E2.80046
G1 X198.667 Y123.547 E.07083
G1 X198.218 Y124.456 E.05635
G1 X197.182 Y125.55 E.08375
G1 X196.385 Y126.066 E.05277
G1 X194.757 Y126.522 E.09395
G1 X74.354 Y126.522 E6.69088
G1 X73.114 Y126.229 E.07083
M73 Q0 S74
G1 X72.205 Y125.78 E.05635
G1 X71.11 Y124.744 E.08375
G1 X70.594 Y123.947 E.05277
G1 X70.138 Y122.319 E.09395
G1 X70.138 Y71.916 E2.80092
G1 X70.431 Y70.676 E.07083
G1 X70.854 Y69.821 E.05301
M204 S1000
G1 X71.152 Y69.97 F10800
M204 S800
M73 P1 R74
M73 Q1 S74
G1 F1200
G1 X72.144 Y68.918 E.0803
G1 X72.872 Y68.451 E.04811
G1 X74.364 Y68.034 E.08608
G1 X194.699 Y68.037 E6.68709
G1 X195.603 Y68.209 E.05115
G1 X196.471 Y68.578 E.05239
G1 X197.475 Y69.38 E.07144
G1 X198.264 Y70.564 E.07908
G1 X198.626 Y71.933 E.07868
G1 X198.626 Y122.286 E2.79816
G1 X198.347 Y123.449 E.06648
G1 X197.931 Y124.283 E.05179
G1 X196.954 Y125.304 E.07849
G1 X196.226 Y125.771 E.04811
G1 X194.734 Y126.188 E.08607
G1 X74.374 Y126.188 E6.6885
G1 X73.211 Y125.909 E.06648
G1 X72.377 Y125.493 E.05179
G1 X71.356 Y124.517 E.07849
G1 X70.889 Y123.788 E.04811
G1 X70.472 Y122.296 E.08607
G1 X70.472 Y71.936 E2.79854
G1 X70.751 Y70.773 E.06648
G1 X71.125 Y70.023 E.04655
M204 S1000
G1 X71.423 Y70.174 F10800
M204 S800
G1 F1200
G1 X71.454 Y70.113 E.00379
G1 X72.369 Y69.165 E.07321
G1 X73.03 Y68.747 E.04347
G1 X74.387 Y68.368 E.07827
G1 X194.682 Y68.372 E6.68493
G1 X195.521 Y68.534 E.04748
G1 X196.317 Y68.876 E.04813
G1 X197.245 Y69.624 E.06627
G1 X197.949 Y70.678 E.0704
G1 X198.292 Y71.955 E.07352
G1 X198.292 Y122.266 E2.79579
G1 X198.027 Y123.351 E.06208
G1 X197.644 Y124.109 E.04721
G1 X196.729 Y125.057 E.07321
G1 X196.068 Y125.476 E.04347
G1 X194.711 Y125.854 E.07827
G1 X74.394 Y125.854 E6.68611
G1 X73.309 Y125.589 E.06208
M73 P1 R73
G1 X72.551 Y125.206 E.04721
G1 X71.603 Y124.291 E.07321
G1 X71.185 Y123.63 E.04347
G1 X70.806 Y122.273 E.07827
G1 X70.806 Y71.957 E2.79615
G1 X71.071 Y70.871 E.06208
G1 X71.396 Y70.227 E.04009
M204 S1000
G1 X71.693 Y70.379 F10800
M204 S800
G1 F1200
G1 X71.74 Y70.288 E.00567
G1 X72.595 Y69.413 E.06802
G1 X73.145 Y69.061 E.0363
G1 X74.41 Y68.702 E.07307
G1 X194.666 Y68.706 E6.6827
G1 X195.438 Y68.858 E.04375
G1 X196.162 Y69.172 E.04386
G1 X197.014 Y69.866 E.06105
G1 X197.655 Y70.838 E.0647
G1 X197.958 Y71.977 E.06548
G1 X197.958 Y122.245 E2.79344
G1 X197.708 Y123.251 E.05761
M73 P2 R73
M73 Q2 S74
G1 X197.359 Y123.934 E.04263
G1 X196.503 Y124.81 E.06802
G1 X195.953 Y125.161 E.0363
G1 X194.688 Y125.52 E.07307
G1 X74.415 Y125.52 E6.68366
G1 X73.409 Y125.27 E.05761
G1 X72.726 Y124.921 E.04263
G1 X71.851 Y124.065 E.06802
G1 X71.499 Y123.515 E.0363
G1 X71.14 Y122.25 E.07307
G1 X71.14 Y71.977 E2.79369
G1 X71.39 Y70.971 E.05761
M73 Q2 S73
G1 X71.666 Y70.432 E.03362
M204 S1000
G1 X71.962 Y70.586 F10800
M204 S800
G1 F1200
G1 X72.024 Y70.465 E.00755
G1 X72.818 Y69.662 E.06277
G1 X73.303 Y69.357 E.03182
G1 X74.434 Y69.037 E.06531
G1 X194.649 Y69.04 E6.68048
G1 X195.354 Y69.182 E.03997
G1 X196.006 Y69.469 E.03958
G1 X196.781 Y70.107 E.05581
G1 X197.36 Y70.997 E.059
G1 X197.624 Y71.998 E.05752
G1 X197.624 Y122.224 E2.79108
G1 X197.389 Y123.15 E.05307
G1 X197.074 Y123.757 E.03803
G1 X196.28 Y124.56 E.06277
G1 X195.795 Y124.865 E.03182
G1 X194.665 Y125.186 E.06531
G1 X74.436 Y125.186 E6.6812
G1 X73.511 Y124.951 E.05307
G1 X72.903 Y124.636 E.03803
G1 X72.1 Y123.842 E.06277
G1 X71.795 Y123.358 E.03182
G1 X71.475 Y122.227 E.06531
G1 X71.475 Y71.998 E2.79123
G1 X71.709 Y71.073 E.05307
G1 X71.934 Y70.639 E.02715
M204 S1000
G1 X72.229 Y70.794 F10800
M204 S800
G1 F1200
G1 X72.307 Y70.644 E.00942
G1 X73.04 Y69.913 E.05751
G1 X73.458 Y69.653 E.02736
G1 X74.457 Y69.371 E.05765
G1 X194.632 Y69.374 E6.67828
G1 X195.236 Y69.495 E.03421
G1 X195.849 Y69.765 E.03723
G1 X196.548 Y70.347 E.05054
G1 X197.044 Y71.11 E.05058
G1 X197.289 Y72.021 E.05241
G1 X197.289 Y122.202 E2.78863
G1 X197.071 Y123.046 E.04845
G1 X196.791 Y123.579 E.03342
G1 X196.058 Y124.31 E.05751
G1 X195.64 Y124.569 E.02736
G1 X194.642 Y124.852 E.05765
G1 X74.458 Y124.852 E6.67871
G1 X73.614 Y124.633 E.04845
G1 X73.082 Y124.353 E.03342
G1 X72.351 Y123.62 E.05751
G1 X72.091 Y123.202 E.02736
G1 X71.809 Y122.204 E.05765
G1 X71.809 Y72.02 E2.78875
G1 X72.028 Y71.176 E.04845
M73 P3 R73
G1 X72.201 Y70.847 E.02067
M204 S1000
G1 X72.494 Y71.004 F10800
M204 S800
G1 F1200
G1 X72.59 Y70.825 E.01128
G1 X73.259 Y70.165 E.05224
G1 X73.612 Y69.951 E.02293
G1 X74.48 Y69.705 E.05012
G1 X194.615 Y69.708 E6.67603
G1 X195.15 Y69.818 E.03036
M73 P3 R72
M73 Q3 S73
G1 X195.691 Y70.06 E.0329
G1 X196.312 Y70.585 E.04523
G1 X196.749 Y71.268 E.04502
G1 X196.955 Y72.042 E.04455
G1 X196.955 Y122.18 E2.78619
G1 X196.753 Y122.941 E.04374
G1 X196.509 Y123.398 E.02881
G1 X195.839 Y124.057 E.05223
G1 X195.486 Y124.272 E.02293
G1 X194.618 Y124.517 E.05011
G1 X74.48 Y124.517 E6.67619
G1 X73.72 Y124.315 E.04374
G1 X73.262 Y124.071 E.02881
G1 X72.603 Y123.401 E.05223
G1 X72.389 Y123.048 E.02293
G1 X72.143 Y122.181 E.05011
G1 X72.143 Y72.042 E2.78622
G1 X72.345 Y71.282 E.04374
G1 X72.466 Y71.057 E.01419
M204 S1000
G1 X72.757 Y71.215 F10800
M204 S800
G1 F1200
G1 X72.87 Y71.008 E.01314
G1 X73.477 Y70.42 E.04695
G1 X73.763 Y70.249 E.01853
G1 X74.503 Y70.039 E.04272
G1 X194.597 Y70.042 E6.67374
G1 X195.062 Y70.141 E.02641
M73 Q3 S72
G1 X195.53 Y70.354 E.02855
G1 X196.075 Y70.823 E.03998
G1 X196.433 Y71.381 E.03688
G1 X196.621 Y72.065 E.03943
G1 X196.621 Y122.157 E2.78363
G1 X196.436 Y122.832 E.03892
G1 X196.228 Y123.215 E.02418
G1 X195.621 Y123.803 E.04695
G1 X195.335 Y123.973 E.01853
G1 X194.595 Y124.183 E.04272
G1 X74.503 Y124.183 E6.67362
G1 X73.828 Y123.998 E.03892
G1 X73.446 Y123.79 E.02418
G1 X72.858 Y123.183 E.04695
G1 X72.687 Y122.897 E.01853
G1 X72.477 Y122.157 E.04272
G1 X72.477 Y72.065 E2.78366
G1 X72.662 Y71.39 E.03892
G1 X72.728 Y71.268 E.00771
M204 S1000
G1 X73.018 Y71.429 F10800
M204 S800
G1 F1200
G1 X73.149 Y71.194 E.01499
G1 X73.694 Y70.675 E.04181
G1 X73.879 Y70.563 E.012
G1 X74.527 Y70.373 E.03757
G1 X194.578 Y70.377 E6.67133
G1 X194.971 Y70.463 E.02236
G1 X195.367 Y70.646 E.02421
G1 X195.837 Y71.058 E.03475
G1 X196.119 Y71.497 E.02898
G1 X196.287 Y72.089 E.03422
G1 X196.287 Y122.133 E2.78099
G1 X196.121 Y122.721 E.03397
G1 X195.949 Y123.029 E.01955
G1 X195.405 Y123.548 E.04181
G1 X195.219 Y123.659 E.012
G1 X194.571 Y123.849 E.03757
G1 X74.527 Y123.849 E6.67093
G1 X73.939 Y123.683 E.03397
M73 P4 R72
M73 Q4 S72
G1 X73.631 Y123.511 E.01955
G1 X73.112 Y122.967 E.04181
G1 X73.001 Y122.781 E.012
G1 X72.811 Y122.133 E.03757
G1 X72.811 Y72.089 E2.78097
G1 X72.988 Y71.482 E.03517
M204 S1000
G1 X73.292 Y71.616 F10800
M204 S800
G1 F1200
G1 X73.425 Y71.383 E.01492
G1 X73.906 Y70.933 E.03658
G1 X74.028 Y70.863 E.00779
G1 X74.552 Y70.707 E.03039
G1 X194.558 Y70.711 E6.66887
G1 X194.877 Y70.784 E.01818
G1 X195.201 Y70.937 E.01989
G1 X195.597 Y71.291 E.02956
G1 X195.806 Y71.615 E.02138
G1 X195.953 Y72.114 E.02892
G1 X195.953 Y122.108 E2.77823
G1 X195.806 Y122.607 E.02887
M73 P4 R71
G1 X195.673 Y122.84 E.01492
G1 X195.192 Y123.289 E.03658
G1 X195.071 Y123.359 E.00779
G1 X194.546 Y123.515 E.03039
G1 X74.552 Y123.515 E6.6682
G1 X74.054 Y123.368 E.02887
G1 X73.821 Y123.235 E.01492
G1 X73.371 Y122.754 E.03658
G1 X73.301 Y122.633 E.00779
G1 X73.145 Y122.108 E.03039
G1 X73.145 Y72.114 E2.77823
G1 X73.275 Y71.673 E.02553
M204 S1000
G1 X73.593 Y71.771 F10800
M204 S800
G1 F1200
G1 X73.699 Y71.576 E.01236
G1 X74.118 Y71.192 E.03156
G1 X74.578 Y71.042 E.02692
G1 X194.539 Y71.045 E6.66634
G1 X194.75 Y71.094 E.01205
G1 X195.034 Y71.228 E.01745
G1 X195.355 Y71.523 E.02422
G1 X195.494 Y71.737 E.01417
G1 X195.619 Y72.14 E.02348
G1 X195.619 Y122.082 E2.77532
G1 X195.494 Y122.487 E.02356
G1 X195.399 Y122.647 E.0103
G1 X194.98 Y123.03 E.03156
G1 X194.52 Y123.181 E.02692
G1 X74.578 Y123.181 E6.66528
G1 X74.173 Y123.056 E.02356
M73 Q4 S71
G1 X74.014 Y122.961 E.0103
G1 X73.63 Y122.543 E.03156
G1 X73.48 Y122.082 E.02692
G1 X73.48 Y72.14 E2.77531
G1 X73.576 Y71.829 E.01811
M204 S1000
G1 X73.891 Y71.932 F10800
M204 S800
G1 F1200
G1 X73.969 Y71.774 E.0098
G1 X74.301 Y71.476 E.02479
G1 X74.606 Y71.376 E.01787
G1 X194.52 Y71.379 E6.66369
G1 X194.623 Y71.403 E.00592
M73 P5 R71
M73 Q5 S71
G1 X194.866 Y71.518 E.01492
G1 X195.111 Y71.75 E.01875
G1 X195.184 Y71.863 E.00748
G1 X195.284 Y72.168 E.01785
G1 X195.284 Y122.054 E2.7722
G1 X195.184 Y122.361 E.01796
G1 X195.13 Y122.448 E.00571
G1 X194.797 Y122.746 E.02479
G1 X194.492 Y122.847 E.01787
G1 X74.606 Y122.847 E6.66216
G1 X74.299 Y122.746 E.01796
G1 X74.212 Y122.692 E.00571
G1 X73.914 Y122.359 E.02479
G1 X73.814 Y122.054 E.01787
G1 X73.814 Y72.168 E2.77219
G1 X73.872 Y71.989 E.01046
M204 S1000
G1 X74.183 Y72.101 F10800
M204 S800
G1 F1200
G1 X74.234 Y71.977 E.00746
G1 X74.449 Y71.777 E.01626
G1 X74.637 Y71.71 E.01113
G1 X194.502 Y71.716 E6.66097
G1 X194.695 Y71.807 E.01189
G1 X194.862 Y71.974 E.01312
G1 X194.95 Y72.199 E.01345
G1 X194.95 Y122.023 E2.76874
G1 X194.878 Y122.224 E.01189
G1 X194.649 Y122.445 E.01765
G1 X194.461 Y122.512 E.01113
G1 X74.637 Y122.512 E6.6587
G1 X74.436 Y122.44 E.01189
G1 X74.215 Y122.212 E.01765
G1 X74.148 Y122.023 E.01113
G1 X74.148 Y72.199 E2.76874
G1 X74.163 Y72.157 E.00249
M204 S1000
M73 P5 R70
G1 X74.482 Y72.237 F10800
M204 S800
G1 F1200
G1 X74.507 Y72.175 E.00369
G1 X74.613 Y72.07 E.0083
G1 X74.674 Y72.044 E.00369
G1 X194.424 Y72.044 E6.65458
G1 X194.485 Y72.07 E.00369
G1 X194.591 Y72.175 E.0083
G1 X194.616 Y72.237 E.00369
G1 X194.616 Y121.986 E2.76461
G1 X194.591 Y122.047 E.00369
G1 X194.485 Y122.153 E.0083
G1 X194.424 Y122.178 E.00369
G1 X74.674 Y122.178 E6.65458
G1 X74.613 Y122.153 E.00369
M73 P6 R70
M73 Q6 S71
G1 X74.507 Y122.047 E.0083
G1 X74.482 Y121.986 E.00369
G1 X74.482 Y72.297 E2.76128
M204 S1000
; printing object Body1 id:0 copy 0
;WIPE_START
G1 F8640
G1 X74.507 Y72.175 E-.02864
G1 X74.613 Y72.07 E-.03448
G1 X74.674 Y72.044 E-.01535
G1 X77.626 Y72.044 E-.68153
;WIPE_END
G1 E-.04 F2100
G1 Z.8 F720
G1 X193.805 Y121.367 F10800
G1 Z.4 F720
G1 E.8 F2100
M204 S800
;TYPE:Perimeter
;WIDTH:0.42
G1 F1200
G1 X75.293 Y121.367 E6.5858
G1 X75.293 Y72.855 E2.69584
M73 Q6 S70
G1 X193.805 Y72.855 E6.5858
G1 X193.805 Y121.307 E2.6925
M204 S1000
G1 X194.139 Y121.701 F10800
M204 S800
;TYPE:External perimeter
G1 F1200
G1 X74.959 Y121.701 E6.62294
G1 X74.959 Y72.521 E2.73298
G1 X194.139 Y72.521 E6.62294
G1 X194.139 Y121.641 E2.72964
M204 S1000
G1 X193.742 Y121.649 F10800
;WIPE_START
G1 F8640
G1 X190.848 Y121.643 E-.76
;WIPE_END
G1 E-.04 F2100
G1 Z.8 F720
G1 X174.653 Y83.386 F10800
G1 Z.4 F720
G1 E.8 F2100
M204 S800
;TYPE:Perimeter
G1 F1200
G1 X174.116 Y82.994 E.03697
G1 X173.821 Y82.746 E.02139
G1 X173.298 Y82.064 E.0478
G1 X172.903 Y81.156 E.05502
G1 X172.757 Y80.177 E.05502
G1 X172.805 Y79.679 E.02779
G1 X172.881 Y79.132 E.03069
G1 X173.215 Y78.315 E.04903
G1 X173.817 Y77.482 E.05714
G1 X174.596 Y76.86 E.0554
G1 X175.504 Y76.465 E.05502
G1 X176.438 Y76.325 E.05243
G1 X177.46 Y76.431 E.05714
G1 X178.388 Y76.795 E.0554
G1 X179.184 Y77.384 E.05502
G1 X179.8 Y78.159 E.05502
G1 X180.195 Y79.067 E.05502
G1 X180.345 Y80.126 E.05947
G1 X180.229 Y81.029 E.05061
G1 X179.884 Y81.908 E.05243
G1 X179.433 Y82.537 E.04299
G1 X179.184 Y82.839 E.02175
G1 X178.502 Y83.362 E.04782
G1 X177.795 Y83.673 E.04288
G1 X177.467 Y83.791 E.01937
G1 X176.614 Y83.903 E.0478
G1 X175.631 Y83.791 E.05502
G1 X174.702 Y83.422 E.05556
M204 S1000
G1 X174.858 Y83.127 F10800
M204 S800
;TYPE:External perimeter
G1 F1200
G1 X174.087 Y82.543 E.05378
G1 X173.563 Y81.86 E.0478
G1 X173.212 Y81.028 E.0502
G1 X173.088 Y80.133 E.0502
G1 X173.201 Y79.237 E.0502
G1 X173.523 Y78.443 E.04762
G1 X174.085 Y77.681 E.05257
G1 X174.8 Y77.125 E.05034
G1 X175.632 Y76.774 E.0502
G1 X176.481 Y76.657 E.04762
G1 X177.421 Y76.762 E.05257
G1 X178.261 Y77.103 E.05034
G1 X178.981 Y77.649 E.0502
G1 X179.535 Y78.362 E.0502
G1 X179.886 Y79.194 E.0502
G1 X180.011 Y80.116 E.05169
G1 X179.897 Y80.986 E.04874
G1 X179.575 Y81.78 E.04762
G1 X178.981 Y82.573 E.05509
G1 X178.298 Y83.097 E.04782
G1 X177.424 Y83.46 E.05261
G1 X176.571 Y83.572 E.0478
G1 X175.674 Y83.46 E.0502
G1 X174.913 Y83.15 E.04566
M204 S1000
G1 X174.513 Y83.33 F10800
;WIPE_START
G1 F8640
G1 X174.087 Y82.543 E-.23686
G1 X173.563 Y81.86 E-.19862
G1 X173.212 Y81.028 E-.2086
G1 X173.143 Y80.531 E-.11592
;WIPE_END
G1 E-.04 F2100
G1 Z.8 F720
G1 X190.414 Y98.243 F10800
G1 Z.4 F720
G1 E.8 F2100
M204 S800
;TYPE:Perimeter
G1 F1200
G1 X190.145 Y98.615 E.02549
G1 X189.702 Y98.977 E.03181
G1 X189.18 Y99.212 E.03181
G1 X188.614 Y99.303 E.03181
G1 X188.045 Y99.245 E.03181
G1 X187.51 Y99.042 E.03181
G1 X187.045 Y98.707 E.03181
G1 X186.683 Y98.264 E.03181
G1 X186.449 Y97.742 E.03181
G1 X186.357 Y97.177 E.03181
G1 X186.415 Y96.607 E.03181
G1 X186.618 Y96.072 E.03181
G1 X186.953 Y95.607 E.03181
G1 X187.396 Y95.246 E.03181
G1 X187.919 Y95.011 E.03181
G1 X188.435 Y94.926 E.02908
G1 X189.04 Y94.975 E.03372
G1 X189.588 Y95.18 E.03256
G1 X190.053 Y95.515 E.03181
G1 X190.415 Y95.959 E.03181
G1 X190.649 Y96.481 E.03181
G1 X190.745 Y97.111 E.03544
G1 X190.683 Y97.615 E.02823
G1 X190.48 Y98.15 E.03181
G1 X190.449 Y98.194 E.00299
M204 S1000
G1 X190.139 Y98.073 F10800
M204 S800
;TYPE:External perimeter
G1 F1200
G1 X189.849 Y98.442 E.02607
G1 X189.461 Y98.733 E.02699
G1 X189.01 Y98.914 E.02699
G1 X188.527 Y98.972 E.02699
G1 X188.046 Y98.903 E.02699
G1 X187.6 Y98.712 E.02699
G1 X187.218 Y98.411 E.02699
G1 X186.927 Y98.023 E.02699
G1 X186.746 Y97.572 E.02699
G1 X186.688 Y97.089 E.02699
G1 X186.757 Y96.609 E.02699
