; generated by PrusaSlicer 2.5.2+win64 on 2023-08-16 at 02:19:05 UTC


;
;
; 

; external perimeters extrusion width = 0.60mm
; perimeters extrusion width = 0.50mm
; infill extrusion width = 0.50mm
; solid infill extrusion width = 0.50mm
; top infill extrusion width = 0.45mm
; first layer extrusion width = 0.42mm

; external perimeters extrusion width = 0.60mm
; perimeters extrusion width = 0.50mm
; infill extrusion width = 0.50mm
; solid infill extrusion width = 0.50mm
; top infill extrusion width = 0.45mm
; first layer extrusion width = 0.42mm

M73 P0 R64
M73 Q0 S65
M201 X1000 Y1000 Z200 E5000 ; sets maximum accelerations, mm/sec^2
M203 X200 Y200 Z12 E120 ; sets maximum feedrates, mm / sec
M204 P1250 R1250 T1250 ; sets acceleration (P, T) and retract acceleration (R), mm/sec^2
M205 X8.00 Y8.00 Z0.40 E4.50 ; sets the jerk limits, mm/sec
M205 S0 T0 ; sets the minimum extruding and travel feed rate, mm/sec
M107
;TYPE:Custom
M862.3 P "MK3" ; printer model check
M862.1 P0.4 ; nozzle diameter check
M115 U3.12.2 ; tell printer latest fw version
G90 ; use absolute coordinates
M83 ; extruder relative mode
M104 S215 ; set extruder temp
M140 S60 ; set bed temp
M190 S60 ; wait for bed temp
M109 S215 ; wait for extruder temp
G28 W ; home all without mesh bed level
G80 ; mesh bed leveling

G1 Z0.2 F720
G1 Y-3 F1000 ; go outside print area
G92 E0
G1 X60 E9 F1000 ; intro line
G1 X100 E12.5 F1000 ; intro line

G92 E0
M221 S95

; Don't change E values below. Excessive value can damage the printer.

M907 E538 ; set extruder motor current
G21 ; set units to millimeters
G90 ; use absolute coordinates
M83 ; use relative distances for extrusion
M900 K0.05 ; Filament gcode LA 1.5
M900 K30 ; Filament gcode LA 1.0
M107
;LAYER_CHANGE
;Z:0.4
;HEIGHT:0.4
;BEFORE_LAYER_CHANGE
G92 E0.0
;0.4


G1 E-.8 F2100
G1 Z.4 F720
;AFTER_LAYER_CHANGE
;0.4
G1 Z.8
G1 X65.019 Y66.697 F10800
G1 Z.4 F720
G1 E.8 F2100
M204 S800
;TYPE:Skirt/Brim
;WIDTH:0.42
G1 F1200
G1 X66.669 Y66.013 E.09928
G1 X190.494 Y66.013 E6.88107
G1 X192.145 Y66.697 E.09928
G1 X195.132 Y69.684 E.23479
G1 X195.804 Y71.096 E.08688
G1 X198.515 Y97.594 E1.4802
G1 X198.515 Y120.319 E1.26285
G1 X197.831 Y121.97 E.09928
G1 X194.844 Y124.957 E.23479
G1 X193.193 Y125.641 E.09928
G1 X69.368 Y125.641 E6.88107
G1 X67.718 Y124.957 E.09928
G1 X64.73 Y121.97 E.23479
G1 X64.059 Y120.558 E.08688
G1 X61.36 Y94.298 E1.46694
G1 X61.348 Y71.335 E1.27611
M73 Q0 S64
G1 X62.031 Y69.684 E.09928
G1 X64.976 Y66.739 E.23145
M204 S1000
;WIPE_START
G1 F8640
G1 X66.669 Y66.013 E-.42534
G1 X68.119 Y66.013 E-.33466
;WIPE_END
G1 E-.04 F2100
G1 Z.8 F720
G1 X66.522 Y69.412 F10800
G1 Z.4 F720
G1 E.8 F2100
M204 S800
G1 F1200
G1 X67.926 Y68.905 E.08296
G1 X189.206 Y68.894 E6.73968
G1 X189.978 Y69.108 E.04449
G1 X190.691 Y69.435 E.04361
G1 X191.74 Y70.275 E.07467
G1 X192.591 Y71.539 E.08467
G1 X192.987 Y73.006 E.08442
G1 X192.987 Y92.392 E1.07732
G1 X192.61 Y93.815 E.08182
G1 X191.779 Y95.117 E.08585
G1 X192.707 Y95.379 E.05357
G1 X193.467 Y95.742 E.04681
G1 X194.477 Y96.575 E.07275
G1 X195.312 Y97.848 E.08461
G1 X195.692 Y99.307 E.08378
G1 X195.686 Y118.651 E1.07498
G1 X195.264 Y120.174 E.08784
G1 X194.468 Y121.345 E.07864
G1 X193.341 Y122.242 E.08006
G1 X191.937 Y122.749 E.08294
G1 X71.082 Y122.818 E6.71603
G1 X69.567 Y122.414 E.08713
M73 P1 R64
M73 Q1 S64
G1 X68.344 Y121.595 E.08183
G1 X67.445 Y120.467 E.08012
G1 X66.939 Y119.066 E.0828
G1 X66.869 Y99.312 E1.09773
G1 X67.228 Y97.895 E.08124
G1 X68.102 Y96.504 E.09128
G1 X66.972 Y96.201 E.06504
G1 X65.725 Y95.408 E.08212
G1 X64.747 Y94.208 E.08603
G1 X64.24 Y92.807 E.08282
G1 X64.17 Y73.053 E1.09773
G1 X64.574 Y71.534 E.08735
G1 X65.394 Y70.31 E.08185
G1 X66.475 Y69.449 E.07679
M204 S1000
G1 X66.664 Y69.715 F10800
M204 S800
G1 F1200
G1 X67.956 Y69.239 E.07654
G1 X189.14 Y69.222 E6.7343
G1 X189.851 Y69.417 E.04098
G1 X190.533 Y69.73 E.04167
G1 X191.51 Y70.519 E.06979
G1 X192.297 Y71.7 E.07891
G1 X192.659 Y73.069 E.07868
G1 X192.653 Y92.369 E1.07252
G1 X192.294 Y93.702 E.0767
G1 X191.606 Y94.767 E.07046
G1 X190.788 Y95.468 E.05987
G1 X191.838 Y95.481 E.05835
G1 X192.576 Y95.686 E.04258
G1 X193.304 Y96.035 E.04481
G1 X194.244 Y96.816 E.06795
G1 X194.996 Y97.96 E.07607
G1 X195.358 Y99.329 E.07868
G1 X195.352 Y118.629 E1.07252
G1 X194.971 Y120.011 E.07968
G1 X194.238 Y121.101 E.07299
G1 X193.199 Y121.939 E.07417
G1 X191.907 Y122.415 E.07653
G1 X71.104 Y122.484 E6.71316
G1 X69.728 Y122.12 E.07905
M73 P1 R63
G1 X68.587 Y121.364 E.07607
G1 X67.749 Y120.325 E.0742
G1 X67.273 Y119.035 E.07642
G1 X67.204 Y99.333 E1.09486
G1 X67.545 Y98.005 E.07621
G1 X68.255 Y96.889 E.07347
G1 X69.022 Y96.229 E.05621
G1 X68.321 Y96.214 E.03893
G1 X67.127 Y95.904 E.06857
G1 X65.965 Y95.174 E.07626
G1 X65.05 Y94.065 E.07989
G1 X64.574 Y92.775 E.07639
G1 X64.504 Y73.073 E1.09486
G1 X64.868 Y71.695 E.07923
G1 X65.624 Y70.553 E.07608
G1 X66.617 Y69.753 E.07087
M204 S1000
G1 X66.808 Y70.018 F10800
M204 S800
G1 F1200
G1 X67.987 Y69.573 E.07002
G1 X189.073 Y69.55 E6.72887
G1 X189.749 Y69.736 E.03896
G1 X190.373 Y70.024 E.03819
G1 X191.28 Y70.762 E.06495
G1 X191.982 Y71.814 E.07029
G1 X192.325 Y73.092 E.07352
G1 X192.319 Y92.348 E1.07008
G1 X192 Y93.543 E.06875
G1 X191.34 Y94.564 E.06755
G1 X190.399 Y95.352 E.06819
G1 X189.956 Y95.535 E.02664
G1 X190.009 Y95.804 E.01521
G1 X191.772 Y95.81 E.09797
G1 X192.448 Y95.995 E.03894
G1 X193.107 Y96.305 E.04048
G1 X194.012 Y97.057 E.06538
G1 X194.681 Y98.073 E.06757
G1 X195.024 Y99.351 E.07355
G1 X195.018 Y118.606 E1.07005
G1 X194.678 Y119.849 E.07159
G1 X194.007 Y120.859 E.06738
G1 X193.055 Y121.636 E.06831
G1 X191.876 Y122.081 E.07001
G1 X71.125 Y122.149 E6.71026
G1 X69.888 Y121.825 E.07104
G1 X68.829 Y121.132 E.07034
M73 P2 R63
G1 X68.051 Y120.18 E.0683
G1 X67.607 Y119.003 E.06994
G1 X67.538 Y99.353 E1.092
G1 X67.841 Y98.161 E.06831
M73 Q2 S64
G1 X68.522 Y97.091 E.0705
G1 X69.465 Y96.302 E.06831
G1 X69.804 Y96.157 E.02052
G1 X69.75 Y95.89 E.01513
G1 X68.383 Y95.885 E.07596
G1 X67.237 Y95.587 E.06584
G1 X66.167 Y94.906 E.07047
G1 X65.352 Y93.921 E.07106
G1 X64.908 Y92.744 E.06991
G1 X64.839 Y73.094 E1.09196
G1 X65.163 Y71.855 E.07118
G1 X65.856 Y70.795 E.07035
G1 X66.762 Y70.056 E.06497
M204 S1000
;WIPE_START
G1 F8640
G1 X67.987 Y69.573 E-.3041
G1 X69.961 Y69.573 E-.4559
;WIPE_END
G1 E-.04 F2100
G1 Z.8 F720
G1 X70.718 Y96.166 F10800
G1 Z.4 F720
G1 E.8 F2100
M204 S800
G1 F1200
G1 X191.707 Y96.138 E6.72345
G1 X192.321 Y96.305 E.03538
M73 Q2 S63
G1 X192.912 Y96.578 E.03619
G1 X193.747 Y97.263 E.06
G1 X194.387 Y98.234 E.06463
G1 X194.69 Y99.372 E.06547
G1 X194.684 Y118.584 E1.06762
G1 X194.384 Y119.688 E.06358
G1 X193.774 Y120.618 E.06179
G1 X192.908 Y121.335 E.06247
G1 X191.844 Y121.747 E.06338
G1 X71.146 Y121.815 E6.70733
G1 X70.046 Y121.53 E.06312
G1 X69.069 Y120.899 E.06463
G1 X68.353 Y120.033 E.06244
G1 X67.941 Y118.97 E.06335
G1 X67.872 Y99.373 E1.08903
G1 X68.158 Y98.272 E.06322
G1 X68.789 Y97.295 E.06464
G1 X69.654 Y96.578 E.06244
G1 X70.662 Y96.188 E.06005
M204 S1000
G1 X70.78 Y96.5 F10800
M204 S800
G1 F1200
G1 X191.64 Y96.466 E6.71633
G1 X192.219 Y96.623 E.03333
G1 X192.751 Y96.871 E.03259
G1 X193.513 Y97.503 E.05504
G1 X194.092 Y98.393 E.05897
G1 X194.355 Y99.394 E.05752
G1 X194.355 Y118.52 E1.06288
G1 X194.088 Y119.53 E.05805
G1 X193.541 Y120.377 E.05606
G1 X192.716 Y121.059 E.05945
G1 X191.755 Y121.424 E.05714
G1 X71.167 Y121.481 E6.70114
G1 X70.158 Y121.214 E.05806
G1 X69.31 Y120.666 E.05606
G1 X68.628 Y119.842 E.05945
G1 X68.264 Y118.881 E.05712
G1 X68.206 Y99.395 E1.08287
G1 X68.474 Y98.383 E.05813
G1 X69.021 Y97.536 E.05607
G1 X69.845 Y96.854 E.05945
G1 X70.724 Y96.521 E.05219
M204 S1000
G1 X70.839 Y96.834 F10800
M204 S800
G1 F1200
G1 X70.894 Y96.813 E.00327
G1 X191.576 Y96.795 E6.70638
G1 X192.092 Y96.932 E.02967
M73 P3 R62
G1 X192.589 Y97.165 E.03051
G1 X193.28 Y97.743 E.05005
G1 X193.776 Y98.506 E.05057
G1 X194.021 Y99.416 E.05241
G1 X194.021 Y118.498 E1.06038
M73 Q3 S63
G1 X193.773 Y119.416 E.05287
G1 X193.276 Y120.172 E.05024
G1 X192.528 Y120.782 E.05369
G1 X191.667 Y121.1 E.05095
G1 X71.19 Y121.147 E6.69505
G1 X70.271 Y120.899 E.05288
G1 X69.516 Y120.402 E.05024
G1 X68.905 Y119.653 E.05369
G1 X68.588 Y118.793 E.05094
G1 X68.54 Y99.417 E1.07679
G1 X68.789 Y98.497 E.05292
G1 X69.286 Y97.742 E.05024
G1 X70.034 Y97.131 E.05369
G1 X70.783 Y96.854 E.04435
M204 S1000
G1 X70.895 Y97.168 F10800
M204 S800
G1 F1200
G1 X70.979 Y97.138 E.00496
G1 X191.511 Y97.123 E6.69806
G1 X191.991 Y97.251 E.0276
G1 X192.426 Y97.457 E.02675
G1 X193.044 Y97.981 E.04501
G1 X193.481 Y98.663 E.04502
G1 X193.687 Y99.438 E.04455
G1 X193.687 Y118.475 E1.05789
G1 X193.458 Y119.3 E.04759
G1 X193.014 Y119.963 E.04439
G1 X192.341 Y120.504 E.04794
G1 X191.583 Y120.776 E.04478
G1 X71.213 Y120.813 E6.68905
G1 X70.388 Y120.584 E.04759
G1 X69.724 Y120.139 E.04439
G1 X69.184 Y119.467 E.04794
G1 X68.912 Y118.709 E.04477
G1 X68.875 Y99.439 E1.07081
G1 X69.103 Y98.613 E.04762
G1 X69.548 Y97.95 E.04439
G1 X70.221 Y97.41 E.04794
G1 X70.839 Y97.188 E.03649
M204 S1000
G1 X70.951 Y97.503 F10800
M204 S800
G1 F1200
G1 X71.065 Y97.462 E.00669
G1 X191.448 Y97.452 E6.68978
G1 X191.862 Y97.56 E.02382
M73 Q3 S62
G1 X192.262 Y97.749 E.02457
G1 X192.807 Y98.218 E.03994
G1 X193.165 Y98.777 E.03688
G1 X193.353 Y99.461 E.03943
G1 X193.353 Y118.452 E1.05538
G1 X193.165 Y119.139 E.03957
G1 X192.781 Y119.722 E.03879
G1 X192.201 Y120.199 E.04174
G1 X191.497 Y120.451 E.04153
G1 X71.235 Y120.479 E6.68306
G1 X70.548 Y120.29 E.03957
G1 X69.965 Y119.907 E.03879
G1 X69.488 Y119.326 E.04174
G1 X69.236 Y118.623 E.04153
G1 X69.209 Y99.461 E1.06483
G1 X69.397 Y98.774 E.03959
G1 X69.781 Y98.191 E.03879
G1 X70.361 Y97.714 E.04174
G1 X70.895 Y97.523 E.03151
M204 S1000
G1 X71.008 Y97.837 F10800
M204 S800
G1 F1200
G1 X71.15 Y97.786 E.00842
G1 X191.386 Y97.781 E6.68161
G1 X191.735 Y97.87 E.01998
M73 P4 R62
M73 Q4 S62
G1 X192.098 Y98.041 E.02232
G1 X192.569 Y98.453 E.03479
G1 X192.851 Y98.892 E.02898
G1 X193.019 Y99.485 E.03422
G1 X193.019 Y118.429 E1.05273
G1 X192.85 Y119.023 E.03431
G1 X192.547 Y119.483 E.03067
G1 X192.059 Y119.895 E.03548
G1 X191.411 Y120.127 E.03821
G1 X71.259 Y120.144 E6.67698
G1 X70.665 Y119.976 E.03431
G1 X70.204 Y119.672 E.03067
G1 X69.792 Y119.184 E.03548
G1 X69.56 Y118.537 E.0382
G1 X69.543 Y99.485 E1.05876
G1 X69.711 Y98.891 E.03432
G1 X70.015 Y98.43 E.03067
G1 X70.503 Y98.018 E.03548
G1 X70.951 Y97.858 E.02645
M204 S1000
G1 X71.058 Y98.17 F10800
M204 S800
G1 F1200
G1 X71.231 Y98.111 E.01016
G1 X191.327 Y98.11 E6.67385
G1 X191.608 Y98.179 E.01607
G1 X191.933 Y98.333 E.01995
G1 X192.329 Y98.687 E.02956
G1 X192.538 Y99.01 E.02138
G1 X192.685 Y99.509 E.02892
G1 X192.685 Y118.404 E1.04997
G1 X192.537 Y118.904 E.02895
M73 P4 R61
G1 X192.313 Y119.243 E.02263
G1 X191.868 Y119.619 E.03235
G1 X191.331 Y119.802 E.03154
G1 X71.284 Y119.81 E6.67113
G1 X70.784 Y119.663 E.02895
G1 X70.444 Y119.439 E.02263
G1 X70.069 Y118.994 E.03235
G1 X69.886 Y118.457 E.03153
G1 X69.877 Y99.51 E1.05291
G1 X70.024 Y99.01 E.02896
G1 X70.249 Y98.67 E.02263
G1 X70.694 Y98.295 E.03235
G1 X71.001 Y98.19 E.01805
M204 S1000
G1 X71.112 Y98.499 F10800
M204 S800
G1 F1200
G1 X71.261 Y98.446 E.0088
G1 X191.271 Y98.44 E6.66906
G1 X191.482 Y98.489 E.01205
G1 X191.766 Y98.623 E.01745
G1 X192.087 Y98.918 E.02422
G1 X192.226 Y99.132 E.01417
G1 X192.35 Y99.536 E.02348
G1 X192.35 Y118.378 E1.04706
G1 X192.226 Y118.781 E.02346
G1 X192.075 Y119.008 E.01513
G1 X191.723 Y119.316 E.02602
G1 X191.301 Y119.468 E.02494
G1 X71.31 Y119.476 E6.66799
G1 X70.907 Y119.352 E.02346
M73 P5 R61
M73 Q5 S62
G1 X70.68 Y119.201 E.01513
G1 X70.371 Y118.849 E.02602
G1 X70.22 Y118.426 E.02494
G1 X70.211 Y99.536 E1.04978
G1 X70.336 Y99.132 E.02346
G1 X70.486 Y98.905 E.01513
G1 X70.839 Y98.597 E.02602
G1 X71.056 Y98.519 E.01281
M204 S1000
G1 X71.158 Y98.83 F10800
M204 S800
G1 F1200
G1 X71.338 Y98.771 E.01053
G1 X191.251 Y98.774 E6.66369
G1 X191.355 Y98.799 E.00592
M73 Q5 S61
G1 X191.598 Y98.914 E.01492
G1 X191.842 Y99.146 E.01875
G1 X191.916 Y99.259 E.00748
G1 X192.016 Y99.564 E.01785
G1 X192.016 Y118.349 E1.04394
G1 X191.916 Y118.654 E.01781
G1 X191.839 Y118.771 E.0078
G1 X191.53 Y119.041 E.0228
G1 X191.224 Y119.142 E.01792
G1 X71.338 Y119.142 E6.66216
G1 X71.034 Y119.042 E.01781
G1 X70.917 Y118.964 E.0078
G1 X70.646 Y118.656 E.0228
G1 X70.545 Y118.349 E.01792
G1 X70.545 Y99.564 E1.04394
G1 X70.645 Y99.259 E.01781
G1 X70.723 Y99.142 E.0078
G1 X71.032 Y98.872 E.0228
G1 X71.101 Y98.849 E.00406
M204 S1000
G1 X71.213 Y99.161 F10800
M204 S800
G1 F1200
G1 X71.369 Y99.105 E.00922
G1 X191.205 Y99.105 E6.6594
G1 X191.427 Y99.202 E.01345
G1 X191.594 Y99.369 E.01312
G1 X191.682 Y99.595 E.01345
G1 X191.682 Y118.318 E1.04048
G1 X191.596 Y118.541 E.01328
G1 X191.381 Y118.74 E.01626
G1 X191.193 Y118.808 E.01113
G1 X71.369 Y118.808 E6.6587
G1 X71.146 Y118.721 E.01328
G1 X70.947 Y118.507 E.01626
G1 X70.88 Y118.318 E.01113
G1 X70.88 Y99.595 E1.04049
G1 X70.966 Y99.372 E.01328
G1 X71.162 Y99.19 E.01484
M204 S1000
G1 X71.345 Y99.465 F10800
M204 S800
G1 F1200
G1 X71.406 Y99.44 E.00369
G1 X191.156 Y99.44 E6.65458
G1 X191.217 Y99.465 E.00369
G1 X191.323 Y99.571 E.0083
G1 X191.348 Y99.632 E.00369
G1 X191.348 Y118.281 E1.03636
G1 X191.323 Y118.343 E.00369
G1 X191.217 Y118.448 E.0083
G1 X191.156 Y118.474 E.00369
G1 X71.406 Y118.474 E6.65458
G1 X71.345 Y118.448 E.00369
M73 P6 R60
M73 Q6 S61
G1 X71.239 Y118.343 E.0083
G1 X71.214 Y118.281 E.00369
G1 X71.214 Y99.632 E1.03636
G1 X71.239 Y99.571 E.00369
G1 X71.302 Y99.507 E.00496
M204 S1000
;WIPE_START
G1 F8640
G1 X71.406 Y99.44 E-.02864
G1 X74.574 Y99.44 E-.73136
;WIPE_END
G1 E-.04 F2100
G1 Z.8 F720
G1 X71.3 Y95.554 F10800
G1 Z.4 F720
G1 E.8 F2100
M204 S800
G1 F1200
G1 X68.446 Y95.556 E.15859
G1 X67.347 Y95.271 E.06312
G1 X66.37 Y94.64 E.06463
G1 X65.654 Y93.774 E.06244
G1 X65.242 Y92.711 E.06335
G1 X65.173 Y73.114 E1.08903
G1 X65.458 Y72.013 E.06322
G1 X66.089 Y71.035 E.06464
G1 X66.955 Y70.319 E.06244
G1 X68.019 Y69.907 E.06339
G1 X189.007 Y69.879 E6.72345
G1 X189.622 Y70.045 E.03538
G1 X190.213 Y70.319 E.03619
G1 X191.048 Y71.003 E.06
G1 X191.688 Y71.975 E.06463
G1 X191.99 Y73.113 E.06547
G1 X191.985 Y92.325 E1.06762
G1 X191.684 Y93.429 E.06358
G1 X191.075 Y94.359 E.06179
G1 X190.208 Y95.076 E.06247
G1 X189.145 Y95.488 E.06338
G1 X71.36 Y95.554 E6.54541
M204 S1000
G1 X71.36 Y95.22 F10800
M204 S800
G1 F1200
G1 X68.468 Y95.222 E.16069
G1 X67.458 Y94.955 E.05806
G1 X66.611 Y94.407 E.05606
G1 X65.929 Y93.583 E.05945
G1 X65.565 Y92.622 E.05712
G1 X65.507 Y73.135 E1.08287
G1 X65.775 Y72.124 E.05813
G1 X66.322 Y71.277 E.05607
G1 X67.146 Y70.595 E.05945
G1 X68.108 Y70.23 E.05714
G1 X188.941 Y70.207 E6.71482
G1 X189.52 Y70.364 E.03333
G1 X190.052 Y70.612 E.03259
G1 X190.814 Y71.244 E.05504
G1 X191.393 Y72.134 E.05897
G1 X191.656 Y73.134 E.05752
G1 X191.656 Y92.261 E1.06288
G1 X191.389 Y93.271 E.05805
M73 Q6 S60
G1 X190.841 Y94.118 E.05606
G1 X190.017 Y94.8 E.05945
G1 X189.056 Y95.164 E.05714
G1 X71.42 Y95.22 E6.53712
M204 S1000
G1 X71.42 Y94.887 F10800
M204 S800
G1 F1200
G1 X68.491 Y94.888 E.16277
G1 X67.572 Y94.639 E.05288
G1 X66.817 Y94.143 E.05024
G1 X66.206 Y93.394 E.05369
G1 X65.889 Y92.534 E.05094
G1 X65.841 Y73.157 E1.07679
G1 X66.09 Y72.238 E.05292
G1 X66.586 Y71.482 E.05024
G1 X67.335 Y70.872 E.05369
G1 X68.195 Y70.554 E.05095
G1 X188.877 Y70.536 E6.70638
G1 X189.393 Y70.673 E.02967
M73 P7 R60
M73 Q7 S60
G1 X189.89 Y70.905 E.03051
G1 X190.58 Y71.484 E.05005
G1 X191.077 Y72.246 E.05057
G1 X191.322 Y73.157 E.05241
G1 X191.322 Y92.238 E1.06038
G1 X191.074 Y93.157 E.05287
G1 X190.577 Y93.912 E.05024
G1 X189.828 Y94.523 E.05369
G1 X188.968 Y94.841 E.05095
G1 X71.48 Y94.887 E6.52894
M204 S1000
G1 X71.48 Y94.553 F10800
M204 S800
G1 F1200
G1 X68.514 Y94.554 E.16482
G1 X67.688 Y94.325 E.04759
G1 X67.025 Y93.88 E.04439
G1 X66.485 Y93.208 E.04794
G1 X66.213 Y92.449 E.04477
G1 X66.176 Y73.18 E1.07081
G1 X66.404 Y72.354 E.04762
G1 X66.849 Y71.691 E.04439
G1 X67.521 Y71.15 E.04794
G1 X68.28 Y70.878 E.04478
G1 X188.812 Y70.864 E6.69806
G1 X189.292 Y70.992 E.0276
G1 X189.727 Y71.198 E.02675
G1 X190.345 Y71.722 E.04501
G1 X190.781 Y72.404 E.04502
