; generated by PrusaSlicer 2.5.2+win64 on 2023-08-16 at 02:17:42 UTC


;
;
; 

; external perimeters extrusion width = 0.60mm
; perimeters extrusion width = 0.50mm
; infill extrusion width = 0.50mm
; solid infill extrusion width = 0.50mm
; top infill extrusion width = 0.45mm
; first layer extrusion width = 0.42mm

M73 P0 R81
M73 Q0 S82
M201 X1000 Y1000 Z200 E5000 ; sets maximum accelerations, mm/sec^2
M203 X200 Y200 Z12 E120 ; sets maximum feedrates, mm / sec
M204 P1250 R1250 T1250 ; sets acceleration (P, T) and retract acceleration (R), mm/sec^2
M205 X8.00 Y8.00 Z0.40 E4.50 ; sets the jerk limits, mm/sec
M205 S0 T0 ; sets the minimum extruding and travel feed rate, mm/sec
M107
;TYPE:Custom
M862.3 P "MK3" ; printer model check
M862.1 P0.4 ; nozzle diameter check
M115 U3.12.2 ; tell printer latest fw version
G90 ; use absolute coordinates
M83 ; extruder relative mode
M104 S215 ; set extruder temp
M140 S60 ; set bed temp
M190 S60 ; wait for bed temp
M109 S215 ; wait for extruder temp
G28 W ; home all without mesh bed level
G80 ; mesh bed leveling

G1 Z0.2 F720
G1 Y-3 F1000 ; go outside print area
G92 E0
G1 X60 E9 F1000 ; intro line
G1 X100 E12.5 F1000 ; intro line

G92 E0
M221 S95

; Don't change E values below. Excessive value can damage the printer.

M907 E538 ; set extruder motor current
G21 ; set units to millimeters
G90 ; use absolute coordinates
M83 ; use relative distances for extrusion
M900 K0.05 ; Filament gcode LA 1.5
M900 K30 ; Filament gcode LA 1.0
M107
;LAYER_CHANGE
;Z:0.4
;HEIGHT:0.4
;BEFORE_LAYER_CHANGE
G92 E0.0
;0.4


G1 E-.8 F2100
G1 Z.4 F720
;AFTER_LAYER_CHANGE
;0.4
G1 Z.8
G1 X71.099 Y119.016 F10800
G1 Z.4 F720
G1 E.8 F2100
M204 S800
;TYPE:Skirt/Brim
;WIDTH:0.42
G1 F1200
G1 X72.75 Y118.332 E.09928
G1 X196.575 Y118.332 E6.88107
G1 X198.225 Y119.016 E.09928
G1 X201.213 Y122.003 E.23479
G1 X201.896 Y123.654 E.09928
G1 X201.896 Y177.479 E2.9911
G1 X201.213 Y179.129 E.09928
M73 Q0 S81
G1 X198.225 Y182.117 E.23479
G1 X196.575 Y182.8 E.09928
G1 X72.75 Y182.8 E6.88107
G1 X71.099 Y182.117 E.09928
G1 X68.112 Y179.129 E.23479
G1 X67.428 Y177.479 E.09928
G1 X67.428 Y123.654 E2.9911
G1 X68.112 Y122.003 E.09928
G1 X71.057 Y119.058 E.23145
M204 S1000
;WIPE_START
G1 F8640
G1 X72.75 Y118.332 E-.42534
G1 X74.199 Y118.332 E-.33466
;WIPE_END
G1 E-.04 F2100
G1 Z.8 F720
G1 X72.745 Y121.664 F10800
G1 Z.4 F720
G1 E.8 F2100
M204 S800
G1 F1200
G1 X72.827 Y121.611 E.0054
G1 X74.455 Y121.155 E.09396
G1 X194.828 Y121.158 E6.68924
G1 X195.796 Y121.339 E.05477
G1 X196.736 Y121.735 E.05663
G1 X197.817 Y122.591 E.07666
G1 X198.671 Y123.857 E.08488
G1 X199.073 Y125.367 E.0868
G1 X199.073 Y175.761 E2.80046
G1 X198.78 Y177.002 E.07083
G1 X198.331 Y177.911 E.05635
G1 X197.295 Y179.005 E.08375
G1 X196.498 Y179.521 E.05277
G1 X194.87 Y179.977 E.09395
G1 X74.467 Y179.977 E6.69088
G1 X73.227 Y179.684 E.07083
M73 P0 R80
G1 X72.318 Y179.235 E.05635
G1 X71.224 Y178.199 E.08375
G1 X70.707 Y177.402 E.05277
G1 X70.251 Y175.774 E.09395
G1 X70.251 Y125.371 E2.80092
G1 X70.544 Y124.131 E.07083
G1 X70.993 Y123.222 E.05635
G1 X72.03 Y122.128 E.08375
G1 X72.695 Y121.697 E.04404
M204 S1000
G1 X72.875 Y121.977 F10800
M204 S800
G1 F1200
G1 X72.986 Y121.906 E.00733
G1 X74.477 Y121.489 E.08608
G1 X194.812 Y121.492 E6.68709
G1 X195.716 Y121.664 E.05115
M73 P1 R80
M73 Q1 S81
G1 X196.584 Y122.033 E.05239
G1 X197.588 Y122.835 E.07144
G1 X198.378 Y124.019 E.07908
G1 X198.739 Y125.388 E.07868
G1 X198.739 Y175.741 E2.79816
G1 X198.46 Y176.904 E.06648
G1 X198.044 Y177.738 E.05179
G1 X197.068 Y178.759 E.07849
G1 X196.339 Y179.226 E.04811
G1 X194.847 Y179.643 E.08607
G1 X74.487 Y179.643 E6.6885
G1 X73.324 Y179.364 E.06648
G1 X72.49 Y178.948 E.05179
G1 X71.469 Y177.972 E.07849
G1 X71.002 Y177.243 E.04811
G1 X70.585 Y175.751 E.08607
G1 X70.585 Y125.391 E2.79854
G1 X70.864 Y124.228 E.06648
G1 X71.281 Y123.394 E.05179
G1 X72.257 Y122.373 E.07849
G1 X72.824 Y122.01 E.03745
M204 S1000
G1 X73.002 Y122.291 F10800
M204 S800
G1 F1200
G1 X73.143 Y122.202 E.00927
G1 X74.5 Y121.823 E.07827
G1 X194.796 Y121.827 E6.68493
G1 X195.634 Y121.989 E.04748
G1 X196.43 Y122.331 E.04813
G1 X197.358 Y123.079 E.06627
G1 X198.062 Y124.133 E.0704
G1 X198.405 Y125.41 E.07352
G1 X198.405 Y175.721 E2.79579
G1 X198.14 Y176.806 E.06208
G1 X197.757 Y177.564 E.04721
G1 X196.842 Y178.512 E.07321
G1 X196.181 Y178.931 E.04347
G1 X194.824 Y179.309 E.07827
G1 X74.508 Y179.309 E6.68611
G1 X73.422 Y179.044 E.06208
M73 Q1 S80
G1 X72.664 Y178.661 E.04721
G1 X71.716 Y177.746 E.07321
G1 X71.298 Y177.085 E.04347
G1 X70.919 Y175.728 E.07827
G1 X70.919 Y125.412 E2.79615
G1 X71.184 Y124.326 E.06208
G1 X71.567 Y123.568 E.04721
G1 X72.483 Y122.62 E.07321
G1 X72.952 Y122.323 E.03087
M204 S1000
G1 X73.128 Y122.599 F10800
M204 S800
G1 F1200
G1 X73.259 Y122.516 E.00859
G1 X74.524 Y122.158 E.07307
G1 X194.779 Y122.161 E6.6827
G1 X195.551 Y122.313 E.04375
G1 X196.275 Y122.628 E.04386
G1 X197.127 Y123.321 E.06105
G1 X197.768 Y124.293 E.0647
G1 X198.071 Y125.432 E.06548
G1 X198.071 Y175.7 E2.79344
G1 X197.821 Y176.706 E.05761
G1 X197.472 Y177.389 E.04263
G1 X196.616 Y178.265 E.06802
G1 X196.066 Y178.616 E.0363
G1 X194.801 Y178.975 E.07307
G1 X74.528 Y178.975 E6.68366
G1 X73.522 Y178.725 E.05761
G1 X72.839 Y178.376 E.04263
G1 X71.964 Y177.52 E.06802
G1 X71.612 Y176.97 E.0363
G1 X71.254 Y175.705 E.07307
G1 X71.254 Y125.432 E2.79369
G1 X71.504 Y124.426 E.05761
M73 P2 R80
M73 Q2 S80
G1 X71.853 Y123.743 E.04263
G1 X72.708 Y122.868 E.06802
G1 X73.078 Y122.632 E.02437
M204 S1000
G1 X73.255 Y122.913 F10800
M204 S800
G1 F1200
G1 X73.416 Y122.812 E.01057
G1 X74.547 Y122.492 E.06531
G1 X194.762 Y122.495 E6.68048
G1 X195.467 Y122.637 E.03997
M73 P2 R79
G1 X196.119 Y122.924 E.03958
G1 X196.894 Y123.562 E.05581
G1 X197.473 Y124.452 E.059
G1 X197.737 Y125.453 E.05752
G1 X197.737 Y175.679 E2.79108
G1 X197.502 Y176.605 E.05307
G1 X197.187 Y177.212 E.03803
G1 X196.393 Y178.015 E.06277
G1 X195.909 Y178.321 E.03182
G1 X194.778 Y178.641 E.06531
G1 X74.549 Y178.641 E6.6812
G1 X73.624 Y178.406 E.05307
G1 X73.016 Y178.091 E.03803
G1 X72.213 Y177.297 E.06277
G1 X71.908 Y176.813 E.03182
G1 X71.588 Y175.682 E.06531
G1 X71.588 Y125.453 E2.79123
G1 X71.822 Y124.528 E.05307
G1 X72.137 Y123.92 E.03803
G1 X72.931 Y123.117 E.06277
G1 X73.204 Y122.945 E.01791
M204 S1000
G1 X73.379 Y123.228 F10800
M204 S800
G1 F1200
G1 X73.571 Y123.108 E.01257
G1 X74.57 Y122.826 E.05765
G1 X194.746 Y122.829 E6.67828
G1 X195.349 Y122.95 E.03421
G1 X195.962 Y123.22 E.03723
G1 X196.661 Y123.802 E.05054
G1 X197.157 Y124.565 E.05058
G1 X197.403 Y125.476 E.05241
G1 X197.403 Y175.657 E2.78863
G1 X197.184 Y176.501 E.04845
G1 X196.904 Y177.034 E.03342
G1 X196.171 Y177.765 E.05751
G1 X195.753 Y178.024 E.02736
G1 X194.755 Y178.307 E.05765
G1 X74.571 Y178.307 E6.67871
G1 X73.727 Y178.088 E.04845
G1 X73.195 Y177.808 E.03342
G1 X72.464 Y177.075 E.05751
G1 X72.204 Y176.657 E.02736
G1 X71.922 Y175.659 E.05765
G1 X71.922 Y125.475 E2.78875
G1 X72.141 Y124.631 E.04845
G1 X72.421 Y124.099 E.03342
G1 X73.153 Y123.368 E.05751
G1 X73.328 Y123.259 E.01145
M204 S1000
G1 X73.501 Y123.542 F10800
M204 S800
G1 F1200
G1 X73.725 Y123.406 E.01461
G1 X74.593 Y123.16 E.05012
G1 X194.728 Y123.163 E6.67603
M73 Q2 S79
G1 X195.263 Y123.273 E.03036
G1 X195.804 Y123.515 E.0329
G1 X196.425 Y124.041 E.04523
G1 X196.862 Y124.723 E.04502
G1 X197.068 Y125.497 E.04455
G1 X197.068 Y175.635 E2.78619
G1 X196.866 Y176.396 E.04374
G1 X196.622 Y176.853 E.02881
G1 X195.952 Y177.512 E.05223
G1 X195.599 Y177.727 E.02293
G1 X194.732 Y177.972 E.05011
G1 X74.593 Y177.972 E6.67619
G1 X73.833 Y177.77 E.04374
M73 P3 R79
M73 Q3 S79
G1 X73.376 Y177.526 E.02881
G1 X72.716 Y176.856 E.05223
G1 X72.502 Y176.503 E.02293
G1 X72.256 Y175.636 E.05011
G1 X72.256 Y125.497 E2.78622
G1 X72.458 Y124.737 E.04374
G1 X72.703 Y124.28 E.02881
G1 X73.373 Y123.62 E.05224
G1 X73.449 Y123.574 E.00499
M204 S1000
G1 X73.618 Y123.858 F10800
M204 S800
G1 F1200
G1 X73.877 Y123.704 E.01669
G1 X74.616 Y123.494 E.04272
G1 X194.71 Y123.497 E6.67374
G1 X195.175 Y123.596 E.02641
G1 X195.643 Y123.809 E.02855
G1 X196.188 Y124.278 E.03998
G1 X196.547 Y124.836 E.03688
G1 X196.734 Y125.52 E.03943
G1 X196.734 Y175.612 E2.78363
G1 X196.549 Y176.288 E.03892
M73 P3 R78
G1 X196.341 Y176.67 E.02418
G1 X195.734 Y177.258 E.04695
G1 X195.448 Y177.428 E.01853
G1 X194.708 Y177.638 E.04272
G1 X74.616 Y177.638 E6.67362
G1 X73.941 Y177.453 E.03892
G1 X73.559 Y177.245 E.02418
G1 X72.971 Y176.638 E.04695
G1 X72.8 Y176.352 E.01853
G1 X72.59 Y175.612 E.04272
G1 X72.59 Y125.52 E2.78366
G1 X72.775 Y124.845 E.03892
G1 X72.983 Y124.463 E.02418
G1 X73.571 Y123.894 E.04545
M204 S1000
G1 X73.801 Y124.135 F10800
M204 S800
G1 F1200
G1 X73.992 Y124.019 E.01244
G1 X74.641 Y123.828 E.03757
G1 X194.691 Y123.832 E6.67133
G1 X195.084 Y123.918 E.02236
G1 X195.48 Y124.101 E.02421
G1 X195.95 Y124.513 E.03475
G1 X196.232 Y124.952 E.02898
G1 X196.4 Y125.544 E.03422
G1 X196.4 Y175.588 E2.78099
G1 X196.234 Y176.176 E.03397
G1 X196.062 Y176.484 E.01955
G1 X195.518 Y177.003 E.04181
G1 X195.332 Y177.114 E.012
G1 X194.684 Y177.304 E.03757
G1 X74.64 Y177.304 E6.67093
G1 X74.052 Y177.138 E.03397
G1 X73.745 Y176.966 E.01955
G1 X73.226 Y176.422 E.04181
G1 X73.115 Y176.236 E.012
G1 X72.924 Y175.588 E.03757
G1 X72.924 Y125.544 E2.78097
G1 X73.091 Y124.956 E.03397
G1 X73.262 Y124.649 E.01955
G1 X73.757 Y124.177 E.03803
M204 S1000
G1 X73.985 Y124.42 F10800
M204 S800
G1 F1200
G1 X74.141 Y124.318 E.01034
G1 X74.665 Y124.162 E.03039
G1 X194.672 Y124.166 E6.66887
G1 X194.99 Y124.239 E.01818
G1 X195.314 Y124.392 E.01989
G1 X195.71 Y124.746 E.02956
G1 X195.919 Y125.07 E.02138
G1 X196.066 Y125.569 E.02892
G1 X196.066 Y175.563 E2.77823
G1 X195.919 Y176.062 E.02887
M73 P4 R78
M73 Q4 S78
G1 X195.786 Y176.295 E.01492
G1 X195.305 Y176.744 E.03658
G1 X195.184 Y176.814 E.00779
G1 X194.659 Y176.97 E.03039
G1 X74.665 Y176.97 E6.6682
G1 X74.167 Y176.823 E.02887
G1 X73.934 Y176.69 E.01492
G1 X73.484 Y176.209 E.03658
G1 X73.414 Y176.088 E.00779
G1 X73.258 Y175.563 E.03039
G1 X73.258 Y125.569 E2.77823
G1 X73.405 Y125.071 E.02887
G1 X73.538 Y124.838 E.01492
G1 X73.941 Y124.461 E.03064
M204 S1000
G1 X74.166 Y124.707 F10800
M204 S800
G1 F1200
G1 X74.259 Y124.631 E.00664
G1 X74.691 Y124.497 E.02518
G1 X194.652 Y124.5 E6.66634
G1 X194.863 Y124.549 E.01205
G1 X195.147 Y124.683 E.01745
G1 X195.469 Y124.978 E.02422
G1 X195.607 Y125.192 E.01417
G1 X195.732 Y125.595 E.02348
G1 X195.732 Y175.537 E2.77532
G1 X195.607 Y175.942 E.02356
G1 X195.512 Y176.102 E.0103
G1 X195.094 Y176.485 E.03156
G1 X194.633 Y176.636 E.02692
G1 X74.691 Y176.636 E6.66528
G1 X74.286 Y176.511 E.02356
G1 X74.127 Y176.416 E.0103
G1 X73.743 Y175.998 E.03156
G1 X73.593 Y175.537 E.02692
G1 X73.593 Y125.595 E2.77531
G1 X73.718 Y125.19 E.02356
M73 P4 R77
G1 X73.812 Y125.031 E.0103
G1 X74.122 Y124.747 E.02334
M204 S1000
G1 X74.343 Y124.995 F10800
M204 S800
G1 F1200
G1 X74.414 Y124.931 E.00527
G1 X74.719 Y124.831 E.01787
G1 X194.633 Y124.834 E6.66369
G1 X194.736 Y124.858 E.00592
G1 X194.979 Y124.973 E.01492
G1 X195.224 Y125.206 E.01875
G1 X195.297 Y125.318 E.00748
G1 X195.398 Y125.623 E.01785
G1 X195.398 Y175.509 E2.7722
G1 X195.297 Y175.816 E.01796
G1 X195.243 Y175.903 E.00571
G1 X194.91 Y176.201 E.02479
G1 X194.605 Y176.302 E.01787
G1 X74.719 Y176.302 E6.66216
G1 X74.412 Y176.201 E.01796
G1 X74.325 Y176.147 E.00571
G1 X74.027 Y175.814 E.02479
G1 X73.927 Y175.509 E.01787
G1 X73.927 Y125.623 E2.77219
G1 X74.028 Y125.316 E.01796
G1 X74.082 Y125.229 E.00571
G1 X74.299 Y125.035 E.01619
M204 S1000
G1 X74.519 Y125.272 F10800
M204 S800
G1 F1200
G1 X74.562 Y125.233 E.00323
G1 X74.75 Y125.165 E.01113
G1 X194.615 Y125.171 E6.66097
G1 X194.808 Y125.262 E.01189
M73 P5 R77
M73 Q5 S78
G1 X194.975 Y125.429 E.01312
G1 X195.063 Y125.654 E.01345
G1 X195.063 Y175.478 E2.76874
G1 X194.991 Y175.679 E.01189
G1 X194.763 Y175.9 E.01765
G1 X194.574 Y175.967 E.01113
G1 X74.75 Y175.967 E6.6587
G1 X74.549 Y175.895 E.01189
G1 X74.329 Y175.667 E.01765
G1 X74.261 Y175.478 E.01113
G1 X74.261 Y125.654 E2.76874
G1 X74.333 Y125.453 E.01189
M73 Q5 S77
G1 X74.475 Y125.313 E.01109
M204 S1000
G1 X74.707 Y125.544 F10800
M204 S800
G1 F1200
G1 X74.788 Y125.499 E.00515
G1 X194.537 Y125.499 E6.65458
G1 X194.598 Y125.525 E.00369
G1 X194.704 Y125.63 E.0083
G1 X194.729 Y125.692 E.00369
G1 X194.729 Y175.441 E2.76461
G1 X194.704 Y175.502 E.00369
G1 X194.598 Y175.608 E.0083
G1 X194.537 Y175.633 E.00369
G1 X74.788 Y175.633 E6.65458
G1 X74.726 Y175.608 E.00369
G1 X74.621 Y175.502 E.0083
G1 X74.595 Y175.441 E.00369
G1 X74.595 Y125.692 E2.76461
G1 X74.664 Y125.587 E.00698
M204 S1000
; printing object Body1 id:0 copy 0
;WIPE_START
G1 F8640
G1 X74.788 Y125.499 E-.03493
G1 X77.928 Y125.499 E-.72507
;WIPE_END
G1 E-.04 F2100
G1 Z.8 F720
G1 X193.918 Y174.822 F10800
G1 Z.4 F720
G1 E.8 F2100
M204 S800
;TYPE:Perimeter
;WIDTH:0.42
G1 F1200
G1 X75.406 Y174.822 E6.5858
G1 X75.406 Y126.31 E2.69584
M73 P5 R76
G1 X193.918 Y126.31 E6.5858
G1 X193.918 Y174.762 E2.6925
M204 S1000
G1 X194.252 Y175.156 F10800
M204 S800
;TYPE:External perimeter
G1 F1200
G1 X75.072 Y175.156 E6.62294
G1 X75.072 Y125.976 E2.73298
M73 P6 R76
M73 Q6 S77
G1 X194.252 Y125.976 E6.62294
G1 X194.252 Y175.096 E2.72964
M204 S1000
G1 X193.856 Y175.104 F10800
;WIPE_START
G1 F8640
G1 X190.961 Y175.098 E-.76
;WIPE_END
G1 E-.04 F2100
G1 Z.8 F720
G1 X178.559 Y130.292 F10800
G1 Z.4 F720
G1 E.8 F2100
M204 S800
;TYPE:Perimeter
G1 F1200
G1 X179.297 Y130.839 E.05101
G1 X179.913 Y131.614 E.05502
G1 X180.308 Y132.522 E.05502
G1 X180.458 Y133.581 E.05947
G1 X180.342 Y134.484 E.05061
G1 X179.979 Y135.406 E.05502
G1 X179.614 Y135.909 E.03454
G1 X179.297 Y136.294 E.02771
G1 X178.615 Y136.817 E.0478
G1 X177.909 Y137.128 E.04288
G1 X177.58 Y137.246 E.01937
G1 X176.728 Y137.358 E.0478
G1 X175.744 Y137.246 E.05502
G1 X174.823 Y136.883 E.05502
G1 X174.231 Y136.45 E.04075
G1 X173.935 Y136.201 E.0215
G1 X173.411 Y135.519 E.0478
G1 X173.016 Y134.611 E.05502
G1 X172.87 Y133.632 E.05502
G1 X172.919 Y133.131 E.02796
G1 X172.994 Y132.587 E.03052
G1 X173.346 Y131.727 E.05162
G1 X173.935 Y130.931 E.05502
G1 X174.71 Y130.315 E.05502
G1 X175.618 Y129.92 E.05502
G1 X176.597 Y129.774 E.05502
G1 X177.58 Y129.887 E.05502
G1 X178.511 Y130.257 E.05567
M204 S1000
G1 X178.358 Y130.552 F10800
M204 S800
;TYPE:External perimeter
G1 F1200
G1 X179.094 Y131.104 E.05111
G1 X179.648 Y131.817 E.0502
G1 X179.999 Y132.649 E.0502
G1 X180.124 Y133.571 E.05169
G1 X180.011 Y134.441 E.04874
G1 X179.67 Y135.278 E.0502
G1 X179.094 Y136.029 E.05261
G1 X178.411 Y136.552 E.0478
G1 X177.537 Y136.915 E.05261
G1 X176.684 Y137.027 E.0478
G1 X175.788 Y136.915 E.0502
G1 X174.951 Y136.574 E.0502
G1 X174.2 Y135.998 E.05261
G1 X173.676 Y135.315 E.0478
G1 X173.325 Y134.483 E.0502
G1 X173.202 Y133.588 E.0502
G1 X173.314 Y132.692 E.0502
G1 X173.654 Y131.855 E.0502
G1 X174.2 Y131.135 E.0502
G1 X174.913 Y130.58 E.0502
G1 X175.745 Y130.229 E.0502
G1 X176.64 Y130.106 E.0502
G1 X177.537 Y130.218 E.0502
G1 X178.302 Y130.529 E.04593
M204 S1000
G1 X178.702 Y130.348 F10800
;WIPE_START
G1 F8640
G1 X179.094 Y131.104 E-.22581
G1 X179.648 Y131.817 E-.20861
G1 X179.999 Y132.649 E-.2086
G1 X180.067 Y133.151 E-.11698
;WIPE_END
G1 E-.04 F2100
G1 Z.8 F720
G1 X190.527 Y151.698 F10800
G1 Z.4 F720
G1 E.8 F2100
M204 S800
;TYPE:Perimeter
G1 F1200
G1 X190.258 Y152.07 E.0255
G1 X189.815 Y152.432 E.03181
G1 X189.293 Y152.667 E.03181
G1 X188.728 Y152.758 E.03181
G1 X188.158 Y152.7 E.03181
G1 X187.623 Y152.497 E.03181
G1 X187.159 Y152.162 E.03181
G1 X186.797 Y151.719 E.03181
G1 X186.562 Y151.197 E.03181
G1 X186.47 Y150.632 E.03181
G1 X186.528 Y150.062 E.03181
G1 X186.731 Y149.527 E.03181
G1 X187.066 Y149.063 E.03181
G1 X187.51 Y148.701 E.03181
G1 X188.032 Y148.466 E.03181
G1 X188.559 Y148.379 E.0297
G1 X189.156 Y148.431 E.03327
G1 X189.702 Y148.635 E.0324
G1 X190.166 Y148.97 E.03181
G1 X190.528 Y149.414 E.03181
G1 X190.763 Y149.936 E.03181
G1 X190.858 Y150.566 E.03544
G1 X190.796 Y151.07 E.02823
G1 X190.593 Y151.606 E.03181
G1 X190.562 Y151.649 E.00298
M204 S1000
G1 X190.249 Y151.532 F10800
M204 S800
;TYPE:External perimeter
G1 F1200
G1 X189.962 Y151.897 E.02579
