; generated by PrusaSlicer 2.5.2+win64 on 2023-06-07 at 21:17:28 UTC


;
;
; 

; external perimeters extrusion width = 0.60mm
; perimeters extrusion width = 0.50mm
; infill extrusion width = 0.50mm
; solid infill extrusion width = 0.50mm
; top infill extrusion width = 0.45mm
; first layer extrusion width = 0.42mm

M73 P0 R62
M73 Q0 S62
M201 X1000 Y1000 Z200 E5000 ; sets maximum accelerations, mm/sec^2
M203 X200 Y200 Z12 E120 ; sets maximum feedrates, mm / sec
M204 P1250 R1250 T1250 ; sets acceleration (P, T) and retract acceleration (R), mm/sec^2
M205 X8.00 Y8.00 Z0.40 E4.50 ; sets the jerk limits, mm/sec
M205 S0 T0 ; sets the minimum extruding and travel feed rate, mm/sec
M107
;TYPE:Custom
M862.3 P "MK3" ; printer model check
M862.1 P0.4 ; nozzle diameter check
M115 U3.12.2 ; tell printer latest fw version
G90 ; use absolute coordinates
M83 ; extruder relative mode
M104 S215 ; set extruder temp
M140 S60 ; set bed temp
M190 S60 ; wait for bed temp
M109 S215 ; wait for extruder temp
G28 W ; home all without mesh bed level
G80 ; mesh bed leveling

G1 Z0.2 F720
G1 Y-3 F1000 ; go outside print area
G92 E0
G1 X60 E9 F1000 ; intro line
G1 X100 E12.5 F1000 ; intro line

G92 E0
M221 S95

; Don't change E values below. Excessive value can damage the printer.

M907 E538 ; set extruder motor current
G21 ; set units to millimeters
G90 ; use absolute coordinates
M83 ; use relative distances for extrusion
M900 K0.05 ; Filament gcode LA 1.5
M900 K30 ; Filament gcode LA 1.0
M107
;LAYER_CHANGE
;Z:0.4
;HEIGHT:0.4
;BEFORE_LAYER_CHANGE
G92 E0.0
;0.4


G1 E-.8 F2100
G1 Z.4 F720
;AFTER_LAYER_CHANGE
;0.4
G1 Z.8
G1 X68.902 Y47.556 F10800
G1 Z.4 F720
G1 E.8 F2100
M204 S800
;TYPE:Skirt/Brim
;WIDTH:0.42
G1 F1200
G1 X71.889 Y44.569 E.23479
G1 X73.54 Y43.885 E.09928
G1 X140.364 Y43.885 E3.7135
G1 X142.015 Y44.569 E.09928
G1 X145.002 Y47.556 E.23479
G1 X145.686 Y49.207 E.09928
G1 X145.686 Y153.032 E5.76965
G1 X145.002 Y154.682 E.09928
G1 X142.015 Y157.67 E.23479
G1 X140.364 Y158.354 E.09928
G1 X73.54 Y158.354 E3.7135
G1 X71.889 Y157.67 E.09928
M73 P0 R61
G1 X68.902 Y154.682 E.23479
G1 X68.218 Y153.032 E.09928
G1 X68.218 Y49.207 E5.76965
G1 X68.879 Y47.612 E.09594
M204 S1000
;WIPE_START
G1 F8640
G1 X71.194 Y45.272 E-.76
;WIPE_END
G1 E-.04 F2100
G1 Z.8 F720
G1 X71.681 Y48.94 F10800
G1 Z.4 F720
G1 E.8 F2100
M204 S800
G1 F1200
G1 X72.436 Y48.011 E.06654
G1 X73.159 Y47.412 E.05213
G1 X75.208 Y46.708 E.12044
G1 X138.617 Y46.711 E3.5237
G1 X139.586 Y46.893 E.05476
G1 X140.525 Y47.288 E.05663
G1 X141.607 Y48.144 E.07666
G1 X142.461 Y49.411 E.08488
G1 X142.863 Y50.92 E.0868
G1 X142.863 Y151.315 E5.57907
G1 X142.569 Y152.553 E.07069
G1 X142.223 Y153.299 E.04568
G1 X141.468 Y154.228 E.06654
G1 X140.745 Y154.826 E.05213
G1 X138.696 Y155.531 E.12043
G1 X75.256 Y155.531 E3.5254
G1 X74.018 Y155.237 E.07069
M73 P1 R61
M73 Q1 S62
G1 X73.273 Y154.89 E.04568
G1 X72.344 Y154.135 E.06654
G1 X71.745 Y153.413 E.05213
G1 X71.041 Y151.363 E.12043
G1 X71.041 Y50.923 E5.58155
G1 X71.335 Y49.686 E.07069
M73 Q1 S61
G1 X71.656 Y48.995 E.04234
M204 S1000
G1 X71.958 Y49.137 F10800
M204 S800
G1 F1200
G1 X72.684 Y48.236 E.06428
G1 X73.347 Y47.69 E.04776
G1 X75.236 Y47.042 E.11093
G1 X138.601 Y47.046 E3.52128
G1 X139.506 Y47.217 E.05114
G1 X140.373 Y47.586 E.05239
G1 X141.378 Y48.388 E.07144
G1 X142.167 Y49.572 E.07908
G1 X142.529 Y50.941 E.07868
G1 X142.529 Y151.295 E5.57676
G1 X142.248 Y152.458 E.06644
G1 X141.929 Y153.137 E.04172
G1 X141.22 Y154.003 E.0622
G1 X140.557 Y154.549 E.04776
G1 X138.668 Y155.196 E.11093
G1 X75.276 Y155.196 E3.52275
G1 X74.114 Y154.916 E.06644
G1 X73.434 Y154.597 E.04172
G1 X72.569 Y153.888 E.0622
G1 X72.022 Y153.224 E.04776
G1 X71.375 Y151.336 E.11093
G1 X71.375 Y50.943 E5.5789
G1 X71.656 Y49.781 E.06644
G1 X71.933 Y49.191 E.03623
M204 S1000
G1 X72.234 Y49.334 F10800
M204 S800
G1 F1200
G1 X72.267 Y49.264 E.00429
G1 X72.931 Y48.462 E.05786
G1 X73.536 Y47.967 E.04342
G1 X75.263 Y47.377 E.10148
G1 X138.585 Y47.38 E3.51885
G1 X139.424 Y47.542 E.04747
G1 X140.22 Y47.884 E.04813
G1 X141.148 Y48.632 E.06627
G1 X141.852 Y49.686 E.0704
G1 X142.195 Y50.964 E.07352
G1 X142.195 Y151.275 E5.57439
G1 X141.928 Y152.361 E.06214
G1 X141.637 Y152.975 E.03775
G1 X140.973 Y153.777 E.05786
G1 X140.368 Y154.272 E.04342
G1 X138.641 Y154.862 E.10147
G1 X75.297 Y154.862 E3.52009
G1 X74.211 Y154.596 E.06214
G1 X73.597 Y154.304 E.03775
G1 X72.794 Y153.641 E.05786
G1 X72.3 Y153.036 E.04342
G1 X71.709 Y151.308 E.10147
G1 X71.709 Y50.964 E5.57623
G1 X71.976 Y49.878 E.06214
M73 P2 R60
M73 Q2 S61
G1 X72.208 Y49.388 E.03012
M204 S1000
G1 X72.509 Y49.533 F10800
M204 S800
G1 F1200
G1 X72.559 Y49.428 E.00643
G1 X73.176 Y48.689 E.05353
G1 X73.723 Y48.246 E.0391
G1 X75.291 Y47.711 E.09207
G1 X138.569 Y47.714 E3.5164
G1 X139.341 Y47.866 E.04375
G1 X140.065 Y48.181 E.04386
G1 X140.917 Y48.875 E.06105
G1 X141.558 Y49.847 E.0647
G1 X141.86 Y50.985 E.06548
G1 X141.86 Y151.254 E5.57203
G1 X141.608 Y152.263 E.05777
G1 X141.345 Y152.81 E.03377
G1 X140.728 Y153.55 E.05353
G1 X140.181 Y153.993 E.0391
G1 X138.613 Y154.528 E.09207
G1 X75.317 Y154.528 E3.5174
G1 X74.309 Y154.276 E.05777
G1 X73.761 Y154.013 E.03377
G1 X73.022 Y153.395 E.05353
G1 X72.578 Y152.849 E.0391
G1 X72.044 Y151.281 E.09207
G1 X72.044 Y50.985 E5.57355
G1 X72.296 Y49.976 E.05777
G1 X72.483 Y49.587 E.02401
M204 S1000
G1 X72.782 Y49.733 F10800
M204 S800
G1 F1200
G1 X72.85 Y49.594 E.00856
G1 X73.421 Y48.917 E.04921
G1 X73.909 Y48.524 E.03482
G1 X75.318 Y48.045 E.08273
G1 X138.552 Y48.048 E3.51394
G1 X139.257 Y48.19 E.03997
G1 X139.909 Y48.477 E.03958
G1 X140.684 Y49.116 E.05581
G1 X141.263 Y50.006 E.059
G1 X141.526 Y51.007 E.05752
G1 X141.526 Y151.233 E5.56966
G1 X141.289 Y152.163 E.05334
M73 Q2 S60
G1 X141.054 Y152.645 E.02979
G1 X140.483 Y153.322 E.04921
G1 X139.995 Y153.714 E.03482
G1 X138.586 Y154.194 E.08272
G1 X75.339 Y154.194 E3.5147
G1 X74.409 Y153.957 E.05334
G1 X73.927 Y153.722 E.02979
G1 X73.25 Y153.151 E.04921
G1 X72.857 Y152.663 E.03482
G1 X72.378 Y151.253 E.08272
G1 X72.378 Y51.006 E5.57084
G1 X72.615 Y50.076 E.05334
M73 P3 R60
M73 Q3 S60
G1 X72.756 Y49.786 E.01789
M204 S1000
G1 X73.054 Y49.934 F10800
M204 S800
G1 F1200
G1 X73.14 Y49.762 E.0107
G1 X73.664 Y49.147 E.0449
G1 X74.094 Y48.804 E.03057
G1 X75.346 Y48.379 E.07344
G1 X138.535 Y48.382 E3.5115
G1 X139.139 Y48.503 E.03421
G1 X139.752 Y48.773 E.03723
G1 X140.45 Y49.356 E.05054
G1 X140.947 Y50.118 E.05058
G1 X141.192 Y51.029 E.05241
G1 X141.192 Y151.211 E5.5672
G1 X140.97 Y152.061 E.04882
G1 X140.764 Y152.477 E.02581
G1 X140.24 Y153.092 E.0449
G1 X139.81 Y153.435 E.03057
G1 X138.558 Y153.86 E.07344
G1 X75.361 Y153.86 E3.51196
G1 X74.511 Y153.638 E.04882
G1 X74.094 Y153.432 E.02581
G1 X73.479 Y152.908 E.0449
G1 X73.137 Y152.477 E.03057
G1 X72.712 Y151.226 E.07344
G1 X72.712 Y51.028 E5.56811
G1 X72.934 Y50.178 E.04882
G1 X73.028 Y49.988 E.01178
M204 S1000
G1 X73.324 Y50.137 F10800
M204 S800
G1 F1200
G1 X73.428 Y49.931 E.01283
G1 X73.906 Y49.378 E.04062
G1 X74.278 Y49.084 E.02635
G1 X75.373 Y48.713 E.06424
G1 X138.518 Y48.716 E3.50902
G1 X139.053 Y48.827 E.03035
G1 X139.593 Y49.068 E.0329
G1 X140.215 Y49.594 E.04523
G1 X140.651 Y50.276 E.04502
G1 X140.858 Y51.051 E.04455
G1 X140.858 Y151.189 E5.56476
G1 X140.652 Y151.957 E.04421
M73 P3 R59
G1 X140.476 Y152.308 E.02182
G1 X139.998 Y152.861 E.04062
G1 X139.626 Y153.155 E.02635
G1 X138.531 Y153.526 E.06423
G1 X75.383 Y153.526 E3.5092
G1 X74.615 Y153.32 E.04421
G1 X74.264 Y153.143 E.02182
G1 X73.711 Y152.666 E.04062
G1 X73.417 Y152.293 E.02635
G1 X73.046 Y151.199 E.06423
G1 X73.046 Y51.05 E5.56534
G1 X73.252 Y50.282 E.04421
G1 X73.297 Y50.191 E.00565
M204 S1000
G1 X73.592 Y50.342 F10800
M204 S800
G1 F1200
G1 X73.715 Y50.103 E.01496
G1 X74.146 Y49.61 E.03636
G1 X74.461 Y49.365 E.02217
G1 X75.4 Y49.047 E.05511
G1 X138.5 Y49.051 E3.5065
G1 X138.965 Y49.149 E.02641
M73 P4 R59
M73 Q4 S60
G1 X139.432 Y49.362 E.02855
G1 X139.978 Y49.831 E.03998
G1 X140.336 Y50.389 E.03688
G1 X140.524 Y51.074 E.03943
G1 X140.524 Y151.165 E5.5622
G1 X140.335 Y151.851 E.03948
G1 X140.189 Y152.136 E.01783
G1 X139.758 Y152.628 E.03636
G1 X139.443 Y152.873 E.02217
G1 X138.504 Y153.191 E.05511
G1 X75.406 Y153.191 E3.5064
G1 X74.721 Y153.003 E.03948
G1 X74.436 Y152.856 E.01783
G1 X73.943 Y152.425 E.03636
G1 X73.698 Y152.111 E.02217
G1 X73.38 Y151.171 E.05511
G1 X73.38 Y51.073 E5.56255
G1 X73.566 Y50.396 E.03901
M204 S1000
M73 Q4 S59
G1 X73.885 Y50.498 F10800
M204 S800
G1 F1200
G1 X74.001 Y50.278 E.01383
G1 X74.385 Y49.845 E.03215
G1 X74.642 Y49.647 E.01803
G1 X75.427 Y49.382 E.04608
G1 X138.481 Y49.385 E3.50394
G1 X138.874 Y49.471 E.02236
G1 X139.269 Y49.654 E.02421
G1 X139.74 Y50.066 E.03475
G1 X140.022 Y50.505 E.02898
G1 X140.19 Y51.097 E.03422
G1 X140.19 Y151.142 E5.55954
G1 X140.019 Y151.741 E.03463
G1 X139.903 Y151.961 E.01383
G1 X139.519 Y152.394 E.03215
G1 X139.262 Y152.591 E.01803
G1 X138.477 Y152.857 E.04608
G1 X75.43 Y152.857 E3.50355
G1 X74.831 Y152.687 E.03463
G1 X74.61 Y152.571 E.01383
G1 X74.178 Y152.187 E.03215
G1 X73.98 Y151.93 E.01803
G1 X73.714 Y151.144 E.04608
G1 X73.714 Y51.097 E5.5597
G1 X73.868 Y50.556 E.03129
M204 S1000
G1 X74.188 Y50.65 F10800
M204 S800
G1 F1200
G1 X74.284 Y50.456 E.01204
G1 X74.621 Y50.081 E.02801
G1 X74.821 Y49.93 E.01393
G1 X75.455 Y49.716 E.03717
G1 X138.461 Y49.719 E3.50132
G1 X138.78 Y49.792 E.01817
G1 X139.103 Y49.945 E.01989
G1 X139.5 Y50.3 E.02956
G1 X139.709 Y50.623 E.02138
G1 X139.856 Y51.122 E.02892
G1 X139.856 Y151.117 E5.55678
G1 X139.704 Y151.627 E.02961
M73 P5 R59
M73 Q5 S59
G1 X139.62 Y151.783 E.00983
G1 X139.283 Y152.157 E.02801
G1 X139.083 Y152.308 E.01393
G1 X138.449 Y152.523 E.03717
G1 X75.455 Y152.523 E3.50065
G1 X74.944 Y152.372 E.02961
G1 X74.789 Y152.288 E.00983
G1 X74.414 Y151.95 E.02801
G1 X74.263 Y151.75 E.01393
G1 X74.048 Y151.117 E.03717
G1 X74.048 Y51.122 E5.55679
G1 X74.171 Y50.708 E.02402
M204 S1000
G1 X74.489 Y50.806 F10800
M204 S800
G1 F1200
G1 X74.564 Y50.639 E.0102
G1 X74.856 Y50.32 E.02401
G1 X74.998 Y50.215 E.00985
G1 X75.482 Y50.05 E.02842
G1 X138.442 Y50.053 E3.49872
G1 X138.653 Y50.102 E.01205
M73 P5 R58
G1 X138.937 Y50.236 E.01745
G1 X139.258 Y50.531 E.02422
G1 X139.397 Y50.745 E.01417
G1 X139.521 Y51.148 E.02348
G1 X139.521 Y151.09 E5.55386
G1 X139.392 Y151.509 E.02436
G1 X139.34 Y151.6 E.00582
G1 X139.048 Y151.919 E.02401
G1 X138.906 Y152.024 E.00985
G1 X138.422 Y152.189 E.02842
G1 X75.481 Y152.189 E3.49765
G1 X75.063 Y152.059 E.02436
G1 X74.971 Y152.007 E.00582
G1 X74.653 Y151.716 E.02401
G1 X74.547 Y151.573 E.00985
G1 X74.383 Y151.089 E.02842
G1 X74.383 Y51.148 E5.5538
G1 X74.471 Y50.863 E.01658
M204 S1000
G1 X74.786 Y50.967 F10800
M204 S800
G1 F1200
G1 X74.839 Y50.829 E.00822
G1 X75.088 Y50.561 E.02034
G1 X75.172 Y50.501 E.00575
G1 X75.511 Y50.384 E.0199
G1 X138.422 Y50.387 E3.49606
G1 X138.526 Y50.412 E.00592
G1 X138.769 Y50.526 E.01492
G1 X139.013 Y50.759 E.01875
G1 X139.087 Y50.871 E.00748
G1 X139.187 Y51.177 E.01785
G1 X139.187 Y151.062 E5.55074
G1 X139.065 Y151.41 E.02046
M73 Q5 S58
G1 X138.816 Y151.678 E.02034
G1 X138.732 Y151.738 E.00575
G1 X138.393 Y151.855 E.0199
G1 X75.509 Y151.855 E3.49452
G1 X75.162 Y151.733 E.02046
M73 P6 R58
M73 Q6 S58
G1 X74.894 Y151.484 E.02034
G1 X74.834 Y151.4 E.00575
G1 X74.717 Y151.061 E.0199
G1 X74.717 Y51.177 E5.55067
G1 X74.767 Y51.024 E.00892
M204 S1000
G1 X75.077 Y51.135 F10800
M204 S800
G1 F1200
G1 X75.119 Y51.019 E.00686
G1 X75.318 Y50.805 E.01626
G1 X75.54 Y50.718 E.01328
G1 X138.376 Y50.718 E3.49184
G1 X138.598 Y50.815 E.01345
G1 X138.781 Y51.006 E.01469
G1 X138.853 Y51.208 E.01189
G1 X138.853 Y151.031 E5.54729
G1 X138.785 Y151.22 E.01113
G1 X138.565 Y151.448 E.01765
G1 X138.364 Y151.521 E.01189
G1 X75.54 Y151.521 E3.49114
G1 X75.352 Y151.453 E.01113
G1 X75.123 Y151.233 E.01765
G1 X75.051 Y151.031 E.01189
G1 X75.057 Y51.192 E5.54817
M204 S1000
G1 X75.385 Y51.245 F10800
M204 S800
G1 F1200
G1 X75.411 Y51.183 E.00369
G1 X75.516 Y51.078 E.0083
G1 X75.578 Y51.052 E.00369
G1 X138.326 Y51.052 E3.48702
G1 X138.388 Y51.078 E.00369
G1 X138.493 Y51.183 E.0083
G1 X138.519 Y51.245 E.00369
G1 X138.519 Y150.994 E5.54316
G1 X138.493 Y151.055 E.00369
G1 X138.388 Y151.161 E.0083
G1 X138.326 Y151.186 E.00369
G1 X75.578 Y151.186 E3.48702
G1 X75.516 Y151.161 E.00369
M73 P6 R57
G1 X75.411 Y151.055 E.0083
G1 X75.385 Y150.994 E.00369
G1 X75.385 Y51.305 E5.53983
M204 S1000
; printing object Body3 id:0 copy 0
;WIPE_START
G1 F8640
M73 P7 R57
M73 Q7 S58
G1 X75.411 Y51.183 E-.02864
G1 X75.516 Y51.078 E-.03448
G1 X75.578 Y51.052 E-.01535
G1 X78.529 Y51.052 E-.68153
;WIPE_END
G1 E-.04 F2100
G1 Z.8 F720
G1 X138.042 Y51.529 F10800
G1 Z.4 F720
G1 E.8 F2100
M204 S800
;TYPE:External perimeter
;WIDTH:0.42
G1 F1200
G1 X138.042 Y150.709 E5.51152
G1 X75.862 Y150.709 E3.45538
G1 X75.862 Y51.529 E5.51152
G1 X137.982 Y51.529 E3.45204
M204 S1000
G1 X137.215 Y51.68 F10800
M204 S800
;TYPE:Solid infill
;WIDTH:0.420312
M73 Q7 S57
G1 F1200
G1 X137.741 Y52.206 E.04136
G1 X137.741 Y52.679 E.02631
G1 X136.893 Y51.83 E.06674
G1 X136.42 Y51.83 E.02631
G1 X137.741 Y53.152 E.10395
G1 X137.741 Y53.625 E.02631
G1 X135.947 Y51.83 E.14116
G1 X135.474 Y51.83 E.02631
G1 X137.741 Y54.098 E.17837
G1 X137.741 Y54.571 E.02631
G1 X135.001 Y51.83 E.21557
G1 X134.528 Y51.83 E.02631
G1 X137.741 Y55.044 E.25278
G1 X137.741 Y55.517 E.02631
G1 X134.055 Y51.83 E.28999
G1 X133.582 Y51.83 E.02631
G1 X137.741 Y55.99 E.3272
G1 X137.741 Y56.463 E.02631
G1 X133.109 Y51.83 E.36441
G1 X132.636 Y51.83 E.02631
G1 X137.741 Y56.936 E.40162
G1 X137.741 Y57.409 E.02631
G1 X132.162 Y51.83 E.43882
G1 X131.689 Y51.83 E.02631
G1 X137.741 Y57.882 E.47603
G1 X137.741 Y58.355 E.02631
G1 X131.216 Y51.83 E.51324
G1 X130.743 Y51.83 E.02631
G1 X137.741 Y58.828 E.55045
G1 X137.741 Y59.301 E.02631
G1 X130.27 Y51.83 E.58766
G1 X129.797 Y51.83 E.02631
G1 X137.741 Y59.774 E.62487
G1 X137.741 Y60.247 E.02631
G1 X129.324 Y51.83 E.66207
G1 X128.851 Y51.83 E.02631
G1 X137.741 Y60.72 E.69928
G1 X137.741 Y61.193 E.02631
G1 X128.378 Y51.83 E.73649
G1 X127.905 Y51.83 E.02631
G1 X137.741 Y61.666 E.7737
G1 X137.741 Y62.139 E.02631
G1 X127.432 Y51.83 E.81091
G1 X126.959 Y51.83 E.02631
G1 X137.741 Y62.612 E.84812
G1 X137.741 Y63.085 E.02631
G1 X126.486 Y51.83 E.88533
G1 X126.013 Y51.83 E.02631
G1 X137.741 Y63.558 E.92253
G1 X137.741 Y64.031 E.02631
G1 X125.54 Y51.83 E.95974
G1 X125.067 Y51.83 E.02631
G1 X137.741 Y64.504 E.99695
G1 X137.741 Y64.977 E.02631
G1 X124.594 Y51.83 E1.03416
G1 X124.121 Y51.83 E.02631
G1 X137.741 Y65.45 E1.07137
G1 X137.741 Y65.923 E.02631
G1 X123.648 Y51.83 E1.10858
G1 X123.175 Y51.83 E.02631
G1 X137.741 Y66.396 E1.14578
G1 X137.741 Y66.869 E.02631
G1 X122.702 Y51.83 E1.18299
G1 X122.229 Y51.83 E.02631
M73 P8 R57
G1 X137.741 Y67.342 E1.2202
G1 X137.741 Y67.815 E.02631
M73 Q8 S57
G1 X121.756 Y51.83 E1.25741
G1 X121.283 Y51.83 E.02631
G1 X137.741 Y68.288 E1.29462
G1 X137.741 Y68.761 E.02631
G1 X120.81 Y51.83 E1.33183
G1 X120.337 Y51.83 E.02631
G1 X137.741 Y69.234 E1.36903
G1 X137.741 Y69.707 E.02631
G1 X119.864 Y51.83 E1.40624
G1 X119.391 Y51.83 E.02631
G1 X137.741 Y70.18 E1.44345
G1 X137.741 Y70.653 E.02631
G1 X118.918 Y51.83 E1.48066
G1 X118.445 Y51.83 E.02631
G1 X137.741 Y71.126 E1.51787
G1 X137.741 Y71.599 E.02631
G1 X117.972 Y51.83 E1.55508
G1 X117.499 Y51.83 E.02631
G1 X137.741 Y72.072 E1.59228
G1 X137.741 Y72.545 E.02631
G1 X117.026 Y51.83 E1.62949
G1 X116.553 Y51.83 E.02631
G1 X137.741 Y73.018 E1.6667
G1 X137.741 Y73.491 E.02631
G1 X116.08 Y51.83 E1.70391
G1 X115.607 Y51.83 E.02631
M73 P8 R56
G1 X137.741 Y73.964 E1.74112
G1 X137.741 Y74.437 E.02631
G1 X115.134 Y51.83 E1.77833
G1 X114.661 Y51.83 E.02631
G1 X137.741 Y74.91 E1.81554
G1 X137.741 Y75.383 E.02631
G1 X114.188 Y51.83 E1.85274
G1 X113.715 Y51.83 E.02631
G1 X137.741 Y75.856 E1.88995
G1 X137.741 Y76.329 E.02631
G1 X113.242 Y51.83 E1.92716
G1 X112.769 Y51.83 E.02631
G1 X137.741 Y76.802 E1.96437
G1 X137.741 Y77.275 E.02631
G1 X112.296 Y51.83 E2.00158
G1 X111.823 Y51.83 E.02631
G1 X137.741 Y77.748 E2.03879
G1 X137.741 Y78.221 E.02631
G1 X111.35 Y51.83 E2.07599
G1 X110.877 Y51.83 E.02631
G1 X137.741 Y78.694 E2.1132
