; generated by PrusaSlicer 2.5.2+win64 on 2023-06-15 at 20:59:35 UTC


;
;
; 

; external perimeters extrusion width = 0.60mm
; perimeters extrusion width = 0.50mm
; infill extrusion width = 0.50mm
; solid infill extrusion width = 0.50mm
; top infill extrusion width = 0.45mm
; first layer extrusion width = 0.42mm

; external perimeters extrusion width = 0.60mm
; perimeters extrusion width = 0.50mm
; infill extrusion width = 0.50mm
; solid infill extrusion width = 0.50mm
; top infill extrusion width = 0.45mm
; first layer extrusion width = 0.42mm

M73 P0 R29
M73 Q0 S30
M201 X1000 Y1000 Z200 E5000 ; sets maximum accelerations, mm/sec^2
M203 X200 Y200 Z12 E120 ; sets maximum feedrates, mm / sec
M204 P1250 R1250 T1250 ; sets acceleration (P, T) and retract acceleration (R), mm/sec^2
M205 X8.00 Y8.00 Z0.40 E4.50 ; sets the jerk limits, mm/sec
M205 S0 T0 ; sets the minimum extruding and travel feed rate, mm/sec
M107
;TYPE:Custom
M862.3 P "MK3" ; printer model check
M862.1 P0.4 ; nozzle diameter check
M115 U3.12.2 ; tell printer latest fw version
G90 ; use absolute coordinates
M83 ; extruder relative mode
M104 S215 ; set extruder temp
M140 S60 ; set bed temp
M190 S60 ; wait for bed temp
M109 S215 ; wait for extruder temp
G28 W ; home all without mesh bed level
G80 ; mesh bed leveling

G1 Z0.2 F720
G1 Y-3 F1000 ; go outside print area
G92 E0
G1 X60 E9 F1000 ; intro line
G1 X100 E12.5 F1000 ; intro line

G92 E0
M221 S95

; Don't change E values below. Excessive value can damage the printer.

M907 E538 ; set extruder motor current
G21 ; set units to millimeters
G90 ; use absolute coordinates
M83 ; use relative distances for extrusion
M900 K0.05 ; Filament gcode LA 1.5
M900 K30 ; Filament gcode LA 1.0
M107
;LAYER_CHANGE
;Z:0.4
;HEIGHT:0.4
;BEFORE_LAYER_CHANGE
G92 E0.0
;0.4


G1 E-.8 F2100
G1 Z.4 F720
;AFTER_LAYER_CHANGE
;0.4
G1 Z.8
G1 X31.318 Y79.228 F10800
G1 Z.4 F720
G1 E.8 F2100
M204 S800
;TYPE:Skirt/Brim
;WIDTH:0.42
G1 F1200
G1 X90.143 Y79.228 E3.26896
G1 X91.793 Y79.912 E.09928
G1 X94.781 Y82.9 E.23479
G1 X95.464 Y84.547 E.09914
G1 X95.476 Y115.38 E1.71339
G1 X94.792 Y117.03 E.09928
G1 X91.805 Y120.018 E.23479
G1 X90.154 Y120.701 E.09928
G1 X31.329 Y120.701 E3.26895
G1 X29.679 Y120.017 E.09928
G1 X26.691 Y117.03 E.23479
G1 X26.008 Y115.381 E.0992
G1 X25.996 Y84.55 E1.7133
G1 X26.68 Y82.9 E.09928
M73 Q0 S29
G1 X29.667 Y79.912 E.23479
G1 X31.262 Y79.251 E.09594
M204 S1000
;WIPE_START
G1 F8640
G1 X34.554 Y79.25 E-.76
;WIPE_END
G1 E-.04 F2100
G1 Z.8 F720
G1 X32.189 Y82.302 F10800
G1 Z.4 F720
M73 P1 R29
M73 Q1 S29
G1 E.8 F2100
M204 S800
G1 F1200
G1 X33.013 Y82.051 E.04783
G1 X88.396 Y82.055 E3.07769
G1 X89.364 Y82.236 E.05476
G1 X90.304 Y82.631 E.05663
G1 X91.385 Y83.487 E.07666
G1 X92.239 Y84.754 E.08488
G1 X92.641 Y86.263 E.0868
G1 X92.641 Y95.004 E.48572
G1 X92.504 Y95.611 E.03463
G1 X92.653 Y96.259 E.03693
G1 X92.653 Y113.59 E.9631
G1 X92.464 Y114.617 E.05803
G1 X92.048 Y115.598 E.05923
G1 X90.373 Y117.273 E.13162
G1 X89.392 Y117.689 E.05923
G1 X88.365 Y117.878 E.05803
G1 X33.119 Y117.878 E3.07007
G1 X32.092 Y117.689 E.05803
G1 X31.111 Y117.273 E.05923
G1 X29.436 Y115.598 E.13162
G1 X29.02 Y114.617 E.05923
G1 X28.831 Y113.59 E.05803
G1 X28.831 Y96.261 E.96301
G1 X28.968 Y95.654 E.03459
G1 X28.819 Y95.005 E.03698
G1 X28.819 Y86.268 E.48554
G1 X29.112 Y85.027 E.07083
G1 X29.561 Y84.118 E.05634
G1 X30.579 Y83.042 E.08233
G1 X31.195 Y82.604 E.042
G1 X32.132 Y82.319 E.05439
M204 S1000
G1 X32.226 Y82.631 F10800
M204 S800
G1 F1200
G1 X33.037 Y82.386 E.04709
G1 X88.38 Y82.389 E3.07543
G1 X89.284 Y82.561 E.05114
G1 X90.152 Y82.929 E.05239
G1 X91.156 Y83.732 E.07144
G1 X91.945 Y84.916 E.07908
G1 X92.307 Y86.285 E.07868
G1 X92.307 Y94.984 E.48343
G1 X92.161 Y95.612 E.03585
G1 X92.319 Y96.279 E.03811
G1 X92.319 Y113.575 E.96111
G1 X92.139 Y114.537 E.05442
G1 X91.753 Y115.437 E.05441
G1 X90.212 Y116.979 E.12115
G1 X89.312 Y117.364 E.05441
G1 X88.349 Y117.544 E.05442
G1 X33.135 Y117.544 E3.06833
G1 X32.172 Y117.364 E.05442
G1 X31.272 Y116.978 E.05441
G1 X29.73 Y115.437 E.12115
G1 X29.345 Y114.537 E.05441
G1 X29.165 Y113.574 E.05442
G1 X29.165 Y96.28 E.96104
G1 X29.311 Y95.653 E.03581
M73 P2 R29
M73 Q2 S29
G1 X29.153 Y94.985 E.03816
G1 X29.153 Y86.288 E.48331
G1 X29.432 Y85.124 E.06648
G1 X29.849 Y84.291 E.05178
G1 X30.809 Y83.285 E.07729
G1 X31.366 Y82.892 E.03784
G1 X32.169 Y82.649 E.04665
M204 S1000
G1 X32.263 Y82.961 F10800
M204 S800
G1 F1200
G1 X33.062 Y82.72 E.04635
G1 X88.364 Y82.723 E3.07317
G1 X89.202 Y82.885 E.04747
G1 X89.998 Y83.227 E.04813
G1 X90.926 Y83.975 E.06626
G1 X91.63 Y85.029 E.0704
G1 X91.973 Y86.307 E.07352
G1 X91.973 Y94.963 E.48106
G1 X91.816 Y95.613 E.03712
G1 X91.985 Y96.3 E.03932
G1 X91.985 Y113.559 E.95908
G1 X91.814 Y114.456 E.05076
G1 X91.46 Y115.275 E.0496
G1 X90.05 Y116.685 E.11079
G1 X89.231 Y117.04 E.0496
G1 X88.333 Y117.21 E.05076
G1 X33.15 Y117.21 E3.06656
G1 X32.253 Y117.039 E.05076
G1 X31.434 Y116.685 E.0496
G1 X30.024 Y115.275 E.11079
G1 X29.67 Y114.456 E.0496
G1 X29.499 Y113.558 E.05076
G1 X29.499 Y96.301 E.95902
G1 X29.655 Y95.653 E.03706
G1 X29.487 Y94.964 E.03938
G1 X29.487 Y86.308 E.48104
G1 X29.752 Y85.223 E.06208
G1 X30.135 Y84.464 E.04721
G1 X31.038 Y83.529 E.07223
G1 X31.535 Y83.181 E.03371
G1 X32.206 Y82.979 E.03896
M204 S1000
G1 X32.3 Y83.291 F10800
M204 S800
G1 F1200
G1 X33.086 Y83.054 E.04562
G1 X88.347 Y83.057 E3.07089
G1 X89.119 Y83.209 E.04375
G1 X89.843 Y83.524 E.04386
G1 X90.695 Y84.218 E.06105
G1 X91.336 Y85.19 E.0647
G1 X91.639 Y86.328 E.06548
G1 X91.639 Y94.942 E.47869
G1 X91.471 Y95.613 E.03843
G1 X91.651 Y96.321 E.04059
G1 X91.651 Y113.543 E.95703
G1 X91.5 Y114.34 E.04509
G1 X91.165 Y115.113 E.04681
G1 X89.888 Y116.391 E.10039
G1 X89.115 Y116.726 E.04681
G1 X88.318 Y116.876 E.04509
G1 X33.166 Y116.876 E3.06484
G1 X32.369 Y116.725 E.04509
M73 P3 R29
G1 X31.596 Y116.391 E.04681
G1 X30.318 Y115.113 E.10039
G1 X29.984 Y114.34 E.04681
G1 X29.833 Y113.543 E.04509
G1 X29.833 Y96.322 E.95698
M73 Q3 S29
G1 X30 Y95.652 E.03837
G1 X29.821 Y94.943 E.04064
G1 X29.821 Y86.329 E.4787
G1 X30.072 Y85.323 E.05761
G1 X30.421 Y84.64 E.04263
G1 X31.265 Y83.775 E.06718
G1 X31.703 Y83.471 E.02962
G1 X32.243 Y83.308 E.03132
M204 S1000
G1 X32.337 Y83.621 F10800
M204 S800
G1 F1200
G1 X33.111 Y83.388 E.0449
G1 X88.33 Y83.391 E3.06859
G1 X89.035 Y83.533 E.03997
M73 P3 R28
G1 X89.687 Y83.82 E.03958
G1 X90.462 Y84.459 E.05581
G1 X91.041 Y85.349 E.059
G1 X91.305 Y86.35 E.05752
G1 X91.305 Y94.921 E.47629
G1 X91.126 Y95.614 E.03978
G1 X91.316 Y96.343 E.0419
G1 X91.316 Y113.527 E.95491
G1 X91.176 Y114.258 E.04139
G1 X90.872 Y114.95 E.04199
G1 X89.725 Y116.098 E.09016
G1 X89.033 Y116.401 E.04199
G1 X88.302 Y116.542 E.04139
G1 X33.182 Y116.542 E3.06304
G1 X32.451 Y116.401 E.04139
G1 X31.759 Y116.097 E.04199
G1 X30.612 Y114.95 E.09016
G1 X30.308 Y114.258 E.04199
G1 X30.167 Y113.527 E.04139
G1 X30.167 Y96.344 E.95488
G1 X30.346 Y95.652 E.03971
G1 X30.156 Y94.921 E.04196
G1 X30.156 Y86.35 E.47631
G1 X30.39 Y85.424 E.05307
G1 X30.705 Y84.816 E.03803
G1 X31.491 Y84.021 E.06211
G1 X31.87 Y83.762 E.02556
G1 X32.28 Y83.638 E.02375
M204 S1000
G1 X32.374 Y83.951 F10800
M204 S800
G1 F1200
G1 X33.135 Y83.722 E.04418
G1 X88.314 Y83.725 E3.06632
G1 X88.917 Y83.846 E.03421
G1 X89.53 Y84.116 E.03723
G1 X90.229 Y84.699 E.05054
G1 X90.725 Y85.461 E.05058
G1 X90.97 Y86.372 E.05241
G1 X90.97 Y94.898 E.47379
G1 X90.78 Y95.614 E.04119
G1 X90.982 Y96.366 E.04327
G1 X90.982 Y113.51 E.95273
G1 X90.852 Y114.175 E.03762
G1 X90.58 Y114.786 E.03718
G1 X89.561 Y115.805 E.08008
G1 X88.949 Y116.077 E.03718
G1 X88.285 Y116.208 E.03762
G1 X33.199 Y116.207 E3.0612
G1 X32.534 Y116.077 E.03762
M73 P4 R28
G1 X31.923 Y115.805 E.03718
G1 X30.904 Y114.786 E.08008
M73 Q4 S29
G1 X30.632 Y114.175 E.03718
G1 X30.502 Y113.51 E.03762
G1 X30.502 Y96.366 E.95271
G1 X30.692 Y95.651 E.04111
G1 X30.49 Y94.898 E.04333
G1 X30.49 Y86.372 E.47384
G1 X30.709 Y85.528 E.04845
G1 X30.989 Y84.995 E.03342
G1 X31.715 Y84.27 E.05704
G1 X32.036 Y84.053 E.02154
G1 X32.316 Y83.969 E.01627
M204 S1000
G1 X32.41 Y84.282 F10800
M204 S800
G1 F1200
G1 X33.16 Y84.056 E.04347
G1 X88.296 Y84.06 E3.06399
G1 X88.831 Y84.17 E.03035
G1 X89.372 Y84.411 E.0329
G1 X89.993 Y84.937 E.04523
G1 X90.43 Y85.619 E.04502
G1 X90.636 Y86.394 E.04455
G1 X90.636 Y94.875 E.4713
G1 X90.432 Y95.615 E.04264
M73 Q4 S28
G1 X90.648 Y96.389 E.04469
G1 X90.648 Y113.494 E.95054
G1 X90.539 Y114.056 E.03181
G1 X90.287 Y114.622 E.03442
G1 X89.397 Y115.512 E.06995
G1 X88.831 Y115.764 E.03442
G1 X88.269 Y115.873 E.03181
G1 X33.215 Y115.873 E3.05943
G1 X32.653 Y115.764 E.03181
G1 X32.087 Y115.512 E.03442
G1 X31.197 Y114.622 E.06995
G1 X30.945 Y114.056 E.03442
G1 X30.836 Y113.494 E.03181
G1 X30.836 Y96.389 E.95053
G1 X31.039 Y95.651 E.04256
G1 X30.824 Y94.875 E.04476
G1 X30.824 Y86.394 E.47131
G1 X31.026 Y85.633 E.04374
G1 X31.271 Y85.176 E.02881
G1 X31.937 Y84.52 E.05197
G1 X32.2 Y84.345 E.01755
G1 X32.353 Y84.299 E.00888
M204 S1000
G1 X32.447 Y84.612 F10800
M204 S800
G1 F1200
G1 X33.184 Y84.391 E.04275
G1 X88.278 Y84.394 E3.06163
G1 X88.743 Y84.492 E.02641
G1 X89.211 Y84.705 E.02855
G1 X89.756 Y85.174 E.03998
G1 X90.115 Y85.732 E.03688
G1 X90.302 Y86.417 E.03943
G1 X90.302 Y94.851 E.46869
G1 X90.084 Y95.615 E.04415
G1 X90.314 Y96.414 E.04617
G1 X90.314 Y113.477 E.94826
G1 X90.215 Y113.971 E.02797
G1 X89.995 Y114.456 E.02961
G1 X89.231 Y115.221 E.06006
G1 X88.746 Y115.44 E.02961
G1 X88.252 Y115.539 E.02797
G1 X33.232 Y115.539 E3.05754
G1 X32.738 Y115.44 E.02797
M73 P5 R28
G1 X32.253 Y115.22 E.02961
G1 X31.488 Y114.456 E.06006
G1 X31.269 Y113.971 E.02961
G1 X31.17 Y113.477 E.02797
G1 X31.17 Y96.413 E.94826
G1 X31.387 Y95.651 E.04405
M73 Q5 S28
G1 X31.158 Y94.851 E.04624
G1 X31.158 Y86.417 E.4687
G1 X31.343 Y85.741 E.03892
G1 X31.551 Y85.359 E.02418
G1 X32.157 Y84.772 E.04689
G1 X32.39 Y84.63 E.01516
M204 S1000
G1 X32.521 Y84.932 F10800
M204 S800
G1 F1200
G1 X33.209 Y84.725 E.03989
G1 X88.259 Y84.728 E3.05921
G1 X88.652 Y84.814 E.02236
G1 X89.048 Y84.997 E.02421
G1 X89.518 Y85.409 E.03475
G1 X89.8 Y85.848 E.02898
G1 X89.968 Y86.441 E.03422
G1 X89.968 Y94.826 E.466
G1 X89.781 Y95.46 E.03674
G1 X89.691 Y95.623 E.01034
G1 X89.793 Y95.805 E.0116
G1 X89.98 Y96.438 E.03666
G1 X89.98 Y113.46 E.94592
G1 X89.892 Y113.884 E.02404
G1 X89.705 Y114.289 E.02482
G1 X89.064 Y114.93 E.05038
G1 X88.658 Y115.117 E.02482
G1 X88.235 Y115.205 E.02404
G1 X33.249 Y115.205 E3.05559
G1 X32.826 Y115.117 E.02404
G1 X32.42 Y114.93 E.02482
G1 X31.779 Y114.289 E.05038
G1 X31.592 Y113.883 E.02482
G1 X31.504 Y113.46 E.02404
G1 X31.504 Y96.438 E.9459
G1 X31.691 Y95.805 E.0367
G1 X31.78 Y95.641 E.01035
G1 X31.683 Y95.471 E.01092
G1 X31.492 Y94.826 E.03735
G1 X31.492 Y86.441 E.466
G1 X31.659 Y85.852 E.03397
G1 X31.83 Y85.545 E.01955
G1 X32.375 Y85.026 E.04181
G1 X32.471 Y84.965 E.00635
M204 S1000
G1 X32.645 Y85.248 F10800
M204 S800
G1 F1200
G1 X33.234 Y85.059 E.03433
G1 X88.239 Y85.062 E3.05673
G1 X88.558 Y85.136 E.01817
G1 X88.882 Y85.288 E.01989
G1 X89.278 Y85.643 E.02956
G1 X89.487 Y85.966 E.02138
G1 X89.634 Y86.465 E.02892
G1 X89.634 Y94.8 E.46319
G1 X89.47 Y95.337 E.03119
G1 X89.293 Y95.622 E.01861
G1 X89.482 Y95.927 E.01996
G1 X89.646 Y96.464 E.03117
G1 X89.646 Y113.441 E.94346
G1 X89.57 Y113.793 E.01999
G1 X89.416 Y114.12 E.02008
G1 X88.894 Y114.641 E.04095
G1 X88.568 Y114.795 E.02008
G1 X88.216 Y114.871 E.01999
G1 X33.268 Y114.871 E3.05354
G1 X32.916 Y114.795 E.01999
M73 P6 R28
G1 X32.589 Y114.641 E.02008
G1 X32.068 Y114.12 E.04095
G1 X31.914 Y113.793 E.02008
G1 X31.838 Y113.441 E.01999
G1 X31.838 Y96.464 E.94345
G1 X32.002 Y95.927 E.03118
M73 Q6 S28
G1 X32.18 Y95.637 E.01892
G1 X31.994 Y95.346 E.01921
G1 X31.826 Y94.801 E.03172
G1 X31.826 Y86.465 E.46319
G1 X31.973 Y85.967 E.02887
G1 X32.106 Y85.734 E.01492
G1 X32.594 Y85.279 E.03706
M204 S1000
G1 X32.799 Y85.544 F10800
M204 S800
G1 F1200
G1 X33.259 Y85.393 E.02692
G1 X88.22 Y85.396 E3.05423
G1 X88.431 Y85.445 E.01205
G1 X88.715 Y85.579 E.01745
G1 X89.036 Y85.874 E.02422
G1 X89.175 Y86.088 E.01417
G1 X89.3 Y86.492 E.02348
G1 X89.3 Y94.773 E.46023
G1 X89.159 Y95.211 E.02554
G1 X89.056 Y95.369 E.01048
G1 X88.794 Y95.617 E.02007
G1 X89.074 Y95.902 E.02217
G1 X89.171 Y96.053 E.00999
G1 X89.311 Y96.491 E.02555
G1 X89.311 Y113.424 E.94099
G1 X89.259 Y113.668 E.01386
G1 X89.126 Y113.951 E.01739
G1 X88.726 Y114.351 E.03144
G1 X88.443 Y114.485 E.01739
G1 X88.199 Y114.537 E.01386
G1 X33.285 Y114.537 E3.05161
G1 X33.041 Y114.485 E.01386
G1 X32.758 Y114.351 E.01739
G1 X32.358 Y113.951 E.03144
G1 X32.224 Y113.668 E.01739
G1 X32.172 Y113.424 E.01386
G1 X32.172 Y96.491 E.94098
G1 X32.313 Y96.053 E.02555
M73 P6 R27
G1 X32.41 Y95.902 E.00999
G1 X32.671 Y95.636 E.0207
G1 X32.36 Y95.308 E.02513
G1 X32.304 Y95.222 E.00569
G1 X32.161 Y94.773 E.02619
G1 X32.161 Y86.492 E.46023
G1 X32.286 Y86.087 E.02356
G1 X32.38 Y85.927 E.0103
G1 X32.755 Y85.584 E.02822
M204 S1000
G1 X32.977 Y85.832 F10800
M204 S800
G1 F1200
G1 X33.287 Y85.727 E.01822
G1 X88.201 Y85.73 E3.05158
G1 X88.304 Y85.755 E.00592
G1 X88.547 Y85.869 E.01492
G1 X88.792 Y86.102 E.01875
G1 X88.865 Y86.215 E.00748
G1 X88.966 Y86.52 E.01785
G1 X88.966 Y94.746 E.45716
G1 X88.865 Y95.053 E.01796
G1 X88.809 Y95.143 E.00584
G1 X88.528 Y95.409 E.02156
G1 X88.056 Y95.617 E.02866
G1 X88.601 Y95.898 E.03409
G1 X88.821 Y96.122 E.01745
G1 X88.876 Y96.211 E.00583
G1 X88.977 Y96.518 E.01796
G1 X88.977 Y113.407 E.93854
G1 X88.949 Y113.543 E.00773
G1 X88.836 Y113.782 E.01468
G1 X88.557 Y114.061 E.02193
G1 X88.318 Y114.174 E.01468
G1 X88.182 Y114.203 E.00773
G1 X33.302 Y114.202 E3.04972
G1 X33.166 Y114.174 E.00773
G1 X32.927 Y114.061 E.01468
G1 X32.648 Y113.782 E.02193
G1 X32.535 Y113.543 E.01468
G1 X32.507 Y113.407 E.00773
G1 X32.507 Y96.518 E.93853
G1 X32.607 Y96.211 E.01796
M73 P7 R27
G1 X32.663 Y96.122 E.00583
G1 X32.883 Y95.898 E.01746
G1 X33.448 Y95.606 E.03534
G1 X32.982 Y95.439 E.02748
G1 X32.891 Y95.383 E.00596
G1 X32.616 Y95.093 E.02218
G1 X32.495 Y94.746 E.02042
G1 X32.495 Y86.52 E.45715
G1 X32.596 Y86.213 E.01796
G1 X32.65 Y86.125 E.00571
G1 X32.932 Y85.872 E.02108
M204 S1000
;WIPE_START
G1 F8640
G1 X33.287 Y85.727 E-.0886
G1 X36.195 Y85.727 E-.6714
;WIPE_END
G1 E-.04 F2100
G1 Z.8 F720
G1 X33.318 Y96.06 F10800
G1 Z.4 F720
G1 E.8 F2100
M204 S800
M73 Q7 S28
G1 F1200
G1 X88.194 Y96.065 E3.04956
G1 X88.388 Y96.157 E.01189
G1 X88.555 Y96.324 E.01312
G1 X88.643 Y96.549 E.01345
G1 X88.638 Y113.42 E.93751
G1 X88.546 Y113.613 E.01189
G1 X88.388 Y113.771 E.01242
G1 X88.166 Y113.868 E.01345
G1 X33.289 Y113.863 E3.04956
G1 X33.096 Y113.771 E.01189
G1 X32.938 Y113.613 E.01242
G1 X32.841 Y113.391 E.01345
G1 X32.841 Y96.549 E.93593
G1 X32.929 Y96.324 E.01345
G1 X33.096 Y96.157 E.01312
G1 X33.261 Y96.079 E.01016
M204 S1000
G1 X33.367 Y96.394 F10800
M204 S800
G1 F1200
G1 X88.117 Y96.394 E3.04247
G1 X88.178 Y96.419 E.00369
G1 X88.284 Y96.525 E.0083
G1 X88.309 Y96.586 E.00369
G1 X88.309 Y113.342 E.93112
G1 X88.284 Y113.403 E.00369
M73 Q7 S27
G1 X88.178 Y113.509 E.0083
G1 X88.117 Y113.534 E.00369
G1 X33.367 Y113.534 E3.04247
G1 X33.306 Y113.509 E.00369
G1 X33.2 Y113.403 E.0083
G1 X33.175 Y113.342 E.00369
G1 X33.175 Y96.586 E.93111
G1 X33.2 Y96.525 E.00369
G1 X33.312 Y96.417 E.00863
M204 S1000
;WIPE_START
G1 F8640
G1 X36.603 Y96.415 E-.76
;WIPE_END
G1 E-.04 F2100
G1 Z.8 F720
G1 X33.318 Y95.205 F10800
G1 Z.4 F720
G1 E.8 F2100
M204 S800
G1 F1200
G1 X33.096 Y95.118 E.01328
G1 X32.896 Y94.904 E.01626
G1 X32.829 Y94.715 E.01113
G1 X32.829 Y86.551 E.4537
G1 X32.915 Y86.328 E.01328
G1 X33.13 Y86.129 E.01626
G1 X33.318 Y86.061 E.01113
G1 X88.154 Y86.061 E3.04729
G1 X88.376 Y86.158 E.01345
M73 P8 R27
M73 Q8 S27
G1 X88.543 Y86.325 E.01312
G1 X88.631 Y86.551 E.01345
G1 X88.631 Y94.715 E.4537
G1 X88.545 Y94.938 E.01328
G1 X88.331 Y95.137 E.01626
G1 X88.142 Y95.205 E.01113
G1 X33.378 Y95.205 E3.04326
M204 S1000
G1 X33.378 Y94.87 F10800
M204 S800
G1 F1200
G1 X33.294 Y94.845 E.00489
G1 X33.188 Y94.739 E.0083
G1 X33.163 Y94.678 E.00369
G1 X33.163 Y86.588 E.44957
G1 X33.188 Y86.526 E.00369
G1 X33.294 Y86.421 E.0083
G1 X33.355 Y86.395 E.00369
G1 X88.105 Y86.395 E3.04247
