; generated by PrusaSlicer 2.5.2+win64 on 2023-06-06 at 23:42:56 UTC


;
;
; 

; external perimeters extrusion width = 0.60mm
; perimeters extrusion width = 0.50mm
; infill extrusion width = 0.50mm
; solid infill extrusion width = 0.50mm
; top infill extrusion width = 0.45mm
; first layer extrusion width = 0.42mm

M73 P0 R177
M73 Q0 S180
M201 X1000 Y1000 Z200 E5000 ; sets maximum accelerations, mm/sec^2
M203 X200 Y200 Z12 E120 ; sets maximum feedrates, mm / sec
M204 P1250 R1250 T1250 ; sets acceleration (P, T) and retract acceleration (R), mm/sec^2
M205 X8.00 Y8.00 Z0.40 E4.50 ; sets the jerk limits, mm/sec
M205 S0 T0 ; sets the minimum extruding and travel feed rate, mm/sec
M107
;TYPE:Custom
M862.3 P "MK3" ; printer model check
M862.1 P0.4 ; nozzle diameter check
M115 U3.12.2 ; tell printer latest fw version
G90 ; use absolute coordinates
M83 ; extruder relative mode
M104 S215 ; set extruder temp
M140 S60 ; set bed temp
M190 S60 ; wait for bed temp
M109 S215 ; wait for extruder temp
G28 W ; home all without mesh bed level
G80 ; mesh bed leveling

G1 Z0.2 F720
G1 Y-3 F1000 ; go outside print area
G92 E0
G1 X60 E9 F1000 ; intro line
G1 X100 E12.5 F1000 ; intro line

G92 E0
M221 S95

; Don't change E values below. Excessive value can damage the printer.

M907 E538 ; set extruder motor current
G21 ; set units to millimeters
G90 ; use absolute coordinates
M83 ; use relative distances for extrusion
M900 K0.05 ; Filament gcode LA 1.5
M900 K30 ; Filament gcode LA 1.0
M107
;LAYER_CHANGE
;Z:0.4
;HEIGHT:0.4
;BEFORE_LAYER_CHANGE
G92 E0.0
;0.4


G1 E-.8 F2100
G1 Z.4 F720
;AFTER_LAYER_CHANGE
;0.4
G1 Z.8
G1 X36.364 Y123.614 F10800
G1 Z.4 F720
G1 E.8 F2100
M204 S800
;TYPE:Skirt/Brim
;WIDTH:0.42
G1 F1200
G1 X40.518 Y122.85 E.23472
G1 X238.137 Y122.842 E10.98185
G1 X242.403 Y123.439 E.23941
M73 P0 R176
G1 X243.626 Y124.016 E.07512
G1 X244.308 Y125.113 E.07181
G1 X246.103 Y131.464 E.36673
G1 X246.078 Y132.815 E.07512
G1 X245.356 Y133.887 E.07181
G1 X242.167 Y136.529 E.23011
G1 X241.24 Y137.073 E.05972
G1 X239.703 Y137.738 E.09312
G1 X235.955 Y139.113 E.2218
G1 X232.15 Y140.397 E.22319
G1 X220.273 Y143.26 E.67891
G1 X208.461 Y145.923 E.67287
G1 X185.861 Y150.721 E1.28391
G1 X177.074 Y152.243 E.49559
M73 Q0 S179
G1 X151.838 Y156.395 E1.42121
G1 X142.954 Y157.568 E.49802
G1 X137.283 Y158.198 E.31705
G1 X58.877 Y158.215 E4.35709
G1 X58.369 Y158.159 E.02842
G1 X52.393 Y156.801 E.34057
G1 X48.923 Y155.856 E.19985
G1 X45.918 Y154.947 E.17447
G1 X37.432 Y152.062 E.49805
G1 X36.819 Y151.746 E.03832
G1 X30.848 Y147.405 E.41024
G1 X29.091 Y145.849 E.13042
G1 X27.771 Y144.415 E.10831
G1 X26.371 Y142.481 E.13269
G1 X25.376 Y140.605 E.11802
G1 X24.72 Y138.735 E.11009
G1 X24.468 Y137.092 E.09236
G1 X24.482 Y135.916 E.06537
G1 X24.686 Y134.607 E.07362
G1 X25.048 Y133.391 E.07051
G1 X25.597 Y132.097 E.07812
G1 X26.426 Y130.569 E.09662
G1 X27.374 Y129.147 E.09494
G1 X28.316 Y127.985 E.08315
G1 X29.341 Y126.957 E.08066
G1 X30.338 Y126.154 E.07115
G1 X31.351 Y125.5 E.06703
G1 X32.359 Y124.975 E.06312
G1 X33.61 Y124.455 E.07532
G1 X36.307 Y123.632 E.15668
M204 S1000
;WIPE_START
G1 F8640
G1 X39.543 Y123.031 E-.76
;WIPE_END
G1 E-.04 F2100
G1 Z.8 F720
G1 X36.982 Y126.408 F10800
G1 Z.4 F720
G1 E.8 F2100
M204 S800
G1 F1200
G1 X38.497 Y126.084 E.08612
G1 X39.962 Y125.859 E.08233
G1 X45.352 Y125.862 E.29952
G1 X45.698 Y125.832 E.01931
G1 X46.063 Y125.848 E.02033
G1 X46.856 Y125.832 E.04405
G1 X48.143 Y126.205 E.07449
G1 X49.446 Y125.859 E.07493
G1 X204.307 Y125.859 E8.60576
G1 X205.652 Y126.203 E.07716
G1 X206.725 Y125.881 E.06224
G1 X232.311 Y125.871 E1.42186
G1 X234.764 Y125.849 E.13632
G1 X236.225 Y125.659 E.08188
G1 X237.958 Y125.661 E.09627
G1 X239.288 Y125.85 E.07464
G1 X240.533 Y126.384 E.0753
G1 X241.52 Y127.225 E.07208
G1 X242.214 Y128.273 E.06982
G1 X242.662 Y129.836 E.09039
G1 X242.629 Y131.082 E.06925
G1 X242.205 Y132.382 E.07598
G1 X241.372 Y133.537 E.07914
G1 X240.173 Y134.438 E.08336
G1 X238.602 Y135.139 E.09558
G1 X237.791 Y135.442 E.04813
G1 X236.926 Y135.665 E.04965
G1 X235.121 Y136.376 E.10779
G1 X233.722 Y136.879 E.08261
G1 X232.083 Y137.392 E.09542
G1 X230.58 Y137.82 E.08684
G1 X227.061 Y138.734 E.20206
G1 X222.832 Y139.758 E.24181
G1 X218.141 Y140.854 E.26772
G1 X211.714 Y142.314 E.36621
G1 X206.63 Y143.43 E.28928
G1 X196.772 Y145.504 E.55981
G1 X195.422 Y145.454 E.07509
G1 X194.262 Y146.042 E.07225
G1 X186.646 Y147.686 E.43299
G1 X183.823 Y148.228 E.15972
G1 X175.011 Y149.724 E.49671
G1 X153.549 Y153.261 E1.20873
G1 X151.45 Y153.541 E.11769
G1 X150.299 Y153.394 E.06448
G1 X149.017 Y153.914 E.07688
G1 X142.956 Y154.723 E.33981
G1 X140.283 Y155.042 E.14963
G1 X136.922 Y155.39 E.18774
G1 X59.122 Y155.348 E4.32345
G1 X56.64 Y154.862 E.1405
G1 X54.856 Y154.483 E.10134
G1 X52.86 Y154.009 E.11402
G1 X51.458 Y153.644 E.0805
G1 X49.744 Y153.155 E.09903
G1 X47.915 Y152.592 E.10638
G1 X46.853 Y152.003 E.06747
G1 X46.621 Y151.798 E.01722
G1 X45.207 Y151.692 E.07882
G1 X41.392 Y150.294 E.2258
G1 X40.08 Y149.756 E.07879
G1 X39.275 Y149.374 E.0495
G1 X38.399 Y148.907 E.05514
G1 X37.521 Y148.407 E.0562
G1 X36.925 Y148.136 E.03637
G1 X36.471 Y147.808 E.0311
G1 X35.478 Y147.2 E.06471
G1 X34.385 Y146.495 E.07229
G1 X33.27 Y145.708 E.07587
G1 X32.653 Y145.233 E.04324
G1 X31.776 Y144.496 E.06364
G1 X30.845 Y143.61 E.07146
G1 X30.155 Y142.862 E.05651
G1 X29.572 Y142.148 E.05125
G1 X29.042 Y141.412 E.05039
G1 X28.573 Y140.665 E.04902
G1 X28.156 Y139.888 E.049
G1 X27.772 Y139.018 E.05284
G1 X27.477 Y138.129 E.05205
G1 X27.283 Y136.818 E.07366
G1 X27.315 Y135.97 E.04716
G1 X27.466 Y135.12 E.04797
G1 X27.764 Y134.187 E.05445
G1 X28.317 Y132.967 E.07443
G1 X28.817 Y132.069 E.05712
G1 X29.384 Y131.189 E.05819
G1 X30.052 Y130.298 E.06188
G1 X30.761 Y129.504 E.05913
G1 X31.559 Y128.774 E.06008
G1 X32.351 Y128.197 E.05447
G1 X33.166 Y127.724 E.05237
G1 X34.088 Y127.298 E.05646
G1 X35.042 Y126.943 E.05655
G1 X36.161 Y126.608 E.06491
G1 X36.924 Y126.423 E.04362
M204 S1000
G1 X37.003 Y126.747 F10800
M204 S800
G1 F1200
G1 X38.553 Y126.414 E.08812
G1 X39.974 Y126.193 E.07995
G1 X45.366 Y126.196 E.2996
G1 X45.715 Y126.166 E.01948
G1 X46.059 Y126.182 E.01911
G1 X46.836 Y126.166 E.04323
G1 X48.139 Y126.552 E.07549
G1 X49.469 Y126.193 E.07656
G1 X204.286 Y126.193 E8.60331
G1 X205.66 Y126.551 E.07893
G1 X206.751 Y126.215 E.0634
G1 X232.313 Y126.205 E1.42052
G1 X234.788 Y126.183 E.13754
G1 X236.236 Y125.993 E.08118
G1 X237.946 Y125.995 E.09504
G1 X239.178 Y126.166 E.06913
G1 X240.337 Y126.656 E.06992
G1 X241.255 Y127.43 E.06672
G1 X241.922 Y128.436 E.06705
G1 X242.328 Y129.855 E.08202
G1 X242.304 Y131.002 E.06378
G1 X241.895 Y132.254 E.07315
G1 X241.15 Y133.286 E.07073
G1 X240.019 Y134.141 E.07881
G1 X238.47 Y134.831 E.09422
G1 X237.682 Y135.126 E.04677
G1 X236.822 Y135.347 E.04932
G1 X235.001 Y136.064 E.10881
G1 X233.612 Y136.563 E.082
G1 X231.99 Y137.071 E.09447
G1 X230.494 Y137.497 E.08639
G1 X226.978 Y138.41 E.20188
G1 X222.754 Y139.433 E.24155
G1 X218.066 Y140.528 E.26751
G1 X211.641 Y141.988 E.36615
G1 X206.56 Y143.103 E.28906
G1 X196.724 Y145.173 E.5586
G1 X195.347 Y145.117 E.07655
G1 X194.17 Y145.72 E.07353
G1 X186.577 Y147.359 E.43165
G1 X183.762 Y147.899 E.1593
G1 X174.956 Y149.394 E.49634
G1 X153.497 Y152.931 E1.20857
G1 X151.428 Y153.207 E.11601
G1 X150.255 Y153.051 E.06577
G1 X148.951 Y153.586 E.07831
G1 X142.915 Y154.391 E.3384
G1 X140.247 Y154.71 E.14934
G1 X136.896 Y155.057 E.18719
G1 X59.17 Y155.016 E4.31933
G1 X56.706 Y154.535 E.13953
G1 X54.928 Y154.156 E.101
G1 X52.939 Y153.684 E.1136
G1 X51.548 Y153.322 E.07988
G1 X49.838 Y152.834 E.09883
G1 X48.03 Y152.278 E.10509
G1 X47.035 Y151.721 E.06339
G1 X46.761 Y151.472 E.02055
G1 X45.299 Y151.37 E.08145
G1 X41.515 Y149.984 E.22394
G1 X40.211 Y149.449 E.07836
G1 X39.422 Y149.073 E.04852
G1 X38.563 Y148.616 E.05412
G1 X37.672 Y148.108 E.057
G1 X37.106 Y147.855 E.0344
G1 X36.657 Y147.53 E.03084
G1 X35.658 Y146.918 E.06511
G1 X34.575 Y146.22 E.0716
G1 X33.465 Y145.437 E.07548
G1 X32.859 Y144.971 E.04247
G1 X32.003 Y144.251 E.06217
G1 X31.079 Y143.372 E.07087
G1 X30.411 Y142.647 E.05477
G1 X29.84 Y141.948 E.05013
G1 X29.322 Y141.23 E.04922
G1 X28.865 Y140.502 E.04778
G1 X28.459 Y139.747 E.04763
G1 X28.087 Y138.905 E.05115
G1 X27.799 Y138.038 E.05077
G1 X27.616 Y136.785 E.07035
G1 X27.648 Y135.995 E.04395
G1 X27.787 Y135.211 E.04427
G1 X28.072 Y134.316 E.05221
G1 X28.613 Y133.123 E.07274
G1 X29.101 Y132.245 E.05584
G1 X29.662 Y131.375 E.05756
G1 X30.315 Y130.504 E.06049
G1 X31.004 Y129.733 E.05746
G1 X31.777 Y129.027 E.05814
G1 X32.54 Y128.472 E.05244
M73 P0 R175
G1 X33.326 Y128.017 E.05048
G1 X34.222 Y127.605 E.05482
G1 X35.153 Y127.258 E.0552
G1 X36.253 Y126.929 E.06376
G1 X36.944 Y126.761 E.03956
M204 S1000
G1 X37.023 Y127.086 F10800
M204 S800
G1 F1200
G1 X38.609 Y126.743 E.09015
G1 X39.987 Y126.527 E.07755
G1 X45.381 Y126.53 E.29973
G1 X45.711 Y126.501 E.01841
G1 X46.054 Y126.517 E.01908
G1 X46.816 Y126.501 E.04237
G1 X48.134 Y126.9 E.07653
G1 X49.492 Y126.527 E.07823
G1 X204.264 Y126.527 E8.60082
G1 X205.497 Y126.853 E.07089
M73 Q0 S178
G1 X205.623 Y126.913 E.00775
G1 X206.777 Y126.549 E.06726
G1 X232.314 Y126.539 E1.41915
G1 X234.811 Y126.517 E.13876
G1 X236.247 Y126.327 E.08047
G1 X237.934 Y126.329 E.09377
G1 X239.11 Y126.494 E.06595
G1 X240.182 Y126.953 E.06481
G1 X241.019 Y127.668 E.06121
G1 X241.628 Y128.598 E.06174
G1 X241.993 Y129.875 E.07384
G1 X241.978 Y130.925 E.05836
G1 X241.608 Y132.082 E.06748
G1 X240.928 Y133.035 E.0651
G1 X239.865 Y133.843 E.07419
G1 X238.339 Y134.524 E.09284
G1 X237.574 Y134.81 E.0454
G1 X236.72 Y135.028 E.04899
G1 X234.88 Y135.752 E.10984
G1 X233.502 Y136.248 E.08139
G1 X231.896 Y136.751 E.09353
G1 X230.409 Y137.174 E.08595
G1 X226.896 Y138.086 E.20169
G1 X222.676 Y139.109 E.24128
G1 X217.992 Y140.203 E.26731
G1 X211.567 Y141.662 E.36608
G1 X206.491 Y142.776 E.28884
G1 X196.676 Y144.841 E.55737
G1 X195.443 Y144.787 E.06858
G1 X195.313 Y144.758 E.00741
G1 X194.077 Y145.398 E.07734
G1 X186.508 Y147.032 E.43028
G1 X183.701 Y147.571 E.15888
G1 X174.901 Y149.065 E.49599
G1 X153.446 Y152.6 E1.20839
G1 X151.407 Y152.873 E.1143
G1 X150.168 Y152.701 E.0695
G1 X150.063 Y152.768 E.00691
G1 X148.885 Y153.257 E.07089
G1 X142.875 Y154.06 E.33698
G1 X140.211 Y154.378 E.14906
G1 X136.87 Y154.724 E.18663
G1 X59.218 Y154.685 E4.31521
G1 X56.771 Y154.207 E.13856
G1 X54.999 Y153.83 E.10066
G1 X53.018 Y153.359 E.11318
G1 X51.638 Y153 E.07925
G1 X49.931 Y152.514 E.09863
G1 X48.146 Y151.964 E.10379
G1 X47.218 Y151.441 E.05922
G1 X46.903 Y151.146 E.02392
G1 X45.391 Y151.048 E.08422
G1 X41.639 Y149.673 E.22206
G1 X40.342 Y149.142 E.07792
G1 X39.57 Y148.773 E.04753
G1 X38.726 Y148.324 E.05311
G1 X37.821 Y147.809 E.05785
G1 X37.288 Y147.574 E.03241
G1 X36.842 Y147.252 E.03055
G1 X35.837 Y146.636 E.0655
G1 X34.765 Y145.945 E.0709
G1 X33.661 Y145.166 E.0751
G1 X33.066 Y144.708 E.0417
G1 X32.229 Y144.005 E.06072
G1 X31.313 Y143.133 E.07028
G1 X30.666 Y142.432 E.05303
G1 X30.108 Y141.749 E.04902
G1 X29.602 Y141.047 E.04805
G1 X29.156 Y140.338 E.04654
G1 X28.762 Y139.605 E.04625
G1 X28.401 Y138.792 E.04944
G1 X28.121 Y137.947 E.04949
G1 X27.949 Y136.754 E.067
G1 X27.981 Y136.021 E.04074
G1 X28.109 Y135.301 E.04064
G1 X28.381 Y134.444 E.04996
G1 X28.908 Y133.28 E.07104
G1 X29.385 Y132.422 E.05455
G1 X29.94 Y131.561 E.05692
G1 X30.578 Y130.71 E.05909
G1 X31.248 Y129.962 E.0558
G1 X31.995 Y129.281 E.0562
G1 X32.729 Y128.748 E.05041
G1 X33.487 Y128.31 E.0486
G1 X34.356 Y127.911 E.05317
G1 X35.265 Y127.573 E.05386
G1 X36.344 Y127.251 E.0626
G1 X36.965 Y127.1 E.03551
M204 S1000
G1 X37.044 Y127.425 F10800
M204 S800
G1 F1200
G1 X38.665 Y127.073 E.0922
G1 X40.001 Y126.861 E.07513
G1 X45.396 Y126.865 E.29983
G1 X45.729 Y126.834 E.01857
G1 X46.048 Y126.851 E.01778
G1 X46.796 Y126.836 E.04154
G1 X48.18 Y127.265 E.08053
G1 X48.329 Y127.19 E.00926
G1 X49.515 Y126.861 E.06837
G1 X204.241 Y126.861 E8.59831
G1 X205.387 Y127.17 E.06591
M73 P1 R175
G1 X205.585 Y127.277 E.01254
G1 X206.804 Y126.883 E.07118
G1 X232.316 Y126.874 E1.41774
G1 X234.835 Y126.851 E.14
M73 Q1 S178
G1 X236.258 Y126.661 E.07976
G1 X237.923 Y126.663 E.09253
G1 X239.001 Y126.81 E.06047
G1 X239.985 Y127.224 E.0593
G1 X240.783 Y127.906 E.05836
G1 X241.334 Y128.758 E.05635
G1 X241.659 Y129.897 E.06583
G1 X241.651 Y130.85 E.05297
G1 X241.319 Y131.912 E.06182
G1 X240.704 Y132.786 E.05943
G1 X239.711 Y133.546 E.0695
G1 X238.217 Y134.213 E.0909
G1 X237.482 Y134.488 E.0436
G1 X236.617 Y134.709 E.04964
G1 X234.76 Y135.44 E.11087
G1 X233.393 Y135.932 E.08078
G1 X231.798 Y136.431 E.09282
G1 X230.319 Y136.852 E.08548
G1 X226.816 Y137.762 E.20114
G1 X222.598 Y138.784 E.24117
G1 X217.917 Y139.877 E.26712
G1 X211.495 Y141.335 E.36595
G1 X206.421 Y142.449 E.28868
G1 X196.628 Y144.51 E.55612
G1 X195.481 Y144.454 E.06382
G1 X195.221 Y144.385 E.01494
G1 X195.083 Y144.501 E.01006
G1 X193.984 Y145.077 E.06894
G1 X186.44 Y146.705 E.4289
G1 X183.639 Y147.242 E.15846
G1 X174.846 Y148.735 E.49562
G1 X153.394 Y152.27 E1.20823
G1 X151.385 Y152.539 E.1126
G1 X150.347 Y152.393 E.05827
G1 X150.131 Y152.311 E.01285
G1 X149.912 Y152.47 E.01504
G1 X148.819 Y152.929 E.06588
G1 X142.834 Y153.728 E.33553
G1 X140.175 Y154.045 E.14878
G1 X136.862 Y154.389 E.18512
G1 X59.266 Y154.354 E4.31205
G1 X56.837 Y153.879 E.13758
G1 X55.071 Y153.503 E.10032
G1 X53.097 Y153.034 E.11275
G1 X51.727 Y152.678 E.07863
G1 X50.024 Y152.193 E.09842
G1 X48.262 Y151.65 E.10247
G1 X47.402 Y151.161 E.05497
G1 X46.998 Y150.772 E.03117
G1 X46.781 Y150.809 E.01223
G1 X45.483 Y150.726 E.07225
G1 X41.763 Y149.363 E.2202
G1 X40.473 Y148.834 E.07748
G1 X39.717 Y148.473 E.04654
G1 X38.889 Y148.033 E.0521
G1 X37.97 Y147.509 E.05877
G1 X37.468 Y147.292 E.03038
G1 X37.028 Y146.973 E.03023
G1 X36.016 Y146.355 E.0659
G1 X34.955 Y145.67 E.0702
G1 X33.856 Y144.895 E.07471
G1 X33.273 Y144.445 E.04093
G1 X32.456 Y143.759 E.05926
G1 X31.548 Y142.895 E.06968
G1 X30.922 Y142.216 E.0513
G1 X30.37 Y141.541 E.04847
G1 X29.882 Y140.865 E.04634
G1 X29.448 Y140.175 E.04531
G1 X29.065 Y139.464 E.04487
G1 X28.71 Y138.664 E.04862
G1 X28.443 Y137.856 E.04731
G1 X28.283 Y136.752 E.06198
G1 X28.312 Y136.068 E.03806
G1 X28.431 Y135.391 E.03819
G1 X28.69 Y134.573 E.04768
G1 X29.204 Y133.436 E.06933
G1 X29.669 Y132.598 E.05326
G1 X30.217 Y131.747 E.05628
G1 X30.841 Y130.917 E.05768
G1 X31.491 Y130.191 E.05413
G1 X32.213 Y129.534 E.05425
G1 X32.918 Y129.024 E.04838
G1 X33.647 Y128.604 E.04672
G1 X34.49 Y128.217 E.05154
G1 X35.376 Y127.888 E.05252
G1 X36.435 Y127.572 E.06145
G1 X36.985 Y127.439 E.03145
M204 S1000
G1 X37.064 Y127.763 F10800
M204 S800
G1 F1200
G1 X38.722 Y127.402 E.09428
G1 X40.014 Y127.195 E.07271
G1 X45.412 Y127.199 E.3
G1 X45.724 Y127.169 E.01742
G1 X46.043 Y127.185 E.01774
G1 X46.775 Y127.17 E.04066
G1 X48.218 Y127.628 E.08412
G1 X48.441 Y127.506 E.01415
G1 X49.538 Y127.195 E.06334
G1 X204.218 Y127.195 E8.59573
G1 X205.274 Y127.485 E.06081
G1 X205.586 Y127.668 E.0201
G1 X205.729 Y127.582 E.0093
G1 X206.831 Y127.217 E.06449
G1 X232.317 Y127.208 E1.4163
G1 X234.859 Y127.185 E.14125
G1 X236.269 Y126.995 E.07904
G1 X237.912 Y126.997 E.09131
G1 X238.895 Y127.128 E.0551
G1 X239.79 Y127.497 E.05382
G1 X240.516 Y128.109 E.05278
G1 X241.039 Y128.917 E.0535
G1 X241.331 Y129.962 E.06028
G1 X241.318 Y130.819 E.04762
G1 X241.009 Y131.784 E.05629
G1 X240.447 Y132.571 E.05375
G1 X239.557 Y133.249 E.06218
G1 X238.094 Y133.902 E.089
G1 X237.391 Y134.167 E.04179
G1 X236.514 Y134.391 E.05029
G1 X234.64 Y135.128 E.11189
G1 X233.289 Y135.614 E.07978
G1 X231.701 Y136.112 E.09251
G1 X230.229 Y136.53 E.08501
G1 X226.736 Y137.437 E.20059
G1 X222.52 Y138.459 E.24105
G1 X217.843 Y139.551 E.26692
G1 X211.423 Y141.009 E.36583
G1 X206.352 Y142.122 E.28853
G1 X196.581 Y144.178 E.55485
G1 X195.521 Y144.122 E.05902
G1 X195.129 Y144.007 E.02267
G1 X194.903 Y144.218 E.01721
G1 X193.891 Y144.755 E.06365
G1 X186.371 Y146.378 E.42749
G1 X183.578 Y146.914 E.15804
G1 X174.792 Y148.405 E.49525
G1 X153.342 Y151.94 E1.20807
G1 X151.365 Y152.204 E.11085
M73 P1 R174
G1 X150.419 Y152.066 E.05311
G1 X150.081 Y151.925 E.02036
G1 X149.759 Y152.172 E.02252
