; generated by PrusaSlicer 2.5.2+win64 on 2023-06-07 at 01:38:35 UTC


;
;
; 

; external perimeters extrusion width = 0.60mm
; perimeters extrusion width = 0.50mm
; infill extrusion width = 0.50mm
; solid infill extrusion width = 0.50mm
; top infill extrusion width = 0.45mm
; first layer extrusion width = 0.42mm

; external perimeters extrusion width = 0.60mm
; perimeters extrusion width = 0.50mm
; infill extrusion width = 0.50mm
; solid infill extrusion width = 0.50mm
; top infill extrusion width = 0.45mm
; first layer extrusion width = 0.42mm

M73 P0 R166
M73 Q0 S167
M201 X1000 Y1000 Z200 E5000 ; sets maximum accelerations, mm/sec^2
M203 X200 Y200 Z12 E120 ; sets maximum feedrates, mm / sec
M204 P1250 R1250 T1250 ; sets acceleration (P, T) and retract acceleration (R), mm/sec^2
M205 X8.00 Y8.00 Z0.40 E4.50 ; sets the jerk limits, mm/sec
M205 S0 T0 ; sets the minimum extruding and travel feed rate, mm/sec
M107
;TYPE:Custom
M862.3 P "MK3" ; printer model check
M862.1 P0.4 ; nozzle diameter check
M115 U3.12.2 ; tell printer latest fw version
G90 ; use absolute coordinates
M83 ; extruder relative mode
M104 S215 ; set extruder temp
M140 S60 ; set bed temp
M190 S60 ; wait for bed temp
M109 S215 ; wait for extruder temp
G28 W ; home all without mesh bed level
G80 ; mesh bed leveling

G1 Z0.2 F720
G1 Y-3 F1000 ; go outside print area
G92 E0
G1 X60 E9 F1000 ; intro line
G1 X100 E12.5 F1000 ; intro line

G92 E0
M221 S95

; Don't change E values below. Excessive value can damage the printer.

M907 E538 ; set extruder motor current
G21 ; set units to millimeters
G90 ; use absolute coordinates
M83 ; use relative distances for extrusion
M900 K0.05 ; Filament gcode LA 1.5
M900 K30 ; Filament gcode LA 1.0
M107
;LAYER_CHANGE
;Z:0.2
;HEIGHT:0.2
;BEFORE_LAYER_CHANGE
G92 E0.0
;0.2


G1 E-.8 F2100
G1 Z.4 F720
;AFTER_LAYER_CHANGE
;0.2
G1 X73.458 Y49.812 F10800
G1 Z.2 F720
G1 E.8 F2100
M204 S800
;TYPE:Skirt/Brim
;WIDTH:0.42
G1 F1200
G1 X74.504 Y48.936 E.04278
G1 X75.387 Y48.743 E.02836
G1 X142.249 Y47.163 E2.097
G1 X201.863 Y47.163 E1.86915
G1 X203.17 Y47.555 E.04278
G1 X204.047 Y48.601 E.04278
G1 X204.24 Y49.54 E.03008
G1 X204.24 Y149.54 E3.13543
G1 X203.849 Y150.847 E.04278
G1 X202.803 Y151.724 E.04278
G1 X201.922 Y151.917 E.02826
G1 X138.461 Y153.496 E1.99042
G1 X75.443 Y153.496 E1.97586
G1 X74.136 Y153.105 E.04278
G1 X73.26 Y152.059 E.04278
G1 X73.066 Y151.119 E.03008
G1 X73.066 Y51.119 E3.13543
G1 X73.441 Y49.87 E.0409
M204 S1000
; printing object Body3 id:0 copy 0
;WIPE_START
M73 Q0 S166
G1 F8640
G1 X74.504 Y48.936 E-.32671
G1 X75.387 Y48.743 E-.20883
G1 X76.359 Y48.72 E-.22446
;WIPE_END
G1 E-.04 F2100
G1 Z.6 F720
G1 X137.673 Y150.332 F10800
G1 Z.2 F720
G1 E.8 F2100
M204 S800
;TYPE:Perimeter
;WIDTH:0.419999
G1 F1200
G1 X76.231 Y150.332 E1.9265
G1 X76.231 Y51.906 E3.08607
M73 P0 R165
G1 X137.673 Y51.906 E1.9265
G1 X137.673 Y150.272 E3.08419
M204 S1000
G1 X138.051 Y150.709 F10800
M204 S800
;TYPE:External perimeter
G1 F1200
G1 X75.853 Y150.709 E1.95014
G1 X75.853 Y51.529 E3.10971
G1 X138.051 Y51.529 E1.95014
G1 X138.051 Y150.649 E3.10783
M204 S1000
G1 X137.673 Y150.577 F10800
;WIPE_START
G1 F8640
G1 X134.759 Y150.653 E-.76
;WIPE_END
G1 E-.04 F2100
G1 Z.6 F720
G1 X136.74 Y52.076 F10800
G1 Z.2 F720
G1 E.8 F2100
M204 S800
;TYPE:Solid infill
;WIDTH:0.420831
G1 F1200
G1 X137.334 Y52.67 E.02641
G1 X137.334 Y53.205 E.01679
G1 X136.375 Y52.246 E.04262
G1 X135.841 Y52.246 E.01679
G1 X137.334 Y53.739 E.06637
G1 X137.334 Y54.274 E.01679
G1 X135.306 Y52.246 E.09012
G1 X134.772 Y52.246 E.01679
G1 X137.334 Y54.808 E.11387
G1 X137.334 Y55.343 E.01679
G1 X134.237 Y52.246 E.13762
G1 X133.703 Y52.246 E.01679
G1 X137.334 Y55.877 E.16137
G1 X137.334 Y56.412 E.01679
G1 X133.168 Y52.246 E.18513
G1 X132.634 Y52.246 E.01679
G1 X137.334 Y56.946 E.20888
G1 X137.334 Y57.481 E.01679
G1 X132.099 Y52.246 E.23263
G1 X131.565 Y52.246 E.01679
G1 X137.334 Y58.015 E.25638
G1 X137.334 Y58.549 E.01679
G1 X131.031 Y52.246 E.28013
G1 X130.496 Y52.246 E.01679
G1 X137.334 Y59.084 E.30388
G1 X137.334 Y59.618 E.01679
G1 X129.962 Y52.246 E.32763
G1 X129.427 Y52.246 E.01679
G1 X137.334 Y60.153 E.35138
G1 X137.334 Y60.687 E.01679
G1 X128.893 Y52.246 E.37513
G1 X128.358 Y52.246 E.01679
G1 X137.334 Y61.222 E.39888
G1 X137.334 Y61.756 E.01679
G1 X127.824 Y52.246 E.42263
G1 X127.289 Y52.246 E.01679
G1 X137.334 Y62.291 E.44638
G1 X137.334 Y62.825 E.01679
G1 X126.755 Y52.246 E.47013
G1 X126.221 Y52.246 E.01679
G1 X137.334 Y63.359 E.49388
G1 X137.334 Y63.894 E.01679
G1 X125.686 Y52.246 E.51763
G1 X125.152 Y52.246 E.01679
G1 X137.334 Y64.428 E.54138
G1 X137.334 Y64.963 E.01679
G1 X124.617 Y52.246 E.56513
G1 X124.083 Y52.246 E.01679
G1 X137.334 Y65.497 E.58888
G1 X137.334 Y66.032 E.01679
G1 X123.548 Y52.246 E.61263
G1 X123.014 Y52.246 E.01679
G1 X137.334 Y66.566 E.63639
G1 X137.334 Y67.101 E.01679
G1 X122.479 Y52.246 E.66014
G1 X121.945 Y52.246 E.01679
G1 X137.334 Y67.635 E.68389
G1 X137.334 Y68.169 E.01679
G1 X121.41 Y52.246 E.70764
G1 X120.876 Y52.246 E.01679
G1 X137.334 Y68.704 E.73139
G1 X137.334 Y69.238 E.01679
G1 X120.342 Y52.246 E.75514
G1 X119.807 Y52.246 E.01679
G1 X137.334 Y69.773 E.77889
G1 X137.334 Y70.307 E.01679
G1 X119.273 Y52.246 E.80264
G1 X118.738 Y52.246 E.01679
G1 X137.334 Y70.842 E.82639
G1 X137.334 Y71.376 E.01679
M73 Q0 S165
G1 X118.204 Y52.246 E.85014
G1 X117.669 Y52.246 E.01679
G1 X137.334 Y71.911 E.87389
G1 X137.334 Y72.445 E.01679
M73 P0 R164
G1 X117.135 Y52.246 E.89764
G1 X116.6 Y52.246 E.01679
G1 X137.334 Y72.979 E.92139
G1 X137.334 Y73.514 E.01679
G1 X116.066 Y52.246 E.94514
G1 X115.532 Y52.246 E.01679
G1 X137.334 Y74.048 E.96889
G1 X137.334 Y74.583 E.01679
G1 X114.997 Y52.246 E.99264
G1 X114.463 Y52.246 E.01679
M73 P1 R164
M73 Q1 S165
G1 X137.334 Y75.117 E1.01639
G1 X137.334 Y75.652 E.01679
G1 X113.928 Y52.246 E1.04014
G1 X113.394 Y52.246 E.01679
G1 X137.334 Y76.186 E1.06389
G1 X137.334 Y76.721 E.01679
G1 X112.859 Y52.246 E1.08765
G1 X112.325 Y52.246 E.01679
G1 X137.334 Y77.255 E1.1114
G1 X137.334 Y77.789 E.01679
G1 X111.79 Y52.246 E1.13515
G1 X111.256 Y52.246 E.01679
G1 X137.334 Y78.324 E1.1589
G1 X137.334 Y78.858 E.01679
G1 X110.722 Y52.246 E1.18265
G1 X110.187 Y52.246 E.01679
G1 X137.334 Y79.393 E1.2064
G1 X137.334 Y79.927 E.01679
G1 X109.653 Y52.246 E1.23015
G1 X109.118 Y52.246 E.01679
G1 X137.334 Y80.462 E1.2539
G1 X137.334 Y80.996 E.01679
G1 X108.584 Y52.246 E1.27765
G1 X108.049 Y52.246 E.01679
G1 X137.334 Y81.531 E1.3014
G1 X137.334 Y82.065 E.01679
G1 X107.515 Y52.246 E1.32515
G1 X106.98 Y52.246 E.01679
G1 X137.334 Y82.6 E1.3489
G1 X137.334 Y83.134 E.01679
G1 X106.446 Y52.246 E1.37265
G1 X105.912 Y52.246 E.01679
G1 X137.334 Y83.668 E1.3964
G1 X137.334 Y84.203 E.01679
G1 X105.377 Y52.246 E1.42015
G1 X104.843 Y52.246 E.01679
G1 X137.334 Y84.737 E1.4439
G1 X137.334 Y85.272 E.01679
G1 X104.308 Y52.246 E1.46765
G1 X103.774 Y52.246 E.01679
G1 X137.334 Y85.806 E1.4914
G1 X137.334 Y86.341 E.01679
G1 X103.239 Y52.246 E1.51515
G1 X102.705 Y52.246 E.01679
G1 X137.334 Y86.875 E1.53891
G1 X137.334 Y87.41 E.01679
G1 X102.17 Y52.246 E1.56266
G1 X101.636 Y52.246 E.01679
M73 Q1 S164
G1 X137.334 Y87.944 E1.58641
G1 X137.334 Y88.478 E.01679
M73 P1 R163
G1 X101.102 Y52.246 E1.61016
G1 X100.567 Y52.246 E.01679
G1 X137.334 Y89.013 E1.63391
G1 X137.334 Y89.547 E.01679
G1 X100.033 Y52.246 E1.65766
G1 X99.498 Y52.246 E.01679
G1 X137.334 Y90.082 E1.68141
G1 X137.334 Y90.616 E.01679
G1 X98.964 Y52.246 E1.70516
G1 X98.429 Y52.246 E.01679
G1 X137.334 Y91.151 E1.72891
G1 X137.334 Y91.685 E.01679
G1 X97.895 Y52.246 E1.75266
G1 X97.36 Y52.246 E.01679
G1 X137.334 Y92.22 E1.77641
G1 X137.334 Y92.754 E.01679
G1 X96.826 Y52.246 E1.80016
G1 X96.291 Y52.246 E.01679
G1 X137.334 Y93.288 E1.82391
G1 X137.334 Y93.823 E.01679
G1 X95.757 Y52.246 E1.84766
G1 X95.223 Y52.246 E.01679
G1 X137.334 Y94.357 E1.87141
G1 X137.334 Y94.892 E.01679
G1 X94.688 Y52.246 E1.89516
G1 X94.154 Y52.246 E.01679
G1 X137.334 Y95.426 E1.91891
G1 X137.334 Y95.961 E.01679
G1 X93.619 Y52.246 E1.94266
G1 X93.085 Y52.246 E.01679
G1 X137.334 Y96.495 E1.96641
G1 X137.334 Y97.03 E.01679
G1 X92.55 Y52.246 E1.99016
G1 X92.016 Y52.246 E.01679
M73 P2 R163
M73 Q2 S164
G1 X137.334 Y97.564 E2.01392
G1 X137.334 Y98.098 E.01679
G1 X91.481 Y52.246 E2.03767
G1 X90.947 Y52.246 E.01679
G1 X137.334 Y98.633 E2.06142
G1 X137.334 Y99.167 E.01679
M73 P2 R162
M73 Q2 S163
G1 X90.413 Y52.246 E2.08517
G1 X89.878 Y52.246 E.01679
G1 X137.334 Y99.702 E2.10892
G1 X137.334 Y100.236 E.01679
G1 X89.344 Y52.246 E2.13267
G1 X88.809 Y52.246 E.01679
G1 X137.334 Y100.771 E2.15642
G1 X137.334 Y101.305 E.01679
G1 X88.275 Y52.246 E2.18017
G1 X87.74 Y52.246 E.01679
G1 X137.334 Y101.84 E2.20392
G1 X137.334 Y102.374 E.01679
G1 X87.206 Y52.246 E2.22767
G1 X86.671 Y52.246 E.01679
G1 X137.334 Y102.908 E2.25142
G1 X137.334 Y103.443 E.01679
G1 X86.137 Y52.246 E2.27517
G1 X85.603 Y52.246 E.01679
G1 X137.334 Y103.977 E2.29892
G1 X137.334 Y104.512 E.01679
G1 X85.068 Y52.246 E2.32267
G1 X84.534 Y52.246 E.01679
G1 X137.334 Y105.046 E2.34642
G1 X137.334 Y105.581 E.01679
G1 X83.999 Y52.246 E2.37017
G1 X83.465 Y52.246 E.01679
G1 X137.334 Y106.115 E2.39392
G1 X137.334 Y106.65 E.01679
G1 X82.93 Y52.246 E2.41767
G1 X82.396 Y52.246 E.01679
G1 X137.334 Y107.184 E2.44142
G1 X137.334 Y107.719 E.01679
M73 Q2 S162
G1 X81.861 Y52.246 E2.46518
G1 X81.327 Y52.246 E.01679
M73 P2 R161
G1 X137.334 Y108.253 E2.48893
G1 X137.334 Y108.787 E.01679
G1 X80.793 Y52.246 E2.51268
G1 X80.258 Y52.246 E.01679
G1 X137.334 Y109.322 E2.53643
G1 X137.334 Y109.856 E.01679
G1 X79.724 Y52.246 E2.56018
G1 X79.189 Y52.246 E.01679
G1 X137.334 Y110.391 E2.58393
G1 X137.334 Y110.925 E.01679
G1 X78.655 Y52.246 E2.60768
G1 X78.12 Y52.246 E.01679
G1 X137.334 Y111.46 E2.63143
G1 X137.334 Y111.994 E.01679
M73 P3 R161
M73 Q3 S162
G1 X77.586 Y52.246 E2.65518
G1 X77.051 Y52.246 E.01679
G1 X137.334 Y112.529 E2.67893
G1 X137.334 Y113.063 E.01679
G1 X76.57 Y52.299 E2.70033
G1 X76.57 Y52.833 E.01679
G1 X137.334 Y113.597 E2.70033
G1 X137.334 Y114.132 E.01679
G1 X76.57 Y53.368 E2.70033
G1 X76.57 Y53.902 E.01679
G1 X137.334 Y114.666 E2.70033
G1 X137.334 Y115.201 E.01679
G1 X76.57 Y54.437 E2.70033
G1 X76.57 Y54.971 E.01679
M73 P3 R160
M73 Q3 S161
G1 X137.334 Y115.735 E2.70033
G1 X137.334 Y116.27 E.01679
G1 X76.57 Y55.505 E2.70033
G1 X76.57 Y56.04 E.01679
G1 X137.334 Y116.804 E2.70033
G1 X137.334 Y117.339 E.01679
G1 X76.57 Y56.574 E2.70033
G1 X76.57 Y57.109 E.01679
G1 X137.334 Y117.873 E2.70033
G1 X137.334 Y118.407 E.01679
G1 X76.57 Y57.643 E2.70033
G1 X76.57 Y58.178 E.01679
G1 X137.334 Y118.942 E2.70033
G1 X137.334 Y119.476 E.01679
G1 X76.57 Y58.712 E2.70033
G1 X76.57 Y59.247 E.01679
G1 X137.334 Y120.011 E2.70033
G1 X137.334 Y120.545 E.01679
G1 X76.57 Y59.781 E2.70033
G1 X76.57 Y60.315 E.01679
G1 X137.334 Y121.08 E2.70033
G1 X137.334 Y121.614 E.01679
G1 X76.57 Y60.85 E2.70033
G1 X76.57 Y61.384 E.01679
G1 X137.334 Y122.149 E2.70033
G1 X137.334 Y122.683 E.01679
M73 Q3 S160
G1 X76.57 Y61.919 E2.70033
G1 X76.57 Y62.453 E.01679
M73 P3 R159
G1 X137.334 Y123.217 E2.70033
G1 X137.334 Y123.752 E.01679
G1 X76.57 Y62.988 E2.70033
G1 X76.57 Y63.522 E.01679
M73 P4 R159
M73 Q4 S160
G1 X137.334 Y124.286 E2.70033
G1 X137.334 Y124.821 E.01679
G1 X76.57 Y64.057 E2.70033
G1 X76.57 Y64.591 E.01679
G1 X137.334 Y125.355 E2.70033
G1 X137.334 Y125.89 E.01679
G1 X76.57 Y65.125 E2.70033
G1 X76.57 Y65.66 E.01679
G1 X137.334 Y126.424 E2.70033
G1 X137.334 Y126.959 E.01679
G1 X76.57 Y66.194 E2.70033
G1 X76.57 Y66.729 E.01679
G1 X137.334 Y127.493 E2.70033
G1 X137.334 Y128.027 E.01679
G1 X76.57 Y67.263 E2.70033
G1 X76.57 Y67.798 E.01679
G1 X137.334 Y128.562 E2.70033
G1 X137.334 Y129.096 E.01679
G1 X76.57 Y68.332 E2.70033
G1 X76.57 Y68.867 E.01679
G1 X137.334 Y129.631 E2.70033
G1 X137.334 Y130.165 E.01679
M73 Q4 S159
G1 X76.57 Y69.401 E2.70033
G1 X76.57 Y69.935 E.01679
M73 P4 R158
G1 X137.334 Y130.7 E2.70033
G1 X137.334 Y131.234 E.01679
G1 X76.57 Y70.47 E2.70033
G1 X76.57 Y71.004 E.01679
G1 X137.334 Y131.769 E2.70033
G1 X137.334 Y132.303 E.01679
G1 X76.57 Y71.539 E2.70033
G1 X76.57 Y72.073 E.01679
G1 X137.334 Y132.838 E2.70033
G1 X137.334 Y133.372 E.01679
G1 X76.57 Y72.608 E2.70033
G1 X76.57 Y73.142 E.01679
G1 X137.334 Y133.906 E2.70033
G1 X137.334 Y134.441 E.01679
G1 X76.57 Y73.677 E2.70033
G1 X76.57 Y74.211 E.01679
G1 X137.334 Y134.975 E2.70033
G1 X137.334 Y135.51 E.01679
G1 X76.57 Y74.745 E2.70033
G1 X76.57 Y75.28 E.01679
G1 X137.334 Y136.044 E2.70033
G1 X137.334 Y136.579 E.01679
M73 P5 R158
M73 Q5 S159
G1 X76.57 Y75.814 E2.70033
G1 X76.57 Y76.349 E.01679
G1 X137.334 Y137.113 E2.70033
G1 X137.334 Y137.648 E.01679
M73 Q5 S158
G1 X76.57 Y76.883 E2.70033
G1 X76.57 Y77.418 E.01679
M73 P5 R157
G1 X137.334 Y138.182 E2.70033
G1 X137.334 Y138.716 E.01679
G1 X76.57 Y77.952 E2.70033
G1 X76.57 Y78.487 E.01679
G1 X137.334 Y139.251 E2.70033
G1 X137.334 Y139.785 E.01679
G1 X76.57 Y79.021 E2.70033
G1 X76.57 Y79.556 E.01679
G1 X137.334 Y140.32 E2.70033
G1 X137.334 Y140.854 E.01679
G1 X76.57 Y80.09 E2.70033
G1 X76.57 Y80.624 E.01679
G1 X137.334 Y141.389 E2.70033
G1 X137.334 Y141.923 E.01679
G1 X76.57 Y81.159 E2.70033
G1 X76.57 Y81.693 E.01679
G1 X137.334 Y142.458 E2.70033
G1 X137.334 Y142.992 E.01679
G1 X76.57 Y82.228 E2.70033
G1 X76.57 Y82.762 E.01679
G1 X137.334 Y143.526 E2.70033
G1 X137.334 Y144.061 E.01679
G1 X76.57 Y83.297 E2.70033
G1 X76.57 Y83.831 E.01679
G1 X137.334 Y144.595 E2.70033
G1 X137.334 Y145.13 E.01679
M73 P5 R156
M73 Q5 S157
G1 X76.57 Y84.366 E2.70033
G1 X76.57 Y84.9 E.01679
G1 X137.334 Y145.664 E2.70033
G1 X137.334 Y146.199 E.01679
G1 X76.57 Y85.434 E2.70033
G1 X76.57 Y85.969 E.01679
G1 X137.334 Y146.733 E2.70033
G1 X137.334 Y147.268 E.01679
G1 X76.57 Y86.503 E2.70033
G1 X76.57 Y87.038 E.01679
G1 X137.334 Y147.802 E2.70033
G1 X137.334 Y148.336 E.01679
G1 X76.57 Y87.572 E2.70033
G1 X76.57 Y88.107 E.01679
M73 P6 R156
M73 Q6 S157
G1 X137.334 Y148.871 E2.70033
G1 X137.334 Y149.405 E.01679
G1 X76.57 Y88.641 E2.70033
G1 X76.57 Y89.176 E.01679
G1 X137.334 Y149.94 E2.70033
G1 X137.334 Y149.993 E.00167
G1 X136.853 Y149.993 E.01512
G1 X76.57 Y89.71 E2.67894
G1 X76.57 Y90.244 E.01679
G1 X136.318 Y149.993 E2.65519
G1 X135.784 Y149.993 E.01679
G1 X76.57 Y90.779 E2.63144
G1 X76.57 Y91.313 E.01679
G1 X135.249 Y149.993 E2.60769
G1 X134.715 Y149.993 E.01679
M73 P6 R155
M73 Q6 S156
G1 X76.57 Y91.848 E2.58394
G1 X76.57 Y92.382 E.01679
G1 X134.181 Y149.993 E2.56019
G1 X133.646 Y149.993 E.01679
G1 X76.57 Y92.917 E2.53644
G1 X76.57 Y93.451 E.01679
G1 X133.112 Y149.993 E2.51269
G1 X132.577 Y149.993 E.01679
G1 X76.57 Y93.986 E2.48894
G1 X76.57 Y94.52 E.01679
G1 X132.043 Y149.993 E2.46519
G1 X131.508 Y149.993 E.01679
G1 X76.57 Y95.054 E2.44144
G1 X76.57 Y95.589 E.01679
G1 X130.974 Y149.993 E2.41768
G1 X130.439 Y149.993 E.01679
G1 X76.57 Y96.123 E2.39393
G1 X76.57 Y96.658 E.01679
G1 X129.905 Y149.993 E2.37018
G1 X129.371 Y149.993 E.01679
G1 X76.57 Y97.192 E2.34643
G1 X76.57 Y97.727 E.01679
G1 X128.836 Y149.993 E2.32268
G1 X128.302 Y149.993 E.01679
G1 X76.57 Y98.261 E2.29893
G1 X76.57 Y98.796 E.01679
G1 X127.767 Y149.993 E2.27518
G1 X127.233 Y149.993 E.01679
G1 X76.57 Y99.33 E2.25143
G1 X76.57 Y99.864 E.01679
M73 Q6 S155
G1 X126.698 Y149.993 E2.22768
G1 X126.164 Y149.993 E.01679
M73 P6 R154
G1 X76.57 Y100.399 E2.20393
G1 X76.57 Y100.933 E.01679
G1 X125.629 Y149.993 E2.18018
G1 X125.095 Y149.993 E.01679
M73 P7 R154
G1 X76.57 Y101.468 E2.15643
G1 X76.57 Y102.002 E.01679
M73 Q7 S155
G1 X124.561 Y149.993 E2.13268
G1 X124.026 Y149.993 E.01679
G1 X76.57 Y102.537 E2.10893
G1 X76.57 Y103.071 E.01679
G1 X123.492 Y149.993 E2.08518
G1 X122.957 Y149.993 E.01679
G1 X76.57 Y103.606 E2.06143
G1 X76.57 Y104.14 E.01679
G1 X122.423 Y149.993 E2.03768
G1 X121.888 Y149.993 E.01679
G1 X76.57 Y104.675 E2.01393
G1 X76.57 Y105.209 E.01679
G1 X121.354 Y149.993 E1.99018
G1 X120.819 Y149.993 E.01679
G1 X76.57 Y105.743 E1.96642
G1 X76.57 Y106.278 E.01679
G1 X120.285 Y149.993 E1.94267
G1 X119.751 Y149.993 E.01679
G1 X76.57 Y106.812 E1.91892
G1 X76.57 Y107.347 E.01679
G1 X119.216 Y149.993 E1.89517
G1 X118.682 Y149.993 E.01679
G1 X76.57 Y107.881 E1.87142
G1 X76.57 Y108.416 E.01679
