; generated by PrusaSlicer 2.5.2+win64 on 2023-08-16 at 00:38:59 UTC


;
;
; 

; external perimeters extrusion width = 0.60mm
; perimeters extrusion width = 0.50mm
; infill extrusion width = 0.50mm
; solid infill extrusion width = 0.50mm
; top infill extrusion width = 0.45mm
; first layer extrusion width = 0.42mm

; external perimeters extrusion width = 0.60mm
; perimeters extrusion width = 0.50mm
; infill extrusion width = 0.50mm
; solid infill extrusion width = 0.50mm
; top infill extrusion width = 0.45mm
; first layer extrusion width = 0.42mm

M73 P0 R26
M73 Q0 S26
M201 X1000 Y1000 Z200 E5000 ; sets maximum accelerations, mm/sec^2
M203 X200 Y200 Z12 E120 ; sets maximum feedrates, mm / sec
M204 P1250 R1250 T1250 ; sets acceleration (P, T) and retract acceleration (R), mm/sec^2
M205 X8.00 Y8.00 Z0.40 E4.50 ; sets the jerk limits, mm/sec
M205 S0 T0 ; sets the minimum extruding and travel feed rate, mm/sec
M107
;TYPE:Custom
M862.3 P "MK3" ; printer model check
M862.1 P0.4 ; nozzle diameter check
M115 U3.12.2 ; tell printer latest fw version
G90 ; use absolute coordinates
M83 ; extruder relative mode
M104 S215 ; set extruder temp
M140 S60 ; set bed temp
M190 S60 ; wait for bed temp
M109 S215 ; wait for extruder temp
G28 W ; home all without mesh bed level
G80 ; mesh bed leveling

G1 Z0.2 F720
G1 Y-3 F1000 ; go outside print area
G92 E0
G1 X60 E9 F1000 ; intro line
G1 X100 E12.5 F1000 ; intro line

G92 E0
M221 S95

; Don't change E values below. Excessive value can damage the printer.

M907 E538 ; set extruder motor current
G21 ; set units to millimeters
G90 ; use absolute coordinates
M83 ; use relative distances for extrusion
M900 K0.05 ; Filament gcode LA 1.5
M900 K30 ; Filament gcode LA 1.0
M107
;LAYER_CHANGE
;Z:0.4
;HEIGHT:0.4
;BEFORE_LAYER_CHANGE
G92 E0.0
;0.4


G1 E-.8 F2100
G1 Z.4 F720
;AFTER_LAYER_CHANGE
;0.4
G1 Z.8
G1 X73.515 Y89.76 F10800
G1 Z.4 F720
G1 E.8 F2100
M204 S800
;TYPE:Skirt/Brim
;WIDTH:0.42
G1 F1200
G1 X73.875 Y89.466 E.02583
G1 X75.132 Y88.659 E.08303
G1 X76.613 Y87.948 E.09126
G1 X78.37 Y87.325 E.1036
G1 X80.182 Y86.855 E.10406
G1 X82.668 Y86.365 E.14079
G1 X83.54 Y86.287 E.04864
G1 X91.609 Y86.287 E.4484
G1 X120.968 Y86.458 E1.63157
G1 X125.629 Y87.054 E.26113
G1 X126.858 Y87.618 E.07512
G1 X127.592 Y88.87 E.08064
G1 X129.109 Y95.834 E.39604
G1 X129.002 Y97.181 E.07512
G1 X128.079 Y98.301 E.08064
G1 X124.539 Y100.54 E.23278
G1 X91.335 Y118.038 E2.08574
G1 X89.455 Y118.169 E.1047
G1 X83.71 Y116.068 E.33993
G1 X81.429 Y115.045 E.13893
G1 X77.055 Y112.5 E.28123
G1 X75.383 Y111.355 E.11259
G1 X73.653 Y109.975 E.12299
G1 X72.218 Y108.597 E.11055
G1 X71.361 Y107.629 E.07188
G1 X70.345 Y106.277 E.09395
G1 X69.44 Y104.773 E.09755
G1 X68.848 Y103.509 E.0776
G1 X68.388 Y102.169 E.0787
G1 X68.119 Y100.735 E.08107
G1 X68.087 Y99.373 E.0757
G1 X68.29 Y97.925 E.08127
G1 X68.764 Y96.387 E.08939
G1 X69.474 Y94.837 E.09477
G1 X70.578 Y92.988 E.11964
G1 X71.654 Y91.561 E.09934
G1 X72.902 Y90.262 E.10014
G1 X73.468 Y89.798 E.04066
M204 S1000
;WIPE_START
G1 F8640
G1 X73.875 Y89.466 E-.12119
G1 X75.132 Y88.659 E-.34499
G1 X76.279 Y88.108 E-.29382
;WIPE_END
G1 E-.04 F2100
G1 Z.8 F720
G1 X75.246 Y91.98 F10800
G1 Z.4 F720
G1 E.8 F2100
M204 S800
G1 F1200
G1 X75.471 Y91.796 E.01618
G1 X76.684 Y91.028 E.07975
G1 X77.755 Y90.531 E.06562
G1 X78.511 Y90.246 E.04488
G1 X79.277 Y90.001 E.04471
G1 X80.5 Y89.679 E.07026
G1 X81.789 Y89.401 E.07331
G1 X83.131 Y89.15 E.07589
G1 X90.17 Y89.149 E.39115
G1 X90.958 Y89.338 E.04501
M73 P1 R26
M73 Q1 S26
G1 X91.288 Y89.482 E.02004
G1 X117.221 Y89.481 E1.44111
G1 X117.888 Y89.461 E.03706
G1 X119.101 Y89.299 E.06801
G1 X121.271 Y89.307 E.12062
G1 X122.768 Y89.606 E.08485
G1 X123.696 Y90.088 E.05808
G1 X124.496 Y90.77 E.0584
G1 X125.426 Y92.307 E.09982
G1 X125.461 Y92.399 E.00547
G1 X125.722 Y94.358 E.10984
G1 X125.455 Y95.51 E.06572
G1 X124.93 Y96.553 E.0649
G1 X124.021 Y97.516 E.07356
G1 X122.916 Y98.203 E.07231
G1 X121.324 Y98.885 E.09626
G1 X120.582 Y99.13 E.04344
G1 X119.799 Y99.329 E.04484
G1 X118.727 Y99.751 E.06409
G1 X116.873 Y100.441 E.10991
G1 X115.452 Y100.907 E.08307
G1 X113.925 Y101.359 E.08853
G1 X112.217 Y101.822 E.0983
G1 X110.295 Y102.311 E.11022
G1 X104.66 Y103.654 E.32191
G1 X94.083 Y106.063 E.60282
G1 X94.06 Y110.951 E.27163
G1 X93.753 Y112.07 E.0645
G1 X93.279 Y112.93 E.05455
G1 X92.593 Y113.701 E.05736
G1 X91.459 Y114.464 E.07596
G1 X90.265 Y114.84 E.06959
G1 X89.036 Y114.892 E.06834
G1 X88.223 Y114.726 E.04611
G1 X85.806 Y113.845 E.14298
G1 X84.255 Y113.246 E.09235
G1 X83.493 Y112.914 E.04622
G1 X82.744 Y112.547 E.04634
G1 X81.536 Y111.888 E.07648
G1 X79.323 Y110.591 E.14252
G1 X77.865 Y109.652 E.09639
G1 X77.077 Y109.097 E.05358
G1 X76.313 Y108.516 E.05328
G1 X75.529 Y107.865 E.05668
G1 X74.87 Y107.262 E.04962
G1 X74.236 Y106.623 E.05002
G1 X73.566 Y105.867 E.05615
G1 X73.084 Y105.256 E.04324
G1 X72.632 Y104.617 E.04349
G1 X71.985 Y103.544 E.06966
G1 X71.448 Y102.409 E.06974
G1 X71.098 Y101.373 E.06078
G1 X70.935 Y100.493 E.04975
G1 X70.905 Y99.593 E.05003
G1 X71.006 Y98.738 E.04785
G1 X71.224 Y97.892 E.0485
G1 X71.696 Y96.707 E.07089
G1 X72.185 Y95.758 E.05934
G1 X72.625 Y95.016 E.04797
G1 X73.398 Y93.897 E.07553
G1 X73.881 Y93.301 E.04265
G1 X74.393 Y92.742 E.04212
G1 X74.917 Y92.248 E.04002
G1 X75.199 Y92.018 E.02025
M204 S1000
G1 X75.41 Y92.277 F10800
M204 S800
G1 F1200
G1 X75.675 Y92.061 E.01895
G1 X76.853 Y91.316 E.07747
G1 X77.878 Y90.841 E.0628
G1 X78.616 Y90.563 E.04384
G1 X79.375 Y90.32 E.04423
G1 X80.574 Y90.005 E.06891
G1 X81.853 Y89.729 E.07271
G1 X83.178 Y89.481 E.0749
G1 X90.149 Y89.483 E.38742
G1 X90.862 Y89.659 E.0408
G1 X91.217 Y89.816 E.02157
G1 X117.226 Y89.815 E1.44535
G1 X117.915 Y89.795 E.03831
G1 X119.112 Y89.633 E.0671
G1 X121.223 Y89.638 E.11735
G1 X122.636 Y89.914 E.07999
G1 X123.524 Y90.376 E.05564
G1 X124.257 Y91.006 E.05369
G1 X125.14 Y92.492 E.09608
G1 X125.39 Y94.314 E.10219
G1 X125.147 Y95.378 E.06067
G1 X124.643 Y96.381 E.06236
G1 X123.795 Y97.27 E.06826
G1 X122.773 Y97.901 E.06673
G1 X121.212 Y98.57 E.09439
G1 X120.494 Y98.808 E.04206
G1 X119.697 Y99.01 E.04569
G1 X118.609 Y99.439 E.06499
G1 X116.759 Y100.126 E.10964
G1 X115.351 Y100.589 E.08239
G1 X113.835 Y101.037 E.08781
G1 X112.131 Y101.499 E.09812
G1 X110.217 Y101.986 E.10979
G1 X104.584 Y103.328 E.3218
G1 X93.75 Y105.796 E.61742
G1 X93.726 Y110.926 E.2851
G1 X93.437 Y111.96 E.05967
G1 X92.996 Y112.751 E.0503
G1 X92.388 Y113.436 E.05095
G1 X91.333 Y114.153 E.07085
G1 X90.227 Y114.508 E.06458
G1 X89.082 Y114.56 E.0637
G1 X88.325 Y114.407 E.04286
G1 X85.922 Y113.531 E.14218
G1 X84.385 Y112.938 E.09152
G1 X83.636 Y112.612 E.04539
G1 X82.901 Y112.252 E.04551
G1 X81.703 Y111.598 E.07584
G1 X79.495 Y110.304 E.14218
G1 X78.049 Y109.373 E.09561
G1 X77.272 Y108.825 E.05283
G1 X76.519 Y108.253 E.05257
G1 X75.746 Y107.61 E.05585
G1 X75.098 Y107.018 E.04874
G1 X74.477 Y106.391 E.04908
G1 X73.825 Y105.656 E.05459
G1 X73.354 Y105.059 E.04224
G1 X72.908 Y104.429 E.0429
G1 X72.275 Y103.379 E.06815
G1 X71.755 Y102.275 E.0678
G1 X71.419 Y101.278 E.05849
G1 X71.266 Y100.445 E.04708
G1 X71.239 Y99.619 E.04591
G1 X71.333 Y98.809 E.0453
G1 X71.538 Y98.006 E.04609
G1 X71.997 Y96.853 E.06894
G1 X72.48 Y95.916 E.05861
G1 X72.904 Y95.201 E.04619
G1 X73.662 Y94.102 E.07416
G1 X74.13 Y93.523 E.04143
G1 X74.627 Y92.981 E.04085
G1 X75.133 Y92.503 E.03865
G1 X75.364 Y92.314 E.01657
M204 S1000
G1 X75.574 Y92.573 F10800
M204 S800
G1 F1200
G1 X75.878 Y92.327 E.02173
G1 X77.004 Y91.615 E.07402
G1 X78.002 Y91.152 E.06117
G1 X78.723 Y90.88 E.04279
G1 X79.464 Y90.642 E.04326
G1 X80.648 Y90.331 E.06804
G1 X81.917 Y90.057 E.07212
G1 X83.224 Y89.812 E.07392
G1 X90.089 Y89.812 E.38149
G1 X90.766 Y89.98 E.03879
G1 X91.144 Y90.15 E.02304
G1 X117.231 Y90.149 E1.44966
G1 X117.943 Y90.128 E.03957
M73 P1 R25
G1 X119.123 Y89.968 E.0662
G1 X121.177 Y89.969 E.11412
G1 X122.505 Y90.222 E.07516
G1 X123.322 Y90.642 E.05102
G1 X124.018 Y91.241 E.05103
G1 X124.816 Y92.589 E.08707
G1 X125.057 Y94.27 E.09436
G1 X124.826 Y95.284 E.05778
G1 X124.357 Y96.207 E.05754
G1 X123.57 Y97.022 E.06297
G1 X122.63 Y97.598 E.06124
G1 X121.1 Y98.255 E.09254
G1 X120.406 Y98.485 E.04067
G1 X119.594 Y98.691 E.04654
G1 X118.491 Y99.126 E.0659
G1 X116.646 Y99.812 E.10937
G1 X115.249 Y100.27 E.08171
M73 P2 R25
M73 Q2 S26
G1 X113.746 Y100.715 E.08708
G1 X112.045 Y101.176 E.09795
G1 X110.138 Y101.661 E.10935
G1 X104.507 Y103.003 E.32167
G1 X93.418 Y105.529 E.63203
G1 X93.392 Y110.902 E.29858
G1 X93.135 Y111.816 E.05276
G1 X92.734 Y112.543 E.04616
G1 X92.152 Y113.199 E.04871
G1 X91.167 Y113.863 E.06603
G1 X90.188 Y114.175 E.05709
G1 X89.126 Y114.228 E.05909
G1 X88.428 Y114.089 E.03957
G1 X86.037 Y113.218 E.14137
G1 X84.515 Y112.63 E.09068
G1 X83.78 Y112.311 E.04457
G1 X83.058 Y111.957 E.04468
G1 X81.869 Y111.309 E.07521
G1 X79.668 Y110.018 E.14184
G1 X78.233 Y109.094 E.09483
G1 X77.467 Y108.554 E.05208
G1 X76.724 Y107.989 E.05187
G1 X75.962 Y107.356 E.05503
G1 X75.327 Y106.775 E.04785
G1 X74.717 Y106.159 E.04814
G1 X74.085 Y105.445 E.05303
G1 X73.624 Y104.863 E.04125
G1 X73.184 Y104.241 E.0423
G1 X72.566 Y103.214 E.06664
G1 X72.061 Y102.142 E.06585
G1 X71.739 Y101.183 E.05621
G1 X71.599 Y100.421 E.04307
G1 X71.572 Y99.644 E.04317
G1 X71.659 Y98.88 E.04272
G1 X71.853 Y98.119 E.04366
G1 X72.298 Y96.999 E.06697
G1 X72.775 Y96.073 E.05788
G1 X73.182 Y95.386 E.0444
G1 X73.926 Y94.307 E.07279
G1 X74.38 Y93.745 E.0402
G1 X74.862 Y93.22 E.03957
G1 X75.528 Y92.611 E.05013
M204 S1000
G1 X75.739 Y92.871 F10800
M204 S800
G1 F1200
G1 X76.081 Y92.592 E.02451
G1 X77.154 Y91.913 E.07057
G1 X78.126 Y91.462 E.05955
G1 X78.829 Y91.197 E.04174
G1 X79.553 Y90.964 E.04229
G1 X80.722 Y90.657 E.06717
G1 X81.98 Y90.385 E.07153
G1 X83.27 Y90.143 E.07293
G1 X90.028 Y90.141 E.37555
G1 X90.67 Y90.3 E.03674
G1 X91.07 Y90.485 E.02448
G1 X117.236 Y90.483 E1.45404
G1 X117.97 Y90.462 E.04084
G1 X119.135 Y90.302 E.06532
G1 X121.131 Y90.3 E.11095
G1 X122.374 Y90.531 E.07026
G1 X123.151 Y90.93 E.0485
G1 X123.779 Y91.475 E.04623
G1 X124.491 Y92.672 E.07735
G1 X124.724 Y94.228 E.08747
G1 X124.518 Y95.151 E.05255
G1 X124.07 Y96.032 E.05491
G1 X123.346 Y96.773 E.05758
G1 X122.488 Y97.296 E.05585
G1 X120.988 Y97.94 E.0907
G1 X120.317 Y98.163 E.03928
G1 X119.491 Y98.373 E.04738
G1 X118.373 Y98.813 E.0668
G1 X116.532 Y99.498 E.1091
G1 X115.147 Y99.952 E.08103
G1 X113.657 Y100.393 E.08636
G1 X111.959 Y100.853 E.09777
G1 X110.059 Y101.337 E.10892
G1 X104.43 Y102.678 E.32156
G1 X93.085 Y105.262 E.64664
G1 X93.058 Y110.877 E.31206
G1 X92.833 Y111.672 E.04592
G1 X92.471 Y112.336 E.04199
G1 X91.917 Y112.961 E.04642
G1 X91.002 Y113.571 E.06111
G1 X90.109 Y113.85 E.05197
G1 X89.17 Y113.896 E.05224
G1 X88.53 Y113.771 E.03628
G1 X86.153 Y112.904 E.14055
G1 X84.645 Y112.322 E.08985
G1 X83.923 Y112.009 E.04374
G1 X83.214 Y111.662 E.04385
G1 X82.036 Y111.019 E.07458
G1 X79.84 Y109.731 E.1415
G1 X78.417 Y108.815 E.09405
G1 X77.667 Y108.286 E.051
G1 X76.929 Y107.725 E.0515
G1 X76.179 Y107.101 E.0542
G1 X75.556 Y106.531 E.04696
G1 X74.958 Y105.927 E.0472
G1 X74.344 Y105.234 E.05148
G1 X73.894 Y104.666 E.04025
G1 X73.461 Y104.053 E.0417
G1 X72.857 Y103.049 E.06512
G1 X72.368 Y102.009 E.06389
G1 X72.06 Y101.088 E.05393
G1 X71.933 Y100.396 E.03912
G1 X71.905 Y99.669 E.04043
G1 X71.986 Y98.951 E.04015
G1 X72.167 Y98.232 E.04121
G1 X72.599 Y97.145 E.06499
G1 X73.069 Y96.23 E.05715
G1 X73.461 Y95.57 E.04263
G1 X74.19 Y94.512 E.07142
G1 X74.63 Y93.966 E.03898
G1 X75.096 Y93.458 E.0383
G1 X75.692 Y92.908 E.04506
M204 S1000
G1 X75.903 Y93.168 F10800
M204 S800
G1 F1200
G1 X76.284 Y92.858 E.0273
G1 X77.305 Y92.212 E.06712
G1 X78.25 Y91.773 E.05792
G1 X78.935 Y91.514 E.04069
G1 X79.643 Y91.286 E.04132
G1 X80.796 Y90.982 E.0663
G1 X82.044 Y90.713 E.07093
G1 X83.317 Y90.475 E.07194
G1 X90.007 Y90.475 E.37178
G1 X90.571 Y90.619 E.03236
M73 Q2 S25
G1 X90.995 Y90.819 E.02603
G1 X117.241 Y90.817 E1.45849
G1 X117.998 Y90.795 E.04213
G1 X119.147 Y90.636 E.06445
G1 X121.088 Y90.632 E.10784
G1 X122.246 Y90.84 E.0654
G1 X122.947 Y91.196 E.04372
G1 X123.54 Y91.711 E.0436
G1 X124.166 Y92.756 E.06771
G1 X124.391 Y94.188 E.08059
G1 X124.21 Y95.019 E.04725
G1 X123.785 Y95.857 E.05221
G1 X123.124 Y96.522 E.05211
G1 X122.345 Y96.993 E.05057
G1 X120.876 Y97.626 E.08889
G1 X120.229 Y97.84 E.03788
G1 X119.388 Y98.054 E.04822
G1 X118.255 Y98.501 E.06771
G1 X116.419 Y99.183 E.10883
G1 X115.045 Y99.634 E.08035
G1 X113.567 Y100.071 E.08563
G1 X111.875 Y100.53 E.09744
G1 X109.98 Y101.012 E.10864
G1 X104.354 Y102.353 E.32144
G1 X92.752 Y104.995 E.66125
G1 X92.724 Y110.853 E.32551
G1 X92.53 Y111.53 E.03916
G1 X92.208 Y112.129 E.03778
G1 X91.682 Y112.722 E.04407
G1 X90.838 Y113.279 E.05616
G1 X90.07 Y113.517 E.04469
G1 X89.213 Y113.564 E.04771
G1 X88.631 Y113.452 E.03291
G1 X86.269 Y112.591 E.13972
G1 X84.775 Y112.014 E.08901
G1 X84.06 Y111.704 E.04334
G1 X83.365 Y111.363 E.043
G1 X82.203 Y110.729 E.07353
G1 X80.018 Y109.448 E.14078
G1 X78.606 Y108.539 E.09328
G1 X77.866 Y108.018 E.0503
G1 X77.14 Y107.466 E.05072
G1 X76.402 Y106.852 E.05333
G1 X75.784 Y106.287 E.04651
G1 X75.199 Y105.696 E.04626
G1 X74.603 Y105.023 E.04995
G1 X74.164 Y104.469 E.03926
G1 X73.744 Y103.876 E.04042
G1 X73.156 Y102.899 E.06337
G1 X72.681 Y101.893 E.0618
G1 X72.386 Y101.015 E.05145
G1 X72.266 Y100.37 E.03646
G1 X72.239 Y99.693 E.03768
G1 X72.313 Y99.021 E.03756
M73 P3 R25
G1 X72.482 Y98.344 E.03875
G1 X72.899 Y97.29 E.063
G1 X73.364 Y96.388 E.05641
M73 Q3 S25
G1 X73.739 Y95.755 E.04086
G1 X74.454 Y94.717 E.07006
G1 X74.88 Y94.188 E.03777
G1 X75.33 Y93.696 E.03703
G1 X75.857 Y93.205 E.03998
M204 S1000
G1 X76.067 Y93.465 F10800
M204 S800
G1 F1200
G1 X76.487 Y93.123 E.03008
G1 X77.456 Y92.51 E.06368
G1 X78.374 Y92.083 E.05629
G1 X79.041 Y91.831 E.03964
G1 X79.732 Y91.608 E.04035
G1 X80.871 Y91.308 E.06542
G1 X82.108 Y91.041 E.07034
G1 X83.363 Y90.806 E.07096
G1 X89.944 Y90.804 E.36574
G1 X90.472 Y90.939 E.03025
G1 X90.919 Y91.153 E.02752
G1 X117.245 Y91.151 E1.46301
G1 X118.027 Y91.129 E.04343
G1 X119.16 Y90.97 E.06359
G1 X121.045 Y90.964 E.10479
G1 X122.117 Y91.15 E.06046
G1 X122.777 Y91.484 E.0411
G1 X123.3 Y91.944 E.0387
G1 X123.842 Y92.842 E.05829
G1 X124.058 Y94.151 E.07371
G1 X123.902 Y94.888 E.04184
G1 X123.499 Y95.682 E.04948
G1 X122.934 Y96.247 E.04443
G1 X122.203 Y96.691 E.04753
G1 X120.751 Y97.316 E.08784
G1 X120.141 Y97.518 E.03568
G1 X119.285 Y97.735 E.04906
G1 X118.137 Y98.188 E.06862
G1 X116.312 Y98.867 E.10819
G1 X114.948 Y99.314 E.07976
G1 X113.474 Y99.75 E.08539
G1 X111.791 Y100.206 E.09692
G1 X109.902 Y100.687 E.10835
G1 X104.279 Y102.027 E.32123
G1 X92.419 Y104.728 E.67594
G1 X92.39 Y110.827 E.33894
G1 X92.227 Y111.389 E.0325
G1 X91.944 Y111.922 E.03354
G1 X91.447 Y112.483 E.04167
G1 X90.676 Y112.986 E.05115
G1 X90.03 Y113.185 E.03757
G1 X89.254 Y113.232 E.04318
G1 X88.733 Y113.133 E.02948
G1 X86.388 Y112.279 E.13868
G1 X84.905 Y111.706 E.08836
G1 X84.203 Y111.402 E.0425
G1 X83.515 Y111.065 E.04258
G1 X82.37 Y110.44 E.07249
G1 X80.195 Y109.166 E.14005
G1 X78.796 Y108.264 E.09251
G1 X78.066 Y107.75 E.04961
G1 X77.35 Y107.206 E.04995
G1 X76.624 Y106.603 E.05247
G1 X76.019 Y106.049 E.0456
G1 X75.439 Y105.464 E.04577
G1 X74.862 Y104.812 E.04841
G1 X74.434 Y104.272 E.03827
G1 X74.027 Y103.698 E.03913
G1 X73.454 Y102.748 E.06162
G1 X72.995 Y101.776 E.05973
G1 X72.712 Y100.941 E.04899
G1 X72.599 Y100.344 E.03381
G1 X72.573 Y99.716 E.03492
G1 X72.64 Y99.09 E.03498
G1 X72.797 Y98.457 E.03626
G1 X73.2 Y97.436 E.06098
G1 X73.659 Y96.545 E.05567
G1 X74.018 Y95.94 E.03909
G1 X74.718 Y94.922 E.06869
G1 X75.131 Y94.409 E.03655
G1 X75.565 Y93.934 E.03577
G1 X76.021 Y93.503 E.03489
M204 S1000
G1 X76.232 Y93.762 F10800
M204 S800
G1 F1200
G1 X76.691 Y93.389 E.03286
G1 X77.607 Y92.809 E.06025
G1 X78.498 Y92.393 E.05466
G1 X79.147 Y92.147 E.03859
G1 X79.822 Y91.93 E.03937
G1 X80.945 Y91.634 E.06454
G1 X82.172 Y91.369 E.06974
G1 X83.409 Y91.137 E.06996
G1 X89.922 Y91.138 E.36192
G1 X90.369 Y91.257 E.02572
G1 X90.841 Y91.487 E.02916
G1 X117.25 Y91.486 E1.46759
G1 X118.055 Y91.462 E.04474
G1 X119.173 Y91.304 E.06274
G1 X121.005 Y91.296 E.10182
