; generated by PrusaSlicer 2.5.2+win64 on 2023-06-07 at 05:26:31 UTC


;
;
; 

; external perimeters extrusion width = 0.60mm
; perimeters extrusion width = 0.50mm
; infill extrusion width = 0.50mm
; solid infill extrusion width = 0.50mm
; top infill extrusion width = 0.45mm
; first layer extrusion width = 0.42mm

M73 P0 R121
M73 Q0 S123
M201 X1000 Y1000 Z200 E5000 ; sets maximum accelerations, mm/sec^2
M203 X200 Y200 Z12 E120 ; sets maximum feedrates, mm / sec
M204 P1250 R1250 T1250 ; sets acceleration (P, T) and retract acceleration (R), mm/sec^2
M205 X8.00 Y8.00 Z0.40 E4.50 ; sets the jerk limits, mm/sec
M205 S0 T0 ; sets the minimum extruding and travel feed rate, mm/sec
M107
;TYPE:Custom
M862.3 P "MK3" ; printer model check
M862.1 P0.4 ; nozzle diameter check
M115 U3.12.2 ; tell printer latest fw version
G90 ; use absolute coordinates
M83 ; extruder relative mode
M104 S215 ; set extruder temp
M140 S60 ; set bed temp
M190 S60 ; wait for bed temp
M109 S215 ; wait for extruder temp
G28 W ; home all without mesh bed level
G80 ; mesh bed leveling

G1 Z0.2 F720
G1 Y-3 F1000 ; go outside print area
G92 E0
G1 X60 E9 F1000 ; intro line
G1 X100 E12.5 F1000 ; intro line

G92 E0
M221 S95

; Don't change E values below. Excessive value can damage the printer.

M907 E538 ; set extruder motor current
G21 ; set units to millimeters
G90 ; use absolute coordinates
M83 ; use relative distances for extrusion
M900 K0.05 ; Filament gcode LA 1.5
M900 K30 ; Filament gcode LA 1.0
M107
;LAYER_CHANGE
;Z:0.4
;HEIGHT:0.4
;BEFORE_LAYER_CHANGE
G92 E0.0
;0.4


G1 E-.8 F2100
G1 Z.4 F720
;AFTER_LAYER_CHANGE
;0.4
G1 Z.8
G1 X26.399 Y87.989 F10800
G1 Z.4 F720
G1 E.8 F2100
M204 S800
;TYPE:Skirt/Brim
;WIDTH:0.42
G1 F1200
G1 X30.553 Y87.224 E.23472
G1 X228.171 Y87.217 E10.98185
G1 X232.438 Y87.814 E.23941
M73 Q0 S122
G1 X233.661 Y88.39 E.07512
G1 X234.343 Y89.488 E.07181
G1 X236.137 Y95.838 E.36673
G1 X236.112 Y97.19 E.07512
G1 X235.391 Y98.262 E.07181
G1 X232.202 Y100.904 E.23011
G1 X231.275 Y101.447 E.05972
G1 X229.737 Y102.113 E.09312
G1 X225.99 Y103.487 E.2218
G1 X222.184 Y104.771 E.22319
G1 X210.308 Y107.634 E.67891
G1 X198.493 Y110.298 E.67305
G1 X175.896 Y115.096 E1.28374
M73 P0 R120
G1 X167.108 Y116.617 E.49559
G1 X141.87 Y120.768 E1.42137
G1 X132.988 Y121.943 E.49785
G1 X127.318 Y122.573 E.31705
G1 X48.912 Y122.59 E4.35709
G1 X48.403 Y122.534 E.02842
G1 X42.422 Y121.174 E.34089
G1 X38.719 Y120.16 E.21333
G1 X35.939 Y119.317 E.16144
G1 X27.627 Y116.436 E.48885
G1 X27.059 Y116.147 E.03541
G1 X20.974 Y111.852 E.41395
G1 X19.396 Y110.486 E.11597
G1 X18.001 Y109.021 E.11241
G1 X16.574 Y107.12 E.13212
G1 X15.537 Y105.258 E.11842
G1 X14.834 Y103.408 E.10994
G1 X14.609 Y102.417 E.0565
G1 X14.502 Y101.467 E.05313
G1 X14.516 Y100.291 E.06536
G1 X14.721 Y98.982 E.07361
G1 X15.083 Y97.764 E.07062
G1 X15.632 Y96.47 E.07809
G1 X16.459 Y94.945 E.09641
G1 X17.409 Y93.52 E.09519
G1 X18.353 Y92.357 E.08324
G1 X19.375 Y91.332 E.08044
G1 X20.372 Y90.529 E.07115
G1 X21.385 Y89.874 E.06701
G1 X22.39 Y89.352 E.06296
G1 X23.641 Y88.831 E.07531
G1 X26.341 Y88.006 E.15689
M204 S1000
;WIPE_START
G1 F8640
G1 X29.577 Y87.405 E-.76
;WIPE_END
G1 E-.04 F2100
G1 Z.8 F720
G1 X27.017 Y90.783 F10800
G1 Z.4 F720
G1 E.8 F2100
M204 S800
G1 F1200
G1 X28.532 Y90.459 E.08607
G1 X29.996 Y90.233 E.08234
G1 X35.386 Y90.237 E.29953
G1 X35.732 Y90.207 E.01931
G1 X36.098 Y90.223 E.02033
G1 X36.89 Y90.206 E.04405
G1 X38.178 Y90.579 E.07449
G1 X39.481 Y90.233 E.07493
G1 X194.342 Y90.233 E8.60576
G1 X195.687 Y90.578 E.07716
G1 X196.759 Y90.255 E.06224
G1 X222.346 Y90.246 E1.42186
G1 X224.799 Y90.223 E.13632
G1 X226.26 Y90.033 E.08188
G1 X227.992 Y90.035 E.09627
G1 X229.322 Y90.224 E.07464
G1 X230.567 Y90.759 E.0753
G1 X231.554 Y91.6 E.07208
G1 X232.249 Y92.647 E.06982
G1 X232.697 Y94.211 E.09039
G1 X232.664 Y95.457 E.06925
G1 X232.239 Y96.757 E.07598
G1 X231.406 Y97.912 E.07914
G1 X230.207 Y98.813 E.08336
G1 X228.636 Y99.513 E.09558
G1 X227.825 Y99.817 E.04813
G1 X226.96 Y100.04 E.04965
G1 X225.155 Y100.75 E.10779
G1 X223.756 Y101.254 E.08261
G1 X222.118 Y101.767 E.09542
G1 X220.615 Y102.195 E.08684
G1 X217.095 Y103.108 E.20206
G1 X212.866 Y104.133 E.24181
G1 X208.175 Y105.229 E.26772
G1 X201.749 Y106.688 E.3662
G1 X196.663 Y107.804 E.28933
G1 X186.806 Y109.879 E.55977
G1 X185.456 Y109.829 E.07507
G1 X184.296 Y110.417 E.07231
G1 X176.68 Y112.061 E.43295
G1 X173.857 Y112.602 E.15972
G1 X165.045 Y114.098 E.49671
G1 X143.584 Y117.635 E1.20873
G1 X141.485 Y117.916 E.11768
G1 X140.334 Y117.769 E.06448
G1 X139.052 Y118.288 E.07688
G1 X132.991 Y119.098 E.33981
G1 X130.317 Y119.417 E.14962
G1 X126.957 Y119.765 E.18775
G1 X49.156 Y119.722 E4.32345
G1 X46.675 Y119.237 E.1405
G1 X44.891 Y118.857 E.10134
G1 X42.895 Y118.383 E.11402
G1 X41.493 Y118.019 E.0805
G1 X39.779 Y117.53 E.09903
G1 X37.949 Y116.967 E.10638
G1 X36.888 Y116.377 E.06747
G1 X36.674 Y116.189 E.01584
G1 X35.231 Y116.063 E.0805
G1 X31.437 Y114.673 E.22451
G1 X30.115 Y114.131 E.07943
G1 X29.298 Y113.742 E.05026
G1 X27.643 Y112.832 E.10496
G1 X27.056 Y112.571 E.03572
G1 X26.525 Y112.196 E.03612
G1 X25.516 Y111.577 E.06578
G1 X24.447 Y110.888 E.07068
G1 X23.286 Y110.069 E.07892
G1 X22.664 Y109.589 E.04368
G1 X21.818 Y108.878 E.06143
G1 X20.871 Y107.976 E.07265
G1 X20.19 Y107.237 E.05587
G1 X19.607 Y106.523 E.05121
G1 X19.073 Y105.781 E.05081
G1 X18.614 Y105.05 E.04798
G1 X18.19 Y104.262 E.0497
G1 X17.805 Y103.39 E.05299
G1 X17.511 Y102.501 E.05199
G1 X17.317 Y101.194 E.07347
G1 X17.349 Y100.346 E.04716
G1 X17.5 Y99.495 E.04802
G1 X17.798 Y98.563 E.05437
G1 X18.351 Y97.344 E.07438
G1 X18.851 Y96.445 E.05715
G1 X19.416 Y95.567 E.05808
G1 X20.086 Y94.674 E.06201
G1 X20.794 Y93.879 E.05915
G1 X21.593 Y93.149 E.06012
G1 X22.385 Y92.572 E.05448
G1 X23.201 Y92.098 E.05246
G1 X24.121 Y91.674 E.05629
G1 X25.074 Y91.318 E.05648
G1 X26.188 Y90.985 E.06462
G1 X26.959 Y90.797 E.04411
M204 S1000
G1 X27.038 Y91.122 F10800
M204 S800
G1 F1200
G1 X28.587 Y90.788 E.08807
G1 X30.009 Y90.567 E.07995
G1 X35.4 Y90.571 E.2996
G1 X35.749 Y90.541 E.01948
G1 X36.093 Y90.557 E.01911
G1 X36.871 Y90.541 E.04323
G1 X38.173 Y90.927 E.0755
G1 X39.503 Y90.568 E.07656
G1 X194.32 Y90.568 E8.60331
G1 X195.695 Y90.925 E.07893
G1 X196.785 Y90.589 E.0634
G1 X222.347 Y90.58 E1.42052
G1 X224.822 Y90.557 E.13754
G1 X226.271 Y90.367 E.08118
G1 X227.981 Y90.369 E.09504
G1 X229.213 Y90.541 E.06913
G1 X230.372 Y91.031 E.06992
G1 X231.289 Y91.805 E.06672
G1 X231.956 Y92.81 E.06705
G1 X232.362 Y94.23 E.08202
G1 X232.338 Y95.377 E.06378
G1 X231.93 Y96.628 E.07315
G1 X231.185 Y97.66 E.07073
G1 X230.053 Y98.515 E.07881
G1 X228.505 Y99.206 E.09422
G1 X227.717 Y99.501 E.04677
G1 X226.857 Y99.721 E.04932
G1 X225.035 Y100.439 E.10881
G1 X223.647 Y100.938 E.082
G1 X222.024 Y101.446 E.09447
G1 X220.529 Y101.872 E.08639
G1 X217.013 Y102.785 E.20188
G1 X212.788 Y103.808 E.24155
G1 X208.1 Y104.903 E.26751
G1 X201.675 Y106.362 E.36614
G1 X196.594 Y107.478 E.2891
G1 X186.758 Y109.547 E.55856
G1 X185.382 Y109.491 E.07653
G1 X184.203 Y110.095 E.07359
G1 X176.611 Y111.734 E.43161
G1 X173.796 Y112.274 E.1593
G1 X164.991 Y113.769 E.49634
G1 X143.532 Y117.305 E1.20857
G1 X141.463 Y117.582 E.116
G1 X140.289 Y117.425 E.06577
G1 X138.986 Y117.96 E.07831
G1 X132.95 Y118.766 E.3384
G1 X130.281 Y119.085 E.14934
G1 X126.931 Y119.431 E.18719
G1 X49.204 Y119.391 E4.31933
G1 X46.74 Y118.909 E.13953
M73 P1 R120
G1 X44.962 Y118.531 E.101
M73 Q1 S122
G1 X42.973 Y118.058 E.1136
G1 X41.582 Y117.697 E.07988
G1 X39.872 Y117.209 E.09883
G1 X38.065 Y116.653 E.10509
G1 X37.069 Y116.096 E.06339
G1 X36.816 Y115.865 E.01903
G1 X35.324 Y115.741 E.08317
G1 X31.561 Y114.363 E.22272
G1 X30.246 Y113.824 E.07899
G1 X29.446 Y113.443 E.04921
G1 X27.791 Y112.532 E.10501
G1 X27.234 Y112.288 E.03376
G1 X26.709 Y111.917 E.03576
G1 X25.695 Y111.295 E.06607
G1 X24.636 Y110.613 E.06998
G1 X23.482 Y109.798 E.07852
G1 X22.871 Y109.327 E.04289
G1 X22.045 Y108.632 E.05999
G1 X21.105 Y107.738 E.07206
G1 X20.445 Y107.021 E.05414
G1 X19.875 Y106.323 E.05009
G1 X19.353 Y105.599 E.04965
G1 X18.905 Y104.886 E.04675
G1 X18.493 Y104.121 E.04832
G1 X18.12 Y103.277 E.05128
G1 X17.833 Y102.41 E.05072
G1 X17.65 Y101.161 E.07016
G1 X17.682 Y100.371 E.04395
G1 X17.822 Y99.586 E.04432
G1 X18.106 Y98.692 E.05212
G1 X18.646 Y97.5 E.07268
G1 X19.135 Y96.622 E.05587
G1 X19.694 Y95.753 E.05744
G1 X20.349 Y94.88 E.06062
G1 X21.038 Y94.108 E.05749
G1 X21.811 Y93.402 E.05818
G1 X22.574 Y92.847 E.05246
G1 X23.362 Y92.391 E.05057
G1 X24.255 Y91.98 E.05465
G1 X25.185 Y91.634 E.05514
G1 X26.279 Y91.306 E.06346
G1 X26.98 Y91.136 E.04006
M204 S1000
G1 X27.059 Y91.46 F10800
M204 S800
G1 F1200
G1 X28.643 Y91.118 E.0901
G1 X30.022 Y90.902 E.07755
G1 X35.416 Y90.905 E.29973
G1 X35.746 Y90.875 E.01841
G1 X36.089 Y90.891 E.01908
G1 X36.851 Y90.876 E.04237
G1 X38.169 Y91.275 E.07653
G1 X39.526 Y90.902 E.07823
G1 X194.298 Y90.902 E8.60082
G1 X195.531 Y91.228 E.07089
M73 P1 R119
M73 Q1 S121
G1 X195.657 Y91.288 E.00775
G1 X196.811 Y90.924 E.06726
G1 X222.349 Y90.914 E1.41915
G1 X224.846 Y90.891 E.13876
G1 X226.281 Y90.702 E.08047
G1 X227.969 Y90.704 E.09377
G1 X229.144 Y90.868 E.06595
G1 X230.216 Y91.327 E.06481
G1 X231.054 Y92.043 E.06121
G1 X231.663 Y92.972 E.06174
G1 X232.028 Y94.25 E.07384
G1 X232.012 Y95.3 E.05836
G1 X231.642 Y96.456 E.06748
G1 X230.962 Y97.41 E.0651
G1 X229.899 Y98.218 E.07419
G1 X228.374 Y98.899 E.09284
G1 X227.608 Y99.184 E.0454
G1 X226.754 Y99.403 E.04899
G1 X224.915 Y100.127 E.10984
G1 X223.537 Y100.622 E.08139
G1 X221.931 Y101.125 E.09353
G1 X220.443 Y101.549 E.08595
G1 X216.93 Y102.461 E.20169
G1 X212.71 Y103.483 E.24128
G1 X208.026 Y104.577 E.26732
G1 X201.602 Y106.036 E.36608
G1 X196.524 Y107.151 E.28888
G1 X186.71 Y109.216 E.55734
G1 X185.477 Y109.162 E.06858
G1 X185.348 Y109.133 E.00738
G1 X184.111 Y109.773 E.0774
G1 X176.543 Y111.407 E.43024
G1 X173.735 Y111.945 E.15888
G1 X164.936 Y113.439 E.49599
G1 X143.48 Y116.975 E1.20839
G1 X141.441 Y117.248 E.1143
G1 X140.203 Y117.076 E.0695
G1 X140.098 Y117.143 E.00691
G1 X138.92 Y117.632 E.07089
G1 X132.909 Y118.434 E.33698
G1 X130.246 Y118.752 E.14906
G1 X126.905 Y119.098 E.18664
G1 X49.253 Y119.06 E4.31521
G1 X46.806 Y118.582 E.13856
G1 X45.034 Y118.204 E.10066
G1 X43.052 Y117.734 E.11318
G1 X41.672 Y117.375 E.07925
G1 X39.965 Y116.888 E.09863
G1 X38.18 Y116.339 E.10379
G1 X37.252 Y115.815 E.05922
G1 X36.923 Y115.507 E.02505
G1 X36.762 Y115.526 E.00903
G1 X35.417 Y115.42 E.07494
G1 X31.685 Y114.052 E.22091
G1 X30.377 Y113.516 E.07855
G1 X29.595 Y113.143 E.04816
G1 X27.937 Y112.231 E.10511
G1 X27.412 Y112.004 E.03177
G1 X26.892 Y111.637 E.03538
G1 X25.875 Y111.013 E.06636
G1 X24.826 Y110.338 E.06929
G1 X23.678 Y109.527 E.07813
G1 X23.078 Y109.064 E.0421
G1 X22.271 Y108.386 E.05855
G1 X21.34 Y107.5 E.07146
G1 X20.701 Y106.806 E.0524
G1 X20.143 Y106.124 E.04898
G1 X19.633 Y105.416 E.04848
G1 X19.197 Y104.723 E.04552
G1 X18.796 Y103.979 E.04694
G1 X18.434 Y103.164 E.04957
G1 X18.155 Y102.319 E.04943
G1 X17.983 Y101.129 E.06682
G1 X18.016 Y100.397 E.04075
G1 X18.144 Y99.676 E.04069
G1 X18.415 Y98.82 E.04987
G1 X18.941 Y97.657 E.07099
G1 X19.419 Y96.798 E.05459
G1 X19.972 Y95.939 E.05681
G1 X20.612 Y95.086 E.05922
G1 X21.281 Y94.337 E.05582
G1 X22.029 Y93.656 E.05624
G1 X22.763 Y93.123 E.05043
G1 X23.522 Y92.684 E.04869
G1 X24.389 Y92.286 E.05301
G1 X25.296 Y91.949 E.0538
G1 X26.371 Y91.628 E.06231
G1 X27 Y91.474 E.036
M204 S1000
G1 X27.079 Y91.799 F10800
M204 S800
G1 F1200
G1 X28.699 Y91.447 E.09214
G1 X30.035 Y91.236 E.07514
G1 X35.43 Y91.239 E.29983
G1 X35.763 Y91.209 E.01857
G1 X36.083 Y91.226 E.01778
G1 X36.83 Y91.21 E.04154
G1 X38.214 Y91.639 E.08053
G1 X38.364 Y91.565 E.00926
G1 X39.549 Y91.236 E.06837
G1 X194.276 Y91.236 E8.59831
G1 X195.421 Y91.544 E.06591
G1 X195.619 Y91.652 E.01254
G1 X196.838 Y91.258 E.07118
G1 X222.35 Y91.248 E1.41774
G1 X224.87 Y91.225 E.14
G1 X226.292 Y91.036 E.07976
G1 X227.957 Y91.038 E.09253
G1 X229.036 Y91.185 E.06047
G1 X230.019 Y91.599 E.0593
G1 X230.818 Y92.281 E.05836
G1 X231.368 Y93.132 E.05635
G1 X231.694 Y94.271 E.06583
G1 X231.686 Y95.224 E.05297
G1 X231.353 Y96.286 E.06182
G1 X230.738 Y97.161 E.05943
G1 X229.745 Y97.921 E.0695
G1 X228.251 Y98.588 E.0909
G1 X227.517 Y98.863 E.0436
G1 X226.651 Y99.084 E.04964
G1 X224.795 Y99.815 E.11087
G1 X223.427 Y100.307 E.08078
G1 X221.833 Y100.806 E.09282
G1 X220.353 Y101.227 E.08548
G1 X216.85 Y102.136 E.20114
G1 X212.632 Y103.158 E.24117
G1 X207.951 Y104.251 E.26712
G1 X201.53 Y105.71 E.36596
G1 X196.455 Y106.824 E.28872
G1 X186.663 Y108.885 E.55609
G1 X185.515 Y108.829 E.06382
G1 X185.256 Y108.759 E.01495
G1 X185.116 Y108.876 E.01012
G1 X184.018 Y109.451 E.06891
G1 X176.474 Y111.079 E.42886
G1 X173.674 Y111.617 E.15845
G1 X164.881 Y113.109 E.49562
G1 X143.428 Y116.645 E1.20823
G1 X141.42 Y116.913 E.1126
G1 X140.381 Y116.767 E.05827
G1 X140.165 Y116.686 E.01285
G1 X139.946 Y116.844 E.01504
G1 X138.853 Y117.304 E.06588
G1 X132.868 Y118.103 E.33553
G1 X130.21 Y118.42 E.14878
G1 X126.896 Y118.764 E.18512
G1 X49.301 Y118.729 E4.31205
G1 X46.871 Y118.254 E.13758
G1 X45.105 Y117.878 E.10032
G1 X43.131 Y117.409 E.11275
G1 X41.762 Y117.053 E.07863
G1 X40.059 Y116.567 E.09842
G1 X38.296 Y116.025 E.10247
G1 X37.436 Y115.536 E.05497
G1 X37.032 Y115.147 E.03118
G1 X36.762 Y115.191 E.01519
G1 X35.51 Y115.098 E.06979
G1 X31.808 Y113.742 E.21908
G1 X30.508 Y113.209 E.07811
G1 X29.743 Y112.844 E.0471
G1 X28.083 Y111.93 E.10528
G1 X27.59 Y111.721 E.02976
G1 X27.076 Y111.358 E.03495
G1 X26.054 Y110.731 E.06665
G1 X25.016 Y110.063 E.0686
G1 X23.873 Y109.256 E.07773
G1 X23.285 Y108.802 E.04131
G1 X22.498 Y108.141 E.05712
G1 X21.574 Y107.261 E.07087
G1 X20.957 Y106.591 E.05066
G1 X20.405 Y105.916 E.04842
G1 X19.913 Y105.234 E.04677
G1 X19.488 Y104.559 E.04429
G1 X19.099 Y103.838 E.04556
G1 X18.749 Y103.051 E.04785
G1 X18.477 Y102.228 E.04815
G1 X18.318 Y101.128 E.06179
G1 X18.347 Y100.444 E.03806
G1 X18.466 Y99.766 E.03824
G1 X18.723 Y98.949 E.0476
G1 X19.237 Y97.813 E.06928
G1 X19.703 Y96.974 E.0533
G1 X20.25 Y96.125 E.05617
G1 X20.874 Y95.293 E.05781
G1 X21.524 Y94.567 E.05415
G1 X22.247 Y93.909 E.05429
G1 X22.952 Y93.398 E.0484
G1 X23.682 Y92.978 E.04681
G1 X24.523 Y92.593 E.05138
G1 X25.408 Y92.264 E.05246
G1 X26.462 Y91.949 E.06116
G1 X27.021 Y91.813 E.03195
M204 S1000
G1 X27.1 Y92.138 F10800
M204 S800
G1 F1200
G1 X28.756 Y91.776 E.09422
G1 X30.048 Y91.57 E.07271
G1 X35.447 Y91.573 E.3
G1 X35.759 Y91.543 E.01742
G1 X36.078 Y91.56 E.01775
G1 X36.809 Y91.545 E.04066
G1 X38.252 Y92.002 E.08412
G1 X38.476 Y91.88 E.01415
G1 X39.572 Y91.57 E.06334
G1 X194.253 Y91.57 E8.59573
G1 X195.308 Y91.86 E.06081
G1 X195.62 Y92.043 E.0201
G1 X195.764 Y91.956 E.0093
G1 X196.866 Y91.592 E.06449
G1 X222.352 Y91.582 E1.4163
G1 X224.894 Y91.559 E.14125
G1 X226.303 Y91.37 E.07904
G1 X227.946 Y91.372 E.09131
G1 X228.929 Y91.502 E.0551
G1 X229.825 Y91.871 E.05382
G1 X230.551 Y92.484 E.05278
G1 X231.074 Y93.292 E.0535
G1 X231.365 Y94.337 E.06028
G1 X231.352 Y95.194 E.04762
G1 X231.044 Y96.158 E.05629
G1 X230.481 Y96.946 E.05375
G1 X229.591 Y97.624 E.06218
G1 X228.129 Y98.277 E.089
G1 X227.425 Y98.541 E.04179
G1 X226.548 Y98.765 E.05029
G1 X224.675 Y99.503 E.11189
G1 X223.324 Y99.989 E.07978
G1 X221.735 Y100.486 E.09251
G1 X220.264 Y100.905 E.08501
G1 X216.77 Y101.812 E.20059
G1 X212.554 Y102.833 E.24105
G1 X207.877 Y103.926 E.26692
G1 X201.457 Y105.384 E.36583
G1 X196.385 Y106.497 E.28856
G1 X186.616 Y108.553 E.55482
G1 X185.555 Y108.497 E.05902
G1 X185.163 Y108.382 E.02268
G1 X184.936 Y108.594 E.01727
G1 X183.925 Y109.13 E.06363
G1 X176.406 Y110.752 E.42745
G1 X173.613 Y111.288 E.15804
G1 X164.826 Y112.78 E.49525
G1 X143.376 Y116.315 E1.20807
G1 X141.399 Y116.579 E.11085
G1 X140.454 Y116.44 E.05311
G1 X140.115 Y116.3 E.02036
G1 X139.793 Y116.546 E.02252
G1 X138.786 Y116.975 E.06085
G1 X132.827 Y117.771 E.33406
G1 X130.174 Y118.088 E.14851
G1 X126.888 Y118.43 E.1836
G1 X49.349 Y118.398 E4.30889
G1 X46.937 Y117.926 E.13661
M73 P1 R118
M73 Q1 S120
G1 X45.177 Y117.551 E.09998
G1 X43.21 Y117.084 E.11233
G1 X41.852 Y116.731 E.07802
