; generated by PrusaSlicer 2.5.2+win64 on 2023-08-01 at 23:44:56 UTC


;
;
; 

; external perimeters extrusion width = 0.60mm
; perimeters extrusion width = 0.50mm
; infill extrusion width = 0.50mm
; solid infill extrusion width = 0.50mm
; top infill extrusion width = 0.45mm
; first layer extrusion width = 0.42mm

M73 P0 R99
M73 Q0 S100
M201 X1000 Y1000 Z200 E5000 ; sets maximum accelerations, mm/sec^2
M203 X200 Y200 Z12 E120 ; sets maximum feedrates, mm / sec
M204 P1250 R1250 T1250 ; sets acceleration (P, T) and retract acceleration (R), mm/sec^2
M205 X8.00 Y8.00 Z0.40 E4.50 ; sets the jerk limits, mm/sec
M205 S0 T0 ; sets the minimum extruding and travel feed rate, mm/sec
M107
;TYPE:Custom
M862.3 P "MK3" ; printer model check
M862.1 P0.4 ; nozzle diameter check
M115 U3.12.2 ; tell printer latest fw version
G90 ; use absolute coordinates
M83 ; extruder relative mode
M104 S215 ; set extruder temp
M140 S60 ; set bed temp
M190 S60 ; wait for bed temp
M109 S215 ; wait for extruder temp
G28 W ; home all without mesh bed level
G80 ; mesh bed leveling

G1 Z0.2 F720
G1 Y-3 F1000 ; go outside print area
G92 E0
G1 X60 E9 F1000 ; intro line
G1 X100 E12.5 F1000 ; intro line

G92 E0
M221 S95

; Don't change E values below. Excessive value can damage the printer.

M907 E538 ; set extruder motor current
G21 ; set units to millimeters
G90 ; use absolute coordinates
M83 ; use relative distances for extrusion
M900 K0.05 ; Filament gcode LA 1.5
M900 K30 ; Filament gcode LA 1.0
M107
;LAYER_CHANGE
;Z:0.2
;HEIGHT:0.2
;BEFORE_LAYER_CHANGE
G92 E0.0
;0.2


G1 E-.8 F2100
G1 Z.4 F720
;AFTER_LAYER_CHANGE
;0.2
G1 X86.911 Y51.407 F10800
G1 Z.2 F720
G1 E.8 F2100
M204 S800
;TYPE:Skirt/Brim
;WIDTH:0.42
G1 F1200
G1 X89.898 Y48.419 E.13247
G1 X91.579 Y47.723 E.05704
G1 X158.421 Y47.723 E2.09579
G1 X160.102 Y48.419 E.05704
G1 X163.089 Y51.407 E.13247
G1 X163.786 Y53.088 E.05704
G1 X163.786 Y156.912 E3.25536
G1 X163.089 Y158.593 E.05704
G1 X160.102 Y161.581 E.13247
G1 X158.421 Y162.277 E.05704
G1 X91.579 Y162.277 E2.09579
G1 X89.898 Y161.581 E.05704
G1 X86.911 Y158.593 E.13247
G1 X86.214 Y156.912 E.05704
G1 X86.214 Y53.088 E3.25536
G1 X86.888 Y51.462 E.05516
M204 S1000
;WIPE_START
M73 Q0 S99
G1 F8640
G1 X89.202 Y49.122 E-.76
;WIPE_END
G1 E-.04 F2100
G1 Z.6 F720
G1 X89.55 Y52.711 F10800
G1 Z.2 F720
G1 E.8 F2100
M204 S800
G1 F1200
G1 X90.344 Y51.736 E.03942
G1 X91.095 Y51.117 E.0305
G1 X93.227 Y50.386 E.07067
G1 X156.698 Y50.39 E1.99008
G1 X157.718 Y50.584 E.03256
M73 P0 R98
G1 X158.696 Y51 E.03333
G1 X159.821 Y51.896 E.04508
G1 X160.714 Y53.234 E.05044
G1 X161.122 Y54.779 E.05011
G1 X161.122 Y155.219 E3.14923
G1 X160.806 Y156.53 E.04229
G1 X160.447 Y157.295 E.0265
G1 X159.656 Y158.264 E.03921
G1 X158.905 Y158.883 E.0305
G1 X156.773 Y159.613 E.07066
G1 X93.272 Y159.613 E1.99102
G1 X91.961 Y159.297 E.04229
G1 X91.196 Y158.938 E.0265
G1 X90.228 Y158.147 E.03921
G1 X89.609 Y157.397 E.0305
G1 X88.878 Y155.265 E.07066
G1 X88.878 Y54.781 E3.15059
G1 X89.194 Y53.47 E.04229
G1 X89.525 Y52.765 E.02441
M204 S1000
G1 X89.865 Y52.927 F10800
M204 S800
G1 F1200
G1 X90.623 Y51.991 E.03776
G1 X91.307 Y51.431 E.02773
G1 X93.258 Y50.764 E.06464
G1 X156.679 Y50.767 E1.98853
G1 X157.626 Y50.95 E.03023
G1 X158.523 Y51.336 E.03062
G1 X159.562 Y52.171 E.0418
G1 X160.358 Y53.362 E.0449
G1 X160.745 Y54.804 E.04682
G1 X160.745 Y155.196 E3.14772
G1 X160.444 Y156.421 E.03955
G1 X160.117 Y157.112 E.02398
G1 X159.377 Y158.009 E.03646
G1 X158.693 Y158.569 E.02773
G1 X156.742 Y159.236 E.06464
G1 X93.296 Y159.236 E1.98932
G1 X92.07 Y158.936 E.03955
G1 X91.38 Y158.608 E.02398
G1 X90.482 Y157.868 E.03646
G1 X89.922 Y157.184 E.02773
G1 X89.255 Y155.234 E.06464
G1 X89.255 Y54.804 E3.14889
G1 X89.556 Y53.579 E.03955
M73 P1 R98
M73 Q1 S99
G1 X89.839 Y52.981 E.02076
M204 S1000
G1 X90.179 Y53.144 F10800
M204 S800
G1 F1200
G1 X90.213 Y53.073 E.00246
G1 X90.9 Y52.247 E.03371
G1 X91.519 Y51.745 E.02497
G1 X93.289 Y51.141 E.05865
G1 X156.661 Y51.144 E1.98698
G1 X157.532 Y51.316 E.02786
G1 X158.349 Y51.671 E.0279
G1 X159.301 Y52.445 E.03848
G1 X160.026 Y53.543 E.04126
G1 X160.368 Y54.828 E.0417
G1 X160.368 Y155.172 E3.14622
G1 X160.084 Y156.31 E.03677
G1 X159.787 Y156.927 E.02145
G1 X159.1 Y157.753 E.03371
G1 X158.481 Y158.255 E.02497
G1 X156.711 Y158.859 E.05865
G1 X93.319 Y158.859 E1.98761
G1 X92.181 Y158.575 E.03677
G1 X91.565 Y158.279 E.02145
G1 X90.738 Y157.591 E.03371
G1 X90.236 Y156.973 E.02497
G1 X89.632 Y155.203 E.05865
G1 X89.632 Y54.828 E3.14719
G1 X89.916 Y53.69 E.03677
G1 X90.153 Y53.198 E.01711
M204 S1000
G1 X90.491 Y53.363 F10800
M204 S800
G1 F1200
G1 X90.541 Y53.26 E.00358
G1 X91.177 Y52.504 E.03097
G1 X91.729 Y52.059 E.02223
G1 X93.32 Y51.518 E.05269
G1 X156.642 Y51.521 E1.98541
G1 X157.437 Y51.681 E.02545
G1 X158.172 Y52.005 E.02518
G1 X159.039 Y52.717 E.03516
G1 X159.693 Y53.723 E.03763
G1 X159.991 Y54.852 E.03663
G1 X159.991 Y155.148 E3.14471
M73 Q1 S98
G1 X159.723 Y156.197 E.03395
G1 X159.459 Y156.74 E.01892
G1 X158.823 Y157.496 E.03097
G1 X158.271 Y157.941 E.02223
G1 X156.68 Y158.482 E.05269
G1 X93.343 Y158.482 E1.98589
G1 X92.294 Y158.215 E.03395
M73 P1 R97
G1 X91.751 Y157.95 E.01892
G1 X90.995 Y157.315 E.03097
G1 X90.551 Y156.762 E.02223
G1 X90.009 Y155.172 E.05269
G1 X90.009 Y54.852 E3.14546
G1 X90.277 Y53.803 E.03395
G1 X90.465 Y53.416 E.01346
M204 S1000
G1 X90.802 Y53.583 F10800
M204 S800
G1 F1200
G1 X90.868 Y53.449 E.0047
G1 X91.451 Y52.763 E.02823
G1 X91.938 Y52.375 E.01952
G1 X93.351 Y51.895 E.04678
G1 X156.623 Y51.898 E1.98386
G1 X157.304 Y52.035 E.02178
G1 X157.996 Y52.339 E.02369
G1 X158.775 Y52.988 E.03181
G1 X159.337 Y53.85 E.03225
G1 X159.614 Y54.878 E.03337
G1 X159.614 Y155.124 E3.14315
G1 X159.364 Y156.083 E.03107
G1 X159.132 Y156.551 E.01639
G1 X158.549 Y157.237 E.02823
G1 X158.062 Y157.625 E.01952
G1 X156.649 Y158.105 E.04678
G1 X93.368 Y158.105 E1.98415
G1 X92.409 Y157.855 E.03107
G1 X91.94 Y157.623 E.01639
G1 X91.254 Y157.04 E.02823
G1 X90.866 Y156.553 E.01952
G1 X90.386 Y155.141 E.04678
G1 X90.386 Y54.876 E3.14372
G1 X90.636 Y53.917 E.03107
G1 X90.775 Y53.637 E.00981
M204 S1000
G1 X91.111 Y53.806 F10800
M204 S800
G1 F1200
G1 X91.194 Y53.64 E.00582
G1 X91.725 Y53.023 E.02551
G1 X92.146 Y52.691 E.01682
G1 X93.382 Y52.272 E.04091
G1 X156.603 Y52.276 E1.98227
G1 X157.207 Y52.4 E.01933
G1 X157.817 Y52.672 E.02093
G1 X158.51 Y53.257 E.02843
G1 X159.004 Y54.028 E.0287
G1 X159.237 Y54.902 E.02837
G1 X159.237 Y155.098 E3.14159
G1 X159.005 Y155.965 E.02814
M73 P2 R97
M73 Q2 S98
G1 X158.806 Y156.36 E.01386
G1 X158.275 Y156.977 E.02551
G1 X157.854 Y157.309 E.01682
G1 X156.618 Y157.728 E.04091
G1 X93.393 Y157.728 E1.98239
G1 X92.526 Y157.496 E.02814
G1 X92.131 Y157.298 E.01386
G1 X91.515 Y156.767 E.02551
G1 X91.182 Y156.346 E.01682
G1 X90.763 Y155.11 E.04091
G1 X90.763 Y54.902 E3.14196
G1 X90.995 Y54.035 E.02814
G1 X91.084 Y53.859 E.00616
M204 S1000
G1 X91.417 Y54.03 F10800
M204 S800
G1 F1200
G1 X91.518 Y53.834 E.00694
G1 X91.996 Y53.286 E.0228
G1 X92.352 Y53.008 E.01416
G1 X93.412 Y52.649 E.0351
G1 X156.583 Y52.653 E1.98067
G1 X157.108 Y52.764 E.01681
G1 X157.635 Y53.004 E.01817
G1 X158.243 Y53.525 E.0251
G1 X158.648 Y54.156 E.02351
G1 X158.86 Y54.928 E.0251
G1 X158.86 Y155.072 E3.13996
G1 X158.647 Y155.845 E.02513
G1 X158.482 Y156.166 E.01132
G1 X158.004 Y156.714 E.0228
G1 X157.648 Y156.992 E.01416
G1 X156.588 Y157.351 E.0351
G1 X93.419 Y157.351 E1.98061
G1 X92.646 Y157.138 E.02513
M73 Q2 S97
G1 X92.325 Y156.973 E.01132
G1 X91.777 Y156.495 E.0228
G1 X91.499 Y156.139 E.01416
G1 X91.14 Y155.079 E.0351
G1 X91.14 Y54.928 E3.14018
G1 X91.353 Y54.155 E.02513
G1 X91.39 Y54.084 E.0025
M204 S1000
G1 X91.721 Y54.258 F10800
M204 S800
G1 F1200
G1 X91.84 Y54.03 E.00806
G1 X92.266 Y53.55 E.02012
G1 X92.557 Y53.326 E.01151
G1 X93.443 Y53.026 E.02935
G1 X156.562 Y53.03 E1.97904
G1 X157.005 Y53.127 E.01424
M73 P2 R96
G1 X157.451 Y53.334 E.01541
G1 X157.974 Y53.791 E.02178
G1 X158.293 Y54.286 E.01847
G1 X158.483 Y54.955 E.02179
G1 X158.483 Y155.045 E3.13827
G1 X158.29 Y155.722 E.02204
G1 X158.16 Y155.97 E.00878
G1 X157.734 Y156.45 E.02012
G1 X157.443 Y156.674 E.01151
G1 X156.557 Y156.974 E.02934
G1 X93.446 Y156.974 E1.9788
G1 X92.77 Y156.782 E.02204
G1 X92.522 Y156.651 E.00878
G1 X92.041 Y156.226 E.02012
G1 X91.818 Y155.935 E.01151
G1 X91.517 Y155.048 E.02934
G1 X91.517 Y54.955 E3.13837
G1 X91.7 Y54.314 E.02089
M204 S1000
G1 X92.061 Y54.421 F10800
M204 S800
G1 F1200
G1 X92.16 Y54.231 E.0067
G1 X92.533 Y53.816 E.01749
G1 X92.759 Y53.645 E.00889
G1 X93.474 Y53.403 E.02367
G1 X156.539 Y53.407 E1.97737
G1 X156.899 Y53.49 E.01157
G1 X157.264 Y53.662 E.01266
G1 X157.704 Y54.054 E.01848
G1 X157.94 Y54.42 E.01362
G1 X158.105 Y54.983 E.01841
G1 X158.105 Y155.017 E3.13651
G1 X157.935 Y155.594 E.01885
G1 X157.84 Y155.769 E.00624
G1 X157.467 Y156.184 E.01749
G1 X157.241 Y156.355 E.00889
G1 X156.526 Y156.597 E.02367
G1 X93.474 Y156.597 E1.97694
G1 X92.898 Y156.426 E.01885
G1 X92.723 Y156.331 E.00624
G1 X92.308 Y155.959 E.01749
G1 X92.137 Y155.732 E.00889
G1 X91.895 Y155.017 E.02367
G1 X91.895 Y54.983 E3.13652
G1 X92.044 Y54.478 E.0165
M204 S1000
M73 P3 R96
M73 Q3 S97
G1 X92.403 Y54.589 F10800
M204 S800
G1 F1200
G1 X92.476 Y54.438 E.00529
G1 X92.798 Y54.085 E.01495
G1 X92.959 Y53.966 E.00628
G1 X93.505 Y53.78 E.0181
G1 X156.518 Y53.784 E1.97571
G1 X156.756 Y53.839 E.00767
G1 X157.076 Y53.991 E.01111
G1 X157.431 Y54.315 E.01508
G1 X157.588 Y54.557 E.00902
G1 X157.728 Y55.012 E.01495
G1 X157.728 Y154.988 E3.13465
G1 X157.582 Y155.46 E.0155
G1 X157.524 Y155.562 E.0037
G1 X157.202 Y155.915 E.01495
G1 X157.041 Y156.034 E.00628
G1 X156.495 Y156.22 E.0181
G1 X93.504 Y156.22 E1.97504
G1 X93.032 Y156.073 E.0155
G1 X92.929 Y156.015 E.0037
G1 X92.577 Y155.694 E.01495
G1 X92.458 Y155.533 E.00628
G1 X92.272 Y154.986 E.0181
G1 X92.272 Y55.012 E3.13461
G1 X92.385 Y54.647 E.012
M204 S1000
G1 X92.741 Y54.764 F10800
M204 S800
G1 F1200
G1 X92.786 Y54.652 E.00378
G1 X93.06 Y54.357 E.01261
G1 X93.155 Y54.289 E.00367
G1 X93.537 Y54.157 E.01267
G1 X156.496 Y54.161 E1.97402
G1 X156.613 Y54.188 E.00377
G1 X156.887 Y54.318 E.0095
G1 X157.155 Y54.573 E.0116
G1 X157.238 Y54.7 E.00476
G1 X157.351 Y55.044 E.01136
G1 X157.351 Y154.956 E3.13266
G1 X157.214 Y155.348 E.01303
M73 Q3 S96
G1 X156.94 Y155.643 E.01261
G1 X156.845 Y155.711 E.00367
G1 X156.463 Y155.843 E.01267
G1 X93.536 Y155.843 E1.97304
G1 X93.144 Y155.705 E.01303
M73 P3 R95
G1 X92.849 Y155.432 E.01261
G1 X92.781 Y155.337 E.00367
G1 X92.649 Y154.954 E.01267
G1 X92.649 Y55.044 E3.13262
G1 X92.722 Y54.821 E.00737
M204 S1000
G1 X93.073 Y54.947 F10800
M204 S800
G1 F1200
G1 X93.102 Y54.866 E.00268
G1 X93.319 Y54.632 E.01002
G1 X93.571 Y54.534 E.00845
G1 X156.444 Y54.534 E1.97134
G1 X156.694 Y54.644 E.00856
G1 X156.893 Y54.852 E.00902
G1 X156.974 Y55.079 E.00757
G1 X156.974 Y154.921 E3.13046
G1 X156.898 Y155.134 E.00709
G1 X156.657 Y155.384 E.0109
G1 X156.429 Y155.466 E.00757
G1 X93.571 Y155.466 E1.97089
G1 X93.358 Y155.389 E.00709
G1 X93.107 Y155.148 E.0109
G1 X93.026 Y154.921 E.00757
G1 X93.026 Y55.079 E3.13046
G1 X93.053 Y55.003 E.00253
M204 S1000
G1 X93.403 Y55.121 F10800
M204 S800
G1 F1200
G1 X93.432 Y55.052 E.00235
G1 X93.543 Y54.94 E.00495
G1 X93.613 Y54.911 E.00235
G1 X156.387 Y54.911 E1.96827
G1 X156.457 Y54.94 E.00235
G1 X156.568 Y55.052 E.00495
G1 X156.597 Y55.121 E.00235
G1 X156.597 Y154.879 E3.12784
G1 X156.568 Y154.948 E.00235
M73 P4 R95
G1 X156.457 Y155.06 E.00495
G1 X156.387 Y155.089 E.00235
G1 X93.613 Y155.089 E1.96827
G1 X93.543 Y155.06 E.00235
M73 Q4 S96
G1 X93.432 Y154.948 E.00495
G1 X93.403 Y154.879 E.00235
G1 X93.403 Y55.181 E3.12596
M204 S1000
; printing object Body3 id:0 copy 0
;WIPE_START
G1 F8640
G1 X93.432 Y55.052 E-.03058
G1 X93.543 Y54.94 E-.03645
G1 X93.613 Y54.911 E-.01732
G1 X96.539 Y54.911 E-.67565
;WIPE_END
G1 E-.04 F2100
G1 Z.6 F720
G1 X155.721 Y154.213 F10800
G1 Z.2 F720
G1 E.8 F2100
M204 S800
;TYPE:Perimeter
;WIDTH:0.419999
G1 F1200
G1 X94.279 Y154.213 E1.9265
G1 X94.279 Y55.787 E3.08607
G1 X155.721 Y55.787 E1.9265
G1 X155.721 Y154.153 E3.08419
M204 S1000
G1 X156.099 Y154.59 F10800
M204 S800
;TYPE:External perimeter
M73 Q4 S95
G1 F1200
G1 X93.901 Y154.59 E1.95014
G1 X93.901 Y55.41 E3.10971
G1 X156.099 Y55.41 E1.95014
M73 P4 R94
G1 X156.099 Y154.53 E3.10783
M204 S1000
G1 X155.721 Y154.458 F10800
;WIPE_START
G1 F8640
G1 X152.807 Y154.533 E-.76
;WIPE_END
G1 E-.04 F2100
G1 Z.6 F720
G1 X143.589 Y66.272 F10800
G1 Z.2 F720
G1 E.8 F2100
M204 S800
;TYPE:Perimeter
G1 F1200
G1 X143.124 Y66.227 E.01466
G1 X142.576 Y66.024 E.01832
G1 X142.073 Y65.667 E.01933
G1 X141.7 Y65.216 E.01836
G1 X141.455 Y64.685 E.01833
G1 X141.351 Y64.076 E.01935
G1 X141.406 Y63.492 E.0184
G1 X141.609 Y62.944 E.01834
G1 X141.965 Y62.44 E.01933
G1 X142.452 Y62.047 E.01961
G1 X142.987 Y61.809 E.01838
G1 X143.53 Y61.72 E.01726
G1 X144.17 Y61.782 E.02016
G1 X144.727 Y61.995 E.01867
G1 X145.198 Y62.335 E.01823
G1 X145.567 Y62.783 E.01822
G1 X145.812 Y63.315 E.01835
G1 X145.922 Y64.002 E.02181
G1 X145.861 Y64.508 E.01598
G1 X145.658 Y65.057 E.01836
G1 X145.301 Y65.561 E.01937
G1 X144.849 Y65.935 E.01838
G1 X144.317 Y66.179 E.01836
G1 X143.706 Y66.283 E.01943
G1 X143.649 Y66.278 E.00179
M204 S1000
G1 X143.627 Y65.909 F10800
M204 S800
;TYPE:External perimeter
G1 F1200
G1 X143.126 Y65.841 E.01586
G1 X142.675 Y65.65 E.01535
G1 X142.276 Y65.345 E.01576
G1 X141.974 Y64.944 E.01573
G1 X141.79 Y64.491 E.01535
G1 X141.723 Y63.992 E.01578
G1 X141.793 Y63.494 E.01576
G1 X141.983 Y63.043 E.01536
G1 X142.303 Y62.63 E.01639
G1 X142.721 Y62.324 E.01622
G1 X143.175 Y62.147 E.01531
G1 X143.628 Y62.093 E.01429
G1 X144.173 Y62.169 E.01725
G1 X144.621 Y62.366 E.01535
G1 X145.002 Y62.668 E.01523
G1 X145.293 Y63.055 E.01519
G1 X145.478 Y63.509 E.01537
G1 X145.545 Y64.002 E.01559
G1 X145.475 Y64.506 E.01595
G1 X145.284 Y64.958 E.01538
G1 X144.964 Y65.37 E.01635
G1 X144.577 Y65.66 E.01517
G1 X144.123 Y65.845 E.01538
G1 X143.687 Y65.902 E.01378
M204 S1000
G1 X143.426 Y66.255 F10800
;WIPE_START
G1 F8640
G1 X143.126 Y65.841 E-.13021
G1 X142.675 Y65.65 E-.11306
G1 X142.276 Y65.345 E-.11609
G1 X141.974 Y64.944 E-.1158
G1 X141.79 Y64.491 E-.11303
G1 X141.723 Y63.992 E-.11622
G1 X141.756 Y63.754 E-.0556
;WIPE_END
G1 E-.04 F2100
G1 Z.6 F720
G1 X138.193 Y88.919 F10800
G1 Z.2 F720
G1 E.8 F2100
M204 S800
;TYPE:Perimeter
G1 F1200
G1 X138.181 Y88.157 E.02387
G1 X138.346 Y87.345 E.02601
G1 X138.682 Y86.587 E.026
G1 X139.174 Y85.918 E.026
G1 X139.546 Y85.584 E.01569
G1 X139.898 Y85.303 E.01413
G1 X140.524 Y84.971 E.02219
G1 X141.319 Y84.737 E.026
G1 X142.118 Y84.68 E.02512
G1 X142.962 Y84.799 E.02673
G1 X143.742 Y85.094 E.02615
G1 X144.436 Y85.549 E.026
G1 X145.016 Y86.142 E.026
G1 X145.455 Y86.846 E.02601
G1 X145.732 Y87.627 E.026
G1 X145.835 Y88.45 E.02601
G1 X145.759 Y89.276 E.02601
G1 X145.506 Y90.066 E.02601
G1 X145.09 Y90.784 E.026
G1 X144.529 Y91.395 E.026
G1 X143.85 Y91.871 E.02601
G1 X143.085 Y92.19 E.026
G1 X142.269 Y92.337 E.026
G1 X141.44 Y92.306 E.02601
G1 X140.637 Y92.097 E.026
G1 X139.898 Y91.72 E.026
G1 X139.258 Y91.193 E.026
G1 X138.745 Y90.541 E.02601
G1 X138.385 Y89.794 E.02601
G1 X138.194 Y88.979 E.02626
M204 S1000
G1 X138.566 Y88.922 F10800
M204 S800
;TYPE:External perimeter
G1 F1200
G1 X138.558 Y88.157 E.02399
G1 X138.714 Y87.426 E.02346
G1 X139.025 Y86.745 E.02346
G1 X139.474 Y86.147 E.02346
G1 X140.041 Y85.659 E.02346
G1 X140.7 Y85.304 E.02346
G1 X141.42 Y85.1 E.02346
G1 X142.139 Y85.057 E.02257
G1 X142.904 Y85.172 E.02428
G1 X143.603 Y85.445 E.02351
G1 X144.225 Y85.861 E.02346
G1 X144.742 Y86.401 E.02346
G1 X145.132 Y87.04 E.02346
G1 X145.375 Y87.748 E.02346
G1 X145.461 Y88.511 E.0241
G1 X145.384 Y89.235 E.02283
G1 X145.149 Y89.946 E.02346
G1 X144.767 Y90.589 E.02346
G1 X144.256 Y91.135 E.02346
G1 X143.639 Y91.559 E.02346
G1 X142.945 Y91.84 E.02346
G1 X142.208 Y91.965 E.02346
G1 X141.46 Y91.929 E.02346
G1 X140.738 Y91.733 E.02346
G1 X140.075 Y91.387 E.02346
G1 X139.502 Y90.906 E.02346
G1 X139.046 Y90.313 E.02347
G1 X138.727 Y89.635 E.02346
G1 X138.579 Y88.981 E.02104
M204 S1000
G1 X138.199 Y88.765 F10800
;WIPE_START
G1 F8640
G1 X138.558 Y88.157 E-.19021
