; generated by PrusaSlicer 2.5.2+win64 on 2023-08-02 at 20:55:00 UTC


;
;
; 

; external perimeters extrusion width = 0.60mm
; perimeters extrusion width = 0.50mm
; infill extrusion width = 0.50mm
; solid infill extrusion width = 0.50mm
; top infill extrusion width = 0.45mm
; first layer extrusion width = 0.42mm

M73 P0 R92
M73 Q0 S93
M201 X1000 Y1000 Z200 E5000 ; sets maximum accelerations, mm/sec^2
M203 X200 Y200 Z12 E120 ; sets maximum feedrates, mm / sec
M204 P1250 R1250 T1250 ; sets acceleration (P, T) and retract acceleration (R), mm/sec^2
M205 X8.00 Y8.00 Z0.40 E4.50 ; sets the jerk limits, mm/sec
M205 S0 T0 ; sets the minimum extruding and travel feed rate, mm/sec
M107
;TYPE:Custom
M862.3 P "MK3" ; printer model check
M862.1 P0.4 ; nozzle diameter check
M115 U3.12.2 ; tell printer latest fw version
G90 ; use absolute coordinates
M83 ; extruder relative mode
M104 S215 ; set extruder temp
M140 S60 ; set bed temp
M190 S60 ; wait for bed temp
M109 S215 ; wait for extruder temp
G28 W ; home all without mesh bed level
G80 ; mesh bed leveling

G1 Z0.2 F720
G1 Y-3 F1000 ; go outside print area
G92 E0
G1 X60 E9 F1000 ; intro line
G1 X100 E12.5 F1000 ; intro line

G92 E0
M221 S95

; Don't change E values below. Excessive value can damage the printer.

M907 E538 ; set extruder motor current
G21 ; set units to millimeters
G90 ; use absolute coordinates
M83 ; use relative distances for extrusion
M900 K0.05 ; Filament gcode LA 1.5
M900 K30 ; Filament gcode LA 1.0
M107
;LAYER_CHANGE
;Z:0.2
;HEIGHT:0.2
;BEFORE_LAYER_CHANGE
G92 E0.0
;0.2


G1 E-.8 F2100
M73 Q0 S92
G1 Z.4 F720
;AFTER_LAYER_CHANGE
;0.2
G1 X91.672 Y42.606 F10800
G1 Z.2 F720
G1 E.8 F2100
M204 S800
;TYPE:Skirt/Brim
;WIDTH:0.42
G1 F1200
G1 X94.659 Y39.618 E.13247
G1 X96.34 Y38.922 E.05704
G1 X159.682 Y38.922 E1.98606
G1 X161.363 Y39.618 E.05704
G1 X164.351 Y42.606 E.13247
G1 X165.047 Y44.286 E.05704
G1 X165.047 Y148.111 E3.25536
G1 X164.351 Y149.792 E.05704
G1 X161.363 Y152.78 E.13247
G1 X159.682 Y153.476 E.05704
G1 X96.34 Y153.476 E1.98606
G1 X94.659 Y152.78 E.05704
G1 X91.672 Y149.792 E.13247
G1 X90.975 Y148.111 E.05704
M73 P0 R91
G1 X90.975 Y44.286 E3.25536
G1 X91.649 Y42.661 E.05516
M204 S1000
;WIPE_START
G1 F8640
G1 X93.963 Y40.321 E-.76
;WIPE_END
G1 E-.04 F2100
G1 Z.6 F720
G1 X94.264 Y43.98 F10800
G1 Z.2 F720
G1 E.8 F2100
M204 S800
G1 F1200
G1 X94.772 Y43.295 E.02674
G1 X95.802 Y42.358 E.04366
G1 X96.722 Y41.9 E.03223
G1 X98.035 Y41.585 E.04232
G1 X157.959 Y41.589 E1.87889
G1 X158.979 Y41.783 E.03256
G1 X159.958 Y42.199 E.03333
G1 X161.082 Y43.094 E.04508
G1 X161.975 Y44.433 E.05044
G1 X162.383 Y45.978 E.05011
G1 X162.383 Y146.446 E3.15011
G1 X161.759 Y148.418 E.06486
G1 X161.251 Y149.103 E.02674
G1 X160.22 Y150.04 E.04366
G1 X159.3 Y150.498 E.03223
G1 X157.988 Y150.812 E.04231
G1 X98.005 Y150.812 E1.88071
G1 X96.033 Y150.188 E.06486
G1 X95.348 Y149.68 E.02674
G1 X94.412 Y148.649 E.04366
G1 X93.954 Y147.729 E.03223
G1 X93.639 Y146.417 E.04231
G1 X93.639 Y45.952 E3.15001
G1 X94.246 Y44.037 E.06298
M204 S1000
G1 X94.586 Y44.178 F10800
M204 S800
G1 F1200
G1 X95.041 Y43.56 E.02407
G1 X95.996 Y42.683 E.04065
G1 X96.833 Y42.261 E.0294
G1 X98.058 Y41.963 E.03951
G1 X157.941 Y41.966 E1.8776
G1 X158.887 Y42.149 E.03023
G1 X159.785 Y42.535 E.03062
G1 X160.823 Y43.37 E.0418
G1 X161.619 Y44.561 E.0449
G1 X162.006 Y46.003 E.04682
G1 X162.006 Y146.417 E3.14842
G1 X161.436 Y148.22 E.05929
G1 X160.981 Y148.838 E.02407
G1 X160.026 Y149.715 E.04065
G1 X159.189 Y150.137 E.0294
G1 X157.965 Y150.435 E.03951
G1 X98.034 Y150.435 E1.87908
G1 X96.231 Y149.865 E.05929
G1 X95.613 Y149.41 E.02407
G1 X94.736 Y148.455 E.04065
G1 X94.315 Y147.618 E.0294
G1 X94.016 Y146.394 E.03951
G1 X94.016 Y45.981 E3.14838
G1 X94.568 Y44.235 E.05741
M204 S1000
M73 P1 R91
M73 Q1 S92
G1 X94.909 Y44.375 F10800
M204 S800
G1 F1200
G1 X95.311 Y43.823 E.02142
G1 X96.191 Y43.006 E.03764
G1 X96.946 Y42.622 E.02656
G1 X98.081 Y42.34 E.03667
G1 X157.922 Y42.343 E1.87628
G1 X158.794 Y42.515 E.02786
G1 X159.61 Y42.87 E.0279
G1 X160.563 Y43.644 E.03848
G1 X161.287 Y44.742 E.04126
G1 X161.629 Y46.027 E.0417
G1 X161.629 Y146.388 E3.14675
G1 X161.114 Y148.023 E.05375
M73 Q1 S91
G1 X160.711 Y148.575 E.02142
G1 X159.831 Y149.392 E.03764
G1 X159.076 Y149.776 E.02656
G1 X157.941 Y150.058 E.03667
G1 X98.063 Y150.058 E1.87745
G1 X96.428 Y149.543 E.05375
G1 X95.876 Y149.14 E.02142
G1 X95.06 Y148.26 E.03764
G1 X94.675 Y147.505 E.02656
G1 X94.393 Y146.37 E.03667
G1 X94.393 Y46.01 E3.14674
G1 X94.891 Y44.432 E.05187
M204 S1000
G1 X95.232 Y44.571 F10800
M204 S800
G1 F1200
G1 X95.583 Y44.085 E.01879
G1 X96.388 Y43.329 E.03463
G1 X97.06 Y42.982 E.02372
G1 X98.105 Y42.717 E.03379
G1 X157.903 Y42.72 E1.87493
G1 X158.699 Y42.88 E.02545
M73 P1 R90
G1 X159.434 Y43.204 E.02518
G1 X160.3 Y43.916 E.03516
G1 X160.955 Y44.922 E.03763
G1 X161.252 Y46.051 E.03663
G1 X161.252 Y146.36 E3.1451
G1 X160.79 Y147.827 E.04825
G1 X160.439 Y148.313 E.01879
G1 X159.634 Y149.069 E.03463
G1 X158.962 Y149.416 E.02372
G1 X157.918 Y149.681 E.03378
G1 X98.092 Y149.681 E1.87579
G1 X96.624 Y149.219 E.04825
G1 X96.138 Y148.868 E.01879
G1 X95.382 Y148.063 E.03463
G1 X95.035 Y147.391 E.02372
G1 X94.77 Y146.347 E.03378
G1 X94.77 Y46.038 E3.14509
G1 X95.214 Y44.628 E.04637
M204 S1000
G1 X95.557 Y44.765 F10800
M204 S800
G1 F1200
G1 X95.857 Y44.345 E.01619
G1 X96.588 Y43.65 E.03162
G1 X97.177 Y43.341 E.02087
G1 X98.129 Y43.094 E.03085
G1 X157.884 Y43.097 E1.87358
G1 X158.566 Y43.234 E.02178
G1 X159.257 Y43.538 E.02369
G1 X160.037 Y44.187 E.03181
G1 X160.599 Y45.049 E.03225
G1 X160.875 Y46.077 E.03337
G1 X160.875 Y146.331 E3.1434
G1 X160.466 Y147.633 E.0428
G1 X160.166 Y148.053 E.01619
G1 X159.435 Y148.748 E.03162
G1 X158.845 Y149.057 E.02087
G1 X157.893 Y149.304 E.03084
G1 X98.121 Y149.304 E1.87413
G1 X96.818 Y148.895 E.0428
G1 X96.398 Y148.595 E.01619
G1 X95.703 Y147.864 E.03162
G1 X95.394 Y147.274 E.02087
G1 X95.147 Y146.322 E.03084
G1 X95.147 Y46.067 E3.14342
G1 X95.539 Y44.822 E.04092
M204 S1000
M73 P2 R90
G1 X95.882 Y44.958 F10800
M204 S800
G1 F1200
G1 X96.132 Y44.603 E.01361
G1 X96.789 Y43.97 E.02862
G1 X97.296 Y43.699 E.01801
G1 X98.155 Y43.471 E.02785
G1 X157.865 Y43.475 E1.87217
M73 Q2 S91
G1 X158.469 Y43.599 E.01933
G1 X159.078 Y43.871 E.02093
G1 X159.771 Y44.456 E.02843
G1 X160.265 Y45.227 E.0287
G1 X160.498 Y46.101 E.02837
G1 X160.498 Y146.302 E3.14173
G1 X160.14 Y147.44 E.03741
G1 X159.89 Y147.795 E.01361
G1 X159.233 Y148.428 E.02862
G1 X158.726 Y148.699 E.01801
G1 X157.868 Y148.927 E.02785
G1 X98.149 Y148.927 E1.87244
G1 X97.011 Y148.569 E.03741
G1 X96.656 Y148.319 E.01361
G1 X96.023 Y147.662 E.02862
G1 X95.753 Y147.155 E.01801
G1 X95.524 Y146.297 E.02785
G1 X95.524 Y46.096 E3.14173
G1 X95.864 Y45.015 E.03552
M204 S1000
M73 Q2 S90
G1 X96.208 Y45.149 F10800
M204 S800
G1 F1200
G1 X96.41 Y44.859 E.01106
G1 X96.994 Y44.287 E.02562
G1 X97.418 Y44.057 E.01515
G1 X98.18 Y43.848 E.02478
G1 X157.844 Y43.852 E1.87072
G1 X158.369 Y43.963 E.01681
G1 X158.897 Y44.203 E.01817
G1 X159.504 Y44.724 E.0251
G1 X159.909 Y45.355 E.02351
G1 X160.121 Y46.127 E.0251
G1 X160.121 Y146.273 E3.14002
G1 X159.814 Y147.249 E.03208
G1 X159.613 Y147.539 E.01106
G1 X159.029 Y148.111 E.02562
G1 X158.604 Y148.341 E.01515
G1 X157.842 Y148.55 E.02478
G1 X98.178 Y148.55 E1.87072
G1 X97.202 Y148.243 E.03208
G1 X96.912 Y148.042 E.01106
G1 X96.341 Y147.458 E.02562
M73 P2 R89
G1 X96.11 Y147.033 E.01515
G1 X95.901 Y146.271 E.02478
G1 X95.901 Y46.125 E3.14002
G1 X96.19 Y45.206 E.03019
M204 S1000
G1 X96.536 Y45.338 F10800
M204 S800
G1 F1200
G1 X96.689 Y45.112 E.00855
G1 X97.201 Y44.603 E.02264
G1 X97.543 Y44.413 E.01229
G1 X98.207 Y44.225 E.02163
G1 X157.823 Y44.229 E1.86922
G1 X158.267 Y44.326 E.01424
G1 X158.713 Y44.533 E.01541
G1 X159.236 Y44.99 E.02178
G1 X159.555 Y45.485 E.01847
G1 X159.744 Y46.154 E.02179
G1 X159.744 Y146.244 E3.13827
G1 X159.487 Y147.06 E.02682
G1 X159.333 Y147.285 E.00855
G1 X158.821 Y147.795 E.02264
G1 X158.479 Y147.985 E.01229
G1 X157.815 Y148.173 E.02163
G1 X98.207 Y148.173 E1.86897
G1 X97.391 Y147.916 E.02682
G1 X97.166 Y147.762 E.00855
G1 X96.657 Y147.25 E.02264
G1 X96.466 Y146.908 E.01229
G1 X96.278 Y146.244 E.02163
G1 X96.278 Y46.154 E3.13827
G1 X96.518 Y45.395 E.02494
M204 S1000
G1 X96.864 Y45.524 F10800
M204 S800
G1 F1200
G1 X96.971 Y45.363 E.00606
G1 X97.412 Y44.917 E.01967
G1 X97.673 Y44.768 E.00942
G1 X98.235 Y44.602 E.01838
G1 X157.801 Y44.606 E1.86764
G1 X158.16 Y44.689 E.01157
G1 X158.526 Y44.861 E.01266
G1 X158.966 Y45.253 E.01848
G1 X159.201 Y45.619 E.01362
G1 X159.367 Y46.182 E.01841
G1 X159.367 Y146.215 E3.13648
G1 X159.158 Y146.874 E.02167
M73 P3 R89
M73 Q3 S90
G1 X159.051 Y147.035 E.00606
G1 X158.61 Y147.481 E.01967
G1 X158.349 Y147.63 E.00942
G1 X157.787 Y147.796 E.01838
G1 X98.236 Y147.796 E1.86718
G1 X97.577 Y147.587 E.02167
G1 X97.417 Y147.48 E.00606
G1 X96.97 Y147.039 E.01967
G1 X96.821 Y146.778 E.00942
G1 X96.656 Y146.216 E.01838
G1 X96.656 Y46.183 E3.13648
G1 X96.846 Y45.581 E.01979
M204 S1000
G1 X97.195 Y45.706 F10800
M204 S800
G1 F1200
G1 X97.257 Y45.61 E.00358
G1 X97.628 Y45.227 E.01672
G1 X97.808 Y45.12 E.00656
G1 X98.265 Y44.979 E.015
G1 X157.779 Y44.983 E1.86603
G1 X158.017 Y45.038 E.00767
G1 X158.338 Y45.19 E.01111
G1 X158.693 Y45.514 E.01508
G1 X158.849 Y45.756 E.00902
G1 X158.99 Y46.211 E.01495
G1 X158.99 Y146.186 E3.13462
G1 X158.827 Y146.692 E.01667
M73 Q3 S89
G1 X158.766 Y146.788 E.00358
G1 X158.395 Y147.171 E.01672
G1 X158.215 Y147.278 E.00656
G1 X157.758 Y147.419 E.015
G1 X98.266 Y147.419 E1.86533
G1 X97.76 Y147.256 E.01667
G1 X97.664 Y147.195 E.00358
G1 X97.28 Y146.824 E.01672
G1 X97.174 Y146.644 E.00656
G1 X97.033 Y146.187 E.015
G1 X97.033 Y46.212 E3.13462
G1 X97.177 Y45.763 E.01478
M204 S1000
G1 X97.529 Y45.882 F10800
M204 S800
G1 F1200
G1 X97.849 Y45.533 E.01486
G1 X97.95 Y45.47 E.00372
G1 X98.296 Y45.356 E.01143
G1 X157.757 Y45.36 E1.86434
G1 X157.874 Y45.387 E.00377
G1 X158.148 Y45.517 E.0095
G1 X158.417 Y45.772 E.0116
G1 X158.5 Y45.899 E.00476
G1 X158.613 Y46.243 E.01136
G1 X158.613 Y146.155 E3.13266
G1 X158.476 Y146.546 E.01299
M73 P3 R88
G1 X158.173 Y146.865 E.0138
G1 X158.072 Y146.928 E.00372
G1 X157.726 Y147.042 E.01143
G1 X98.297 Y147.042 E1.86336
G1 X97.905 Y146.905 E.01299
G1 X97.586 Y146.602 E.0138
G1 X97.523 Y146.501 E.00372
G1 X97.41 Y146.155 E.01143
G1 X97.41 Y46.243 E3.13266
G1 X97.51 Y45.939 E.01005
M204 S1000
G1 X97.863 Y46.065 F10800
M204 S800
G1 F1200
G1 X98.08 Y45.831 E.01002
G1 X98.332 Y45.733 E.00845
G1 X157.705 Y45.733 E1.86161
G1 X157.955 Y45.843 E.00856
G1 X158.154 Y46.051 E.00902
G1 X158.236 Y46.278 E.00757
G1 X158.236 Y146.12 E3.13046
G1 X158.159 Y146.333 E.00709
G1 X157.918 Y146.583 E.0109
G1 X157.691 Y146.665 E.00757
G1 X98.332 Y146.665 E1.86117
G1 X98.119 Y146.588 E.00709
M73 P4 R88
G1 X97.868 Y146.347 E.0109
G1 X97.787 Y146.12 E.00757
G1 X97.787 Y46.278 E3.13046
G1 X97.843 Y46.122 E.00521
M204 S1000
M73 Q4 S89
G1 X98.187 Y46.264 F10800
M204 S800
G1 F1200
G1 X98.304 Y46.139 E.00538
G1 X98.373 Y46.11 E.00235
G1 X157.649 Y46.11 E1.85854
G1 X157.718 Y46.139 E.00235
G1 X157.83 Y46.251 E.00495
G1 X157.859 Y46.32 E.00235
G1 X157.859 Y146.078 E3.12784
G1 X157.83 Y146.147 E.00235
G1 X157.718 Y146.259 E.00495
G1 X157.649 Y146.288 E.00235
G1 X98.373 Y146.288 E1.85854
G1 X98.304 Y146.259 E.00235
G1 X98.193 Y146.147 E.00495
G1 X98.164 Y146.078 E.00235
G1 X98.164 Y46.32 E3.12785
M204 S1000
; printing object Body9 id:0 copy 0
;WIPE_START
G1 F8640
G1 X98.304 Y46.139 E-.05278
G1 X98.373 Y46.11 E-.01732
G1 X101.361 Y46.11 E-.68991
;WIPE_END
G1 E-.04 F2100
G1 Z.6 F720
G1 X156.983 Y145.412 F10800
G1 Z.2 F720
G1 E.8 F2100
M204 S800
;TYPE:Perimeter
;WIDTH:0.419999
G1 F1200
G1 X99.039 Y145.412 E1.81677
G1 X99.039 Y46.986 E3.08607
M73 Q4 S88
G1 X156.983 Y46.986 E1.81677
G1 X156.983 Y145.352 E3.08419
M204 S1000
G1 X157.36 Y145.789 F10800
M204 S800
;TYPE:External perimeter
G1 F1200
G1 X98.662 Y145.789 E1.84042
G1 X98.662 Y46.609 E3.10971
M73 P4 R87
G1 X157.36 Y46.609 E1.84042
G1 X157.36 Y145.729 E3.10783
M204 S1000
G1 X156.984 Y145.654 F10800
;WIPE_START
G1 F8640
G1 X154.069 Y145.732 E-.76
;WIPE_END
G1 E-.04 F2100
G1 Z.6 F720
G1 X146.839 Y51.907 F10800
G1 Z.2 F720
G1 E.8 F2100
M204 S800
;TYPE:Perimeter
G1 F1200
G1 X147.337 Y51.95 E.01566
G1 X147.905 Y52.161 E.01903
G1 X148.39 Y52.509 E.01871
G1 X148.769 Y52.97 E.0187
G1 X149.015 Y53.514 E.01871
G1 X149.116 Y54.176 E.02102
G1 X149.053 Y54.696 E.01642
G1 X148.842 Y55.254 E.01871
G1 X148.495 Y55.739 E.01871
G1 X148.033 Y56.118 E.01871
G1 X147.49 Y56.364 E.01871
G1 X146.901 Y56.46 E.01871
G1 X146.307 Y56.402 E.0187
G1 X145.749 Y56.191 E.01871
G1 X145.264 Y55.844 E.01871
G1 X144.886 Y55.382 E.01871
G1 X144.64 Y54.839 E.01871
G1 X144.543 Y54.25 E.01871
G1 X144.602 Y53.656 E.0187
G1 X144.812 Y53.098 E.01871
G1 X145.16 Y52.613 E.01871
G1 X145.621 Y52.235 E.01871
G1 X146.165 Y51.989 E.01871
G1 X146.719 Y51.897 E.01763
M73 P5 R87
G1 X146.779 Y51.902 E.00188
M204 S1000
G1 X146.839 Y52.273 F10800
M204 S800
;TYPE:External perimeter
G1 F1200
G1 X147.345 Y52.337 E.01601
G1 X147.804 Y52.534 E.01564
G1 X148.195 Y52.843 E.01564
G1 X148.494 Y53.242 E.01564
G1 X148.679 Y53.706 E.01564
G1 X148.739 Y54.176 E.01488
G1 X148.666 Y54.695 E.01641
G1 X148.469 Y55.153 E.01564
G1 X148.161 Y55.545 E.01564
G1 X147.761 Y55.843 E.01564
G1 X147.298 Y56.028 E.01564
G1 X146.803 Y56.087 E.01564
G1 X146.309 Y56.015 E.01564
G1 X145.851 Y55.818 E.01564
G1 X145.459 Y55.51 E.01564
G1 X145.161 Y55.11 E.01564
G1 X144.976 Y54.647 E.01564
G1 X144.917 Y54.152 E.01564
G1 X144.988 Y53.658 E.01564
G1 X145.185 Y53.2 E.01564
G1 X145.494 Y52.808 E.01564
G1 X145.893 Y52.51 E.01564
G1 X146.357 Y52.325 E.01564
G1 X146.779 Y52.274 E.01334
M204 S1000
G1 X147.039 Y51.927 F10800
;WIPE_START
G1 F8640
G1 X147.345 Y52.337 E-.13156
G1 X147.804 Y52.534 E-.11521
G1 X148.195 Y52.843 E-.11516
G1 X148.494 Y53.242 E-.11516
G1 X148.679 Y53.706 E-.11516
G1 X148.739 Y54.176 E-.10956
G1 X148.704 Y54.426 E-.0582
;WIPE_END
G1 E-.04 F2100
G1 Z.6 F720
G1 X143.599 Y75.129 F10800
G1 Z.2 F720
G1 E.8 F2100
M204 S800
;TYPE:Perimeter
G1 F1200
G1 X144.33 Y74.913 E.02392
G1 X145.129 Y74.856 E.02512
G1 X145.974 Y74.975 E.02673
G1 X146.807 Y75.295 E.02801
G1 X147.447 Y75.725 E.02417
M73 Q5 S88
G1 X148.027 Y76.318 E.026
G1 X148.466 Y77.022 E.02601
G1 X148.743 Y77.804 E.026
G1 X148.846 Y78.626 E.026
G1 X148.77 Y79.452 E.02601
G1 X148.517 Y80.242 E.02601
G1 X148.101 Y80.96 E.026
G1 X147.541 Y81.571 E.026
G1 X146.862 Y82.047 E.02601
G1 X146.096 Y82.367 E.026
G1 X145.28 Y82.514 E.02601
G1 X144.475 Y82.483 E.02525
G1 X143.648 Y82.273 E.02675
G1 X142.91 Y81.896 E.02601
G1 X142.269 Y81.369 E.026
G1 X141.757 Y80.717 E.02601
G1 X141.396 Y79.97 E.02601
G1 X141.205 Y79.163 E.026
G1 X141.192 Y78.334 E.026
G1 X141.357 Y77.521 E.02601
G1 X141.694 Y76.763 E.02601
G1 X142.185 Y76.095 E.026
G1 X142.732 Y75.613 E.02287
G1 X142.91 Y75.479 E.00696
G1 X143.541 Y75.146 E.02239
M204 S1000
G1 X143.695 Y75.49 F10800
M204 S800
;TYPE:External perimeter
G1 F1200
G1 X144.431 Y75.276 E.02404
G1 X145.15 Y75.233 E.02257
G1 X145.916 Y75.348 E.02428
G1 X146.632 Y75.629 E.02413
G1 X147.236 Y76.037 E.02285
G1 X147.753 Y76.577 E.02346
G1 X148.143 Y77.216 E.02346
G1 X148.386 Y77.924 E.02346
G1 X148.471 Y78.667 E.02346
G1 X148.395 Y79.412 E.02346
G1 X148.16 Y80.122 E.02346
G1 X147.778 Y80.765 E.02346
G1 X147.267 Y81.312 E.02346
G1 X146.65 Y81.735 E.02346
G1 X145.957 Y82.016 E.02346
G1 X145.219 Y82.142 E.02346
G1 X144.496 Y82.107 E.0227
G1 X143.749 Y81.91 E.0242
G1 X143.086 Y81.563 E.02346
G1 X142.513 Y81.082 E.02346
G1 X142.057 Y80.489 E.02346
G1 X141.739 Y79.812 E.02346
G1 X141.573 Y79.082 E.02346
G1 X141.569 Y78.334 E.02346
G1 X141.726 Y77.602 E.02346
G1 X142.036 Y76.921 E.02346
G1 X142.485 Y76.323 E.02346
G1 X142.976 Y75.9 E.02032
G1 X143.643 Y75.52 E.02406
M204 S1000
G1 X143.748 Y75.094 F10800
;WIPE_START
G1 F8640
G1 X144.431 Y75.276 E-.19057
G1 X145.15 Y75.233 E-.16622
G1 X145.916 Y75.348 E-.1788
G1 X146.632 Y75.629 E-.1777
G1 X146.8 Y75.742 E-.0467
;WIPE_END
G1 E-.04 F2100
G1 Z.6 F720
G1 X143.6 Y109.128 F10800
G1 Z.2 F720
G1 E.8 F2100
M204 S800
;TYPE:Perimeter
G1 F1200
