; generated by PrusaSlicer 2.5.2+win64 on 2023-05-17 at 00:32:51 UTC

; 

; external perimeters extrusion width = 0.45mm
; perimeters extrusion width = 0.45mm
; infill extrusion width = 0.45mm
; solid infill extrusion width = 0.45mm
; top infill extrusion width = 0.40mm
; support material extrusion width = 0.35mm
; first layer extrusion width = 0.42mm

M73 P0 R169
M73 Q0 S170
M201 X1000 Y1000 Z200 E5000 ; sets maximum accelerations, mm/sec^2
M203 X200 Y200 Z12 E120 ; sets maximum feedrates, mm / sec
M204 P1250 R1250 T1250 ; sets acceleration (P, T) and retract acceleration (R), mm/sec^2
M205 X8.00 Y8.00 Z0.40 E4.50 ; sets the jerk limits, mm/sec
M205 S0 T0 ; sets the minimum extruding and travel feed rate, mm/sec
M107
;TYPE:Custom
M862.3 P "MK3" ; printer model check
M862.1 P0.4 ; nozzle diameter check
M115 U3.10.1 ; tell printer latest fw version
G90 ; use absolute coordinates
M83 ; extruder relative mode
M104 S215 ; set extruder temp
M140 S60 ; set bed temp
M190 S60 ; wait for bed temp
M109 S215 ; wait for extruder temp
G28 W ; home all without mesh bed level
G80 ; mesh bed leveling
G1 Z0.2 F720
G1 Y-3 F1000 ; go outside print area
G92 E0
G1 X60 E9 F1000 ; intro line
G1 X100 E12.5 F1000 ; intro line
G92 E0
M221 S95

; Don't change E values below. Excessive value can damage the printer.
M907 E430 ; set extruder motor current
G21 ; set units to millimeters
G90 ; use absolute coordinates
M83 ; use relative distances for extrusion
M900 K0.05 ; Filament gcode LA 1.5
M900 K30 ; Filament gcode LA 1.0
M107
;LAYER_CHANGE
;Z:0.2
;HEIGHT:0.2
;BEFORE_LAYER_CHANGE
G92 E0.0
;0.2


G1 E-.8 F2100
G1 Z.4 F720
;AFTER_LAYER_CHANGE
;0.2
G1 X109.04 Y71.935 F10800
G1 Z.2 F720
G1 E.8 F2100
M204 S800
;TYPE:Skirt/Brim
;WIDTH:0.42
G1 F1200
G1 X109.151 Y71.825 E.0049
G1 X110.378 Y71.172 E.0436
G1 X123.153 Y68.736 E.40776
G1 X141.907 Y68.78 E.58802
G1 X154.24 Y71.172 E.39391
G1 X155.579 Y71.935 E.04832
G1 X156.275 Y73.616 E.05704
G1 X156.275 Y91.06 E.54694
G1 X155.782 Y92.509 E.048
G1 X153.162 Y95.293 E.11988
G1 X152.161 Y95.89 E.03654
G1 X143.692 Y98.417 E.27709
G1 X143.012 Y98.517 E.02154
G1 X121.595 Y98.517 E.67152
G1 X121.052 Y98.454 E.01715
G1 X110.288 Y95.926 E.34667
G1 X109.04 Y95.183 E.04555
G1 X108.344 Y93.502 E.05704
G1 X108.344 Y73.616 E.6235
G1 X109.017 Y71.991 E.05516
M204 S1000
;WIPE_START
G1 F8640
G1 X109.151 Y71.825 E-.04917
G1 X110.378 Y71.172 E-.32107
G1 X112.036 Y70.856 E-.38976
;WIPE_END
G1 E-.04 F2100
G1 Z.6 F720
G1 X120.376 Y75.401 F10800
G1 Z.2 F720
G1 E.8 F2100
M204 S800
G1 F1200
G1 X120.775 Y74.155 E.04102
G1 X121.398 Y73.164 E.03668
G1 X122.375 Y72.27 E.04153
G1 X122.956 Y71.899 E.02161
G1 X124.725 Y71.4 E.05763
G1 X139.839 Y71.403 E.4739
G1 X140.804 Y71.576 E.03075
G1 X141.737 Y71.948 E.03147
G1 X142.829 Y72.753 E.04256
G1 X143.741 Y73.97 E.04767
G1 X144.232 Y75.398 E.04734
G1 X145.605 Y91.096 E.4941
G1 X145.225 Y92.885 E.05734
G1 X144.508 Y94.086 E.04386
G1 X143.701 Y94.875 E.03537
G1 X142.75 Y95.442 E.03472
G1 X141.152 Y95.853 E.05174
G1 X123.455 Y95.853 E.55488
G1 X121.992 Y95.498 E.04721
G1 X120.666 Y94.681 E.04882
G1 X120.063 Y94.04 E.02761
G1 X119.588 Y93.355 E.02613
G1 X119.002 Y91.107 E.07284
G1 X120.37 Y75.46 E.49245
M204 S1000
G1 X120.746 Y75.493 F10800
M204 S800
G1 F1200
G1 X121.126 Y74.295 E.03943
G1 X121.702 Y73.388 E.03366
G1 X122.615 Y72.561 E.03864
G1 X123.134 Y72.233 E.01925
G1 X124.75 Y71.777 E.05267
G1 X139.822 Y71.78 E.47255
G1 X140.717 Y71.944 E.02854
G1 X141.573 Y72.288 E.02891
G1 X142.582 Y73.039 E.03946
G1 X143.395 Y74.122 E.04243
G1 X143.858 Y75.454 E.04423
G1 X145.227 Y91.101 E.49245
G1 X144.863 Y92.774 E.05371
G1 X144.226 Y93.835 E.03879
G1 X143.488 Y94.563 E.03251
G1 X142.581 Y95.104 E.03314
G1 X141.129 Y95.476 E.04699
G1 X123.478 Y95.476 E.55342
G1 X122.112 Y95.139 E.04412
G1 X120.888 Y94.376 E.04524
G1 X120.349 Y93.794 E.02485
G1 X119.917 Y93.168 E.02385
G1 X119.38 Y91.108 E.06676
G1 X120.741 Y75.553 E.48956
M204 S1000
G1 X121.116 Y75.586 F10800
M204 S800
G1 F1200
G1 X121.123 Y75.51 E.00239
G1 X121.477 Y74.436 E.03545
G1 X122.005 Y73.614 E.03063
G1 X122.854 Y72.853 E.03577
G1 X123.311 Y72.566 E.01691
G1 X124.776 Y72.154 E.04773
G1 X139.804 Y72.157 E.47118
G1 X140.629 Y72.311 E.02631
G1 X141.407 Y72.628 E.02635
G1 X142.333 Y73.324 E.03633
G1 X143.074 Y74.323 E.039
G1 X143.485 Y75.51 E.03939
G1 X144.849 Y91.104 E.49081
G1 X144.502 Y92.662 E.05003
G1 X143.944 Y93.584 E.03381
G1 X143.275 Y94.251 E.02962
G1 X142.411 Y94.766 E.03153
G1 X141.105 Y95.099 E.04225
G1 X123.502 Y95.099 E.55195
M73 Q0 S169
G1 X122.234 Y94.781 E.04098
G1 X121.112 Y94.071 E.04163
G1 X120.637 Y93.55 E.0221
G1 X120.246 Y92.982 E.02163
G1 X119.758 Y91.108 E.0607
G1 X121.111 Y75.646 E.48667
M204 S1000
G1 X121.487 Y75.679 F10800
M204 S800
G1 F1200
G1 X121.497 Y75.566 E.00356
G1 X121.826 Y74.579 E.0326
G1 X122.306 Y73.842 E.02758
G1 X123.091 Y73.146 E.03289
G1 X123.487 Y72.901 E.01459
G1 X124.802 Y72.531 E.04284
G1 X139.786 Y72.534 E.4698
G1 X140.539 Y72.677 E.02403
G1 X141.24 Y72.967 E.02378
G1 X142.083 Y73.607 E.03319
G1 X142.753 Y74.522 E.03556
G1 X143.111 Y75.566 E.0346
G1 X144.471 Y91.107 E.48916
G1 X144.142 Y92.547 E.04631
G1 X143.66 Y93.334 E.02894
G1 X143.061 Y93.94 E.02672
G1 X142.241 Y94.428 E.0299
G1 X141.082 Y94.722 E.0375
G1 X123.526 Y94.722 E.55046
G1 X122.357 Y94.423 E.03783
G1 X121.373 Y93.798 E.03655
G1 X120.94 Y93.326 E.02008
G1 X120.576 Y92.795 E.02018
G1 X120.137 Y91.109 E.05464
G1 X121.482 Y75.738 E.48377
M204 S1000
G1 X121.857 Y75.771 F10800
M204 S800
G1 F1200
G1 X121.87 Y75.622 E.00471
G1 X122.175 Y74.725 E.0297
G1 X122.606 Y74.072 E.02452
G1 X123.327 Y73.441 E.03003
G1 X123.661 Y73.236 E.0123
G1 X124.828 Y72.908 E.038
G1 X139.768 Y72.911 E.46844
G1 X140.413 Y73.033 E.02057
G1 X141.072 Y73.305 E.02237
G1 X141.831 Y73.889 E.03002
G1 X142.406 Y74.673 E.03048
G1 X142.737 Y75.622 E.03152
G1 X144.092 Y91.11 E.48745
G1 X143.782 Y92.43 E.04253
G1 X143.376 Y93.086 E.02419
G1 X142.846 Y93.629 E.02379
G1 X142.072 Y94.09 E.02825
G1 X141.059 Y94.345 E.03276
G1 X123.549 Y94.345 E.54902
G1 X122.531 Y94.088 E.03291
G1 X121.633 Y93.524 E.03324
G1 X121.227 Y93.081 E.01884
G1 X120.905 Y92.61 E.01789
G1 X120.515 Y91.11 E.04861
G1 X121.852 Y75.831 E.48088
M204 S1000
G1 X122.228 Y75.864 F10800
M204 S800
G1 F1200
G1 X122.244 Y75.678 E.00585
G1 X122.523 Y74.872 E.02674
G1 X122.904 Y74.304 E.02145
G1 X123.56 Y73.738 E.02717
G1 X123.834 Y73.572 E.01003
G1 X124.854 Y73.285 E.03322
G1 X139.75 Y73.288 E.46705
G1 X140.321 Y73.399 E.01825
G1 X140.902 Y73.643 E.01977
G1 X141.578 Y74.169 E.02684
G1 X142.084 Y74.871 E.02713
G1 X142.364 Y75.678 E.02679
G1 X143.714 Y91.111 E.48574
G1 X143.424 Y92.31 E.03869
G1 X143.091 Y92.839 E.01958
G1 X142.63 Y93.318 E.02085
G1 X141.903 Y93.752 E.02655
G1 X141.036 Y93.968 E.02801
G1 X123.572 Y93.968 E.54759
G1 X122.704 Y93.751 E.02804
G1 X121.893 Y93.25 E.02988
G1 X121.515 Y92.837 E.01757
G1 X121.236 Y92.425 E.01559
G1 X120.894 Y91.11 E.0426
G1 X122.222 Y75.924 E.47799
M204 S1000
G1 X122.598 Y75.957 F10800
M204 S800
G1 F1200
G1 X122.617 Y75.735 E.00696
G1 X122.87 Y75.022 E.02372
G1 X123.2 Y74.539 E.01837
G1 X123.791 Y74.036 E.02432
G1 X124.005 Y73.909 E.0078
G1 X124.88 Y73.662 E.0285
G1 X139.73 Y73.666 E.46563
G1 X140.227 Y73.765 E.01588
G1 X140.73 Y73.979 E.01716
G1 X141.323 Y74.448 E.02369
G1 X141.738 Y75.022 E.02222
G1 X141.99 Y75.735 E.02371
G1 X143.335 Y91.112 E.48396
G1 X143.066 Y92.187 E.03476
G1 X142.805 Y92.593 E.01514
M73 P0 R168
G1 X142.414 Y93.009 E.01788
G1 X141.734 Y93.414 E.02481
G1 X141.014 Y93.591 E.02326
G1 X123.594 Y93.591 E.54618
G1 X122.874 Y93.414 E.02324
G1 X122.153 Y92.975 E.02648
G1 X121.803 Y92.593 E.01625
G1 X121.566 Y92.242 E.01326
G1 X121.272 Y91.111 E.03663
G1 X122.593 Y76.016 E.47509
M204 S1000
G1 X122.969 Y76.049 F10800
M204 S800
G1 F1200
G1 X122.991 Y75.793 E.00805
G1 X123.215 Y75.176 E.02061
G1 X123.494 Y74.776 E.01527
G1 X124.02 Y74.337 E.02149
G1 X124.173 Y74.247 E.00558
G1 X124.906 Y74.039 E.02387
G1 X139.71 Y74.043 E.46418
G1 X140.13 Y74.13 E.01345
G1 X140.556 Y74.315 E.01455
G1 X141.066 Y74.726 E.02055
G1 X141.393 Y75.176 E.01745
G1 X141.617 Y75.793 E.02058
G1 X142.957 Y91.112 E.48212
G1 X142.71 Y92.059 E.03071
G1 X142.517 Y92.349 E.01091
G1 X142.196 Y92.699 E.01489
G1 X141.566 Y93.075 E.023
G1 X140.992 Y93.213 E.01852
G1 X123.616 Y93.213 E.54481
G1 X123.042 Y93.075 E.01852
G1 X122.412 Y92.699 E.023
G1 X122.091 Y92.349 E.01489
G1 X121.898 Y92.059 E.01091
G1 X121.651 Y91.112 E.03071
G1 X122.963 Y76.109 E.4722
M204 S1000
G1 X123.339 Y76.142 F10800
M204 S800
G1 F1200
G1 X123.364 Y75.853 E.0091
G1 X123.559 Y75.333 E.0174
G1 X123.785 Y75.017 E.01217
G1 X124.245 Y74.64 E.01867
G1 X124.339 Y74.586 E.00339
G1 X124.932 Y74.416 E.01936
G1 X139.689 Y74.42 E.46269
G1 X140.03 Y74.494 E.01093
G1 X140.378 Y74.648 E.01196
G1 X140.808 Y75.001 E.01743
G1 X141.049 Y75.333 E.01287
G1 X141.243 Y75.853 E.01739
G1 X142.578 Y91.112 E.48027
G1 X142.378 Y91.879 E.02484
G1 X142.228 Y92.106 E.00853
G1 X141.938 Y92.423 E.01347
G1 X141.402 Y92.735 E.01944
G1 X140.97 Y92.836 E.0139
G1 X123.637 Y92.836 E.54347
G1 X123.206 Y92.735 E.0139
G1 X122.67 Y92.423 E.01944
G1 X122.379 Y92.106 E.01347
G1 X122.23 Y91.879 E.00853
G1 X122.029 Y91.112 E.02484
G1 X123.334 Y76.202 E.46929
M204 S1000
G1 X123.709 Y76.234 F10800
M204 S800
G1 F1200
G1 X123.737 Y75.913 E.01011
G1 X123.901 Y75.492 E.01417
G1 X124.043 Y75.293 E.00767
G1 X124.468 Y74.944 E.01722
G1 X124.96 Y74.793 E.01614
G1 X139.669 Y74.797 E.46118
G1 X139.894 Y74.846 E.00724
G1 X140.2 Y74.982 E.01049
G1 X140.547 Y75.274 E.01423
G1 X140.707 Y75.494 E.00853
G1 X140.87 Y75.913 E.01412
G1 X142.2 Y91.112 E.47837
G1 X142.045 Y91.7 E.01906
G1 X141.939 Y91.864 E.00611
G1 X141.681 Y92.145 E.01197
G1 X141.242 Y92.392 E.01579
G1 X140.95 Y92.459 E.00942
G1 X123.658 Y92.459 E.54217
G1 X123.365 Y92.392 E.00942
G1 X122.927 Y92.145 E.01579
G1 X122.669 Y91.864 E.01197
G1 X122.563 Y91.7 E.00611
G1 X122.408 Y91.112 E.01906
G1 X123.704 Y76.294 E.46638
M204 S1000
G1 X124.08 Y76.327 F10800
M204 S800
G1 F1200
G1 X124.111 Y75.976 E.01105
G1 X124.239 Y75.66 E.01071
G1 X124.329 Y75.54 E.0047
G1 X124.661 Y75.272 E.01337
G1 X124.99 Y75.171 E.01078
G1 X139.648 Y75.174 E.45959
G1 X139.758 Y75.198 E.00356
G1 X140.02 Y75.314 E.00897
G1 X140.283 Y75.544 E.01094
G1 X140.368 Y75.659 E.0045
G1 X140.497 Y75.976 E.01073
G1 X141.821 Y91.111 E.47637
G1 X141.71 Y91.524 E.0134
G1 X141.649 Y91.622 E.00364
G1 X141.426 Y91.866 E.01034
G1 X141.089 Y92.047 E.01199
G1 X140.93 Y92.082 E.00511
G1 X123.678 Y92.082 E.54092
G1 X123.519 Y92.047 E.00511
G1 X123.182 Y91.866 E.01199
G1 X122.959 Y91.622 E.01034
G1 X122.898 Y91.524 E.00364
G1 X122.786 Y91.111 E.0134
G1 X124.075 Y76.387 E.46345
M204 S1000
G1 X124.45 Y76.42 F10800
M204 S800
G1 F1200
G1 X124.483 Y76.042 E.01189
G1 X124.575 Y75.833 E.00715
G1 X124.82 Y75.616 E.01028
G1 X125.023 Y75.548 E.0067
G1 X139.598 Y75.548 E.45701
G1 X139.837 Y75.646 E.00809
G1 X140.033 Y75.833 E.0085
G1 X140.124 Y76.042 E.00715
G1 X141.443 Y91.109 E.47422
G1 X141.356 Y91.384 E.00904
G1 X141.173 Y91.584 E.00849
G1 X140.911 Y91.705 E.00904
G1 X123.696 Y91.705 E.53976
G1 X123.435 Y91.584 E.00904
G1 X123.235 Y91.354 E.00955
G1 X123.165 Y91.109 E.008
G1 X124.445 Y76.479 E.46045
M204 S1000
G1 X124.821 Y76.512 F10800
M204 S800
G1 F1200
G1 X124.855 Y76.114 E.01253
G1 X124.887 Y76.051 E.00222
G1 X124.996 Y75.95 E.00466
G1 X125.062 Y75.925 E.00222
G1 X139.546 Y75.925 E.45411
G1 X139.611 Y75.95 E.00222
G1 X139.721 Y76.051 E.00466
G1 X139.752 Y76.114 E.00222
G1 X141.063 Y91.098 E.47159
G1 X141.038 Y91.173 E.00249
G1 X140.925 Y91.296 E.00525
G1 X140.852 Y91.328 E.00249
G1 X123.756 Y91.328 E.53604
G1 X123.683 Y91.296 E.00249
G1 X123.57 Y91.173 E.00525
G1 X123.545 Y91.098 E.00249
G1 X124.815 Y76.572 E.45718
M204 S1000
; printing object Wing to mainrod connector v3 id:0 copy 0
;WIPE_START
G1 F8640
G1 X124.855 Y76.114 E-.10615
G1 X124.887 Y76.051 E-.01633
G1 X124.996 Y75.95 E-.03429
G1 X125.062 Y75.925 E-.01633
G1 X127.604 Y75.925 E-.58689
;WIPE_END
G1 E-.04 F2100
G1 Z.6 F720
G1 X119.665 Y75.53 F10800
G1 Z.2 F720
G1 E.8 F2100
M204 S800
;TYPE:Support material
G1 F1200
G1 X118.329 Y90.801 E.48066
G1 X118.685 Y93.211 E.07636
G1 X118.824 Y93.424 E.00797
G1 X110.91 Y93.424 E.24816
G1 X110.91 Y73.694 E.6186
G1 X120.204 Y73.694 E.29143
G1 X119.681 Y75.476 E.05821
M204 S1000
G1 X119.74 Y74.672 F10800
M204 S800
G1 F1200
G1 X119.74 Y74.034 E.02001
G1 X119.321 Y74.034 E.01314
G1 X119.321 Y75.566 E.04806
G1 X118.902 Y80.355 E.15073
G1 X118.902 Y74.034 E.19821
G1 X118.483 Y74.034 E.01314
G1 X118.483 Y87.091 E.40941
M204 S1000
G1 X118.064 Y93.254 F10800
M204 S800
G1 F1200
G1 X118.064 Y74.034 E.60264
G1 X117.645 Y74.034 E.01314
G1 X117.645 Y93.084 E.59732
G1 X117.226 Y93.084 E.01314
G1 X117.226 Y74.034 E.59732
G1 X116.807 Y74.034 E.01314
G1 X116.807 Y93.084 E.59732
G1 X116.388 Y93.084 E.01314
G1 X116.388 Y74.034 E.59732
G1 X115.97 Y74.034 E.01314
G1 X115.97 Y93.084 E.59732
G1 X115.551 Y93.084 E.01314
G1 X115.551 Y74.034 E.59732
G1 X115.132 Y74.034 E.01314
G1 X115.132 Y93.084 E.59732
G1 X114.713 Y93.084 E.01314
G1 X114.713 Y74.034 E.59732
G1 X114.294 Y74.034 E.01314
G1 X114.294 Y93.084 E.59732
G1 X113.875 Y93.084 E.01314
G1 X113.875 Y74.034 E.59732
G1 X113.456 Y74.034 E.01314
G1 X113.456 Y93.084 E.59732
G1 X113.037 Y93.084 E.01314
G1 X113.037 Y74.034 E.59732
G1 X112.618 Y74.034 E.01314
G1 X112.618 Y93.084 E.59732
G1 X112.199 Y93.084 E.01314
G1 X112.199 Y74.034 E.59732
G1 X111.78 Y74.034 E.01314
G1 X111.78 Y93.084 E.59732
G1 X111.361 Y93.084 E.01314
G1 X111.361 Y73.864 E.60264
M204 S1000
;WIPE_START
G1 F8640
M73 Q0 S168
G1 X111.361 Y77.155 E-.76
;WIPE_END
G1 E-.04 F2100
G1 Z.6 F720
G1 X153.71 Y91.117 F10800
G1 Z.2 F720
G1 E.8 F2100
M204 S800
G1 F1200
G1 X151.403 Y91.117 E.07234
G1 X151.403 Y93.424 E.07234
G1 X145.734 Y93.424 E.17775
G1 X146.048 Y92.858 E.02029
G1 X146.278 Y90.798 E.065
G1 X144.944 Y75.544 E.48008
G1 X144.587 Y74.046 E.04828
G1 X144.357 Y73.694 E.01319
G1 X153.71 Y73.694 E.29324
G1 X153.71 Y91.06 E.54449
M204 S1000
G1 X153.258 Y90.947 F10800
M204 S800
G1 F1200
G1 X153.258 Y74.034 E.5303
G1 X152.839 Y74.034 E.01314
G1 X152.839 Y90.777 E.52498
G1 X152.42 Y90.777 E.01314
G1 X152.421 Y74.034 E.52498
G1 X152.002 Y74.034 E.01314
G1 X152.002 Y90.777 E.52498
G1 X151.583 Y90.777 E.01314
G1 X151.583 Y74.034 E.52498
G1 X151.164 Y74.034 E.01314
G1 X151.164 Y90.777 E.52498
G1 X151.063 Y90.777 E.00315
G1 X151.063 Y93.084 E.07234
G1 X150.745 Y93.084 E.00999
G1 X150.745 Y74.034 E.59732
G1 X150.326 Y74.034 E.01314
G1 X150.326 Y93.084 E.59732
G1 X149.907 Y93.084 E.01314
G1 X149.907 Y74.034 E.59732
G1 X149.488 Y74.034 E.01314
G1 X149.488 Y93.084 E.59732
G1 X149.069 Y93.084 E.01314
G1 X149.069 Y74.034 E.59732
G1 X148.65 Y74.034 E.01314
G1 X148.65 Y93.084 E.59732
G1 X148.231 Y93.084 E.01314
G1 X148.231 Y74.034 E.59732
G1 X147.812 Y74.034 E.01314
M73 P1 R167
M73 Q1 S168
G1 X147.812 Y93.084 E.59732
G1 X147.393 Y93.084 E.01314
G1 X147.393 Y74.034 E.59732
G1 X146.974 Y74.034 E.01314
G1 X146.974 Y93.084 E.59732
G1 X146.555 Y93.084 E.01314
G1 X146.555 Y74.034 E.59732
G1 X146.136 Y74.034 E.01314
G1 X146.136 Y85.276 E.35249
G1 X145.717 Y80.487 E.15073
G1 X145.717 Y74.034 E.20234
G1 X145.298 Y74.034 E.01314
G1 X145.298 Y77.645 E.11323
M204 S1000
;WIPE_START
G1 F8640
G1 X145.298 Y74.353 E-.76
;WIPE_END
G1 E-.04 F2100
G1 Z.6 F720
G1 X138.933 Y76.8 F10800
G1 Z.2 F720
G1 E.8 F2100
M204 S800
;TYPE:Perimeter
;WIDTH:0.419999
G1 F1200
G1 X140.128 Y90.452 E.42969
G1 X124.48 Y90.452 E.49062
G1 X125.674 Y76.8 E.42969
G1 X138.873 Y76.8 E.41384
M204 S1000
G1 X139.279 Y76.423 F10800
M204 S800
;TYPE:External perimeter
G1 F1200
G1 X140.539 Y90.83 E.45342
G1 X124.068 Y90.83 E.51643
G1 X125.329 Y76.423 E.45342
G1 X139.219 Y76.423 E.43551
M204 S1000
G1 X139.194 Y76.814 F10800
;WIPE_START
G1 F8640
G1 X139.519 Y79.701 E-.76
;WIPE_END
G1 E-.04 F2100
G1 Z.6 F720
G1 X137.242 Y78.266 F10800
G1 Z.2 F720
G1 E.8 F2100
M204 S800
;TYPE:Perimeter
G1 F1200
G1 X137.514 Y78.369 E.00912
G1 X137.704 Y78.792 E.01453
G1 X137.704 Y88.461 E.30317
G1 X137.652 Y88.697 E.00759
G1 X137.467 Y88.921 E.00911
G1 X137.236 Y89.018 E.00785
